; generated by Slic3r 0.9.8 on 2013-06-02 at 22:48:39

; layer_height = 0.34
; perimeters = 2
; top_solid_layers = 2
; bottom_solid_layers = 2
; fill_density = 0.4
; perimeter_speed = 70
; infill_speed = 70
; travel_speed = 100
; scale = 1
; nozzle_diameter = 0.5
; filament_diameter = 3
; extrusion_multiplier = 0.9
; perimeters extrusion width = 0.60mm
; infill extrusion width = 0.37mm
; support material extrusion width = 0.60mm
; first layer extrusion width = 0.60mm

M107
M104 S220 ; set temperature
G28 ; home all axes
M92 X64.8592 ; calibrate X
M92 Y64.8592  ; calibrate Y
M92 Z2560   ; calibrate Z
M92 E569  ; calibrate E
M551 ; prime extruder 1
M109 S220 ; wait for temperature to be reached
G90 ; use absolute coordinates
G21 ; set units to millimeters
G92 E0
M82 ; use absolute distances for extrusion
G1 F1800.000 E-1.00000
G92 E0
G1 Z0.340 F6000.000
G1 X123.660 Y123.610
G1 F1800.000 E1.00000
G1 X123.110 Y124.110 F2100.000 E1.01858
G1 X122.710 Y124.390 E1.03079
G1 X122.280 Y124.650 E1.04335
G1 X121.840 Y124.860 E1.05554
G1 X121.370 Y125.040 E1.06812
G1 X120.650 Y125.220 E1.08668
G1 X119.920 Y125.310 E1.10506
G1 X112.940 Y125.710 E1.27985
G1 X85.440 Y125.710 E1.96735
G1 X79.730 Y125.410 E2.11030
G1 X79.240 Y125.340 E2.12267
G1 X78.760 Y125.220 E2.13504
G1 X78.280 Y125.070 E2.14761
G1 X77.830 Y124.880 E2.15983
G1 X77.390 Y124.640 E2.17236
G1 X76.770 Y124.230 E2.19094
G1 X76.210 Y123.730 E2.20971
G1 X75.880 Y123.360 E2.22210
G1 X75.580 Y122.970 E2.23440
G1 X75.320 Y122.550 E2.24675
G1 X75.090 Y122.110 E2.25916
G1 X74.900 Y121.650 E2.27161
G1 X74.690 Y120.930 E2.29036
G1 X74.640 Y120.690 E2.29648
G1 X74.560 Y119.950 E2.31509
G1 X74.560 Y80.040 E3.31284
G1 X74.640 Y79.300 E3.33145
G1 X74.690 Y79.060 E3.33758
G1 X74.820 Y78.580 E3.35001
G1 X74.990 Y78.110 E3.36251
G1 X75.200 Y77.660 E3.37492
G1 X75.440 Y77.230 E3.38723
G1 X75.730 Y76.820 E3.39979
G1 X76.040 Y76.440 E3.41205
G1 X76.390 Y76.090 E3.42442
G1 X76.770 Y75.760 E3.43700
G1 X77.180 Y75.480 E3.44942
G1 X77.600 Y75.230 E3.46163
G1 X77.830 Y75.110 E3.46812
G1 X78.280 Y74.920 E3.48033
G1 X78.760 Y74.770 E3.49290
G1 X79.240 Y74.650 E3.50527
G1 X79.730 Y74.580 E3.51765
G1 X85.440 Y74.280 E3.66060
G1 X113.280 Y74.290 E4.35660
G1 X119.920 Y74.680 E4.52288
G1 X120.650 Y74.770 E4.54127
G1 X121.370 Y74.950 E4.55982
G1 X121.840 Y75.130 E4.57241
G1 X122.280 Y75.340 E4.58459
G1 X122.710 Y75.600 E4.59716
G1 X123.110 Y75.880 E4.60936
G1 X123.490 Y76.210 E4.62195
G1 X124.000 Y76.750 E4.64051
G1 X124.300 Y77.140 E4.65282
G1 X124.560 Y77.560 E4.66516
G1 X124.790 Y78.000 E4.67758
G1 X125.050 Y78.690 E4.69601
G1 X125.180 Y79.170 E4.70844
G1 X125.230 Y79.410 E4.71457
G1 X125.310 Y80.150 E4.73318
G1 X125.310 Y119.840 E5.72543
G1 X125.230 Y120.580 E5.74404
G1 X125.180 Y120.820 E5.75017
G1 X125.050 Y121.300 E5.76260
G1 X124.790 Y121.990 E5.78103
G1 X124.560 Y122.430 E5.79344
G1 X124.300 Y122.850 E5.80579
G1 X124.000 Y123.240 E5.81809
G1 X123.719 Y123.547 E5.82849
G1 X123.660 Y123.610 E5.83066
G1 X123.250 Y123.210 F6000.000
G1 X123.080 Y123.380 F2100.000 E5.83667
G1 X122.720 Y123.680 E5.84838
G1 X122.130 Y124.070 E5.86606
G1 X121.710 Y124.290 E5.87792
G1 X121.490 Y124.380 E5.88386
G1 X121.040 Y124.530 E5.89572
G1 X120.580 Y124.650 E5.90760
G1 X119.880 Y124.740 E5.92525
G1 X113.240 Y125.130 E6.09153
G1 X85.160 Y125.130 E6.79353
G1 X80.010 Y124.850 E6.92247
G1 X79.540 Y124.800 E6.93429
G1 X79.070 Y124.710 E6.94625
G1 X78.620 Y124.580 E6.95796
G1 X78.180 Y124.400 E6.96985
G1 X77.760 Y124.190 E6.98159
G1 X77.550 Y124.070 E6.98763
G1 X77.160 Y123.800 E6.99949
G1 X76.630 Y123.330 E7.01720
G1 X76.310 Y122.980 E7.02906
G1 X76.030 Y122.600 E7.04086
G1 X75.780 Y122.200 E7.05265
G1 X75.570 Y121.770 E7.06461
G1 X75.400 Y121.330 E7.07641
G1 X75.270 Y120.870 E7.08836
G1 X75.180 Y120.410 E7.10008
G1 X75.140 Y119.940 E7.11187
G1 X75.140 Y80.050 E8.10912
G1 X75.180 Y79.580 E8.12091
G1 X75.270 Y79.120 E8.13263
G1 X75.400 Y78.660 E8.14458
G1 X75.570 Y78.220 E8.15637
G1 X75.670 Y78.000 E8.16241
G1 X75.900 Y77.590 E8.17417
G1 X76.310 Y77.010 E8.19192
G1 X76.470 Y76.830 E8.19794
G1 X76.980 Y76.340 E8.21562
G1 X77.160 Y76.190 E8.22148
G1 X77.550 Y75.920 E8.23334
G1 X78.180 Y75.590 E8.25112
G1 X78.620 Y75.410 E8.26301
G1 X79.070 Y75.280 E8.27472
G1 X79.540 Y75.190 E8.28668
G1 X80.010 Y75.140 E8.29850
G1 X85.160 Y74.860 E8.42744
G1 X113.240 Y74.860 E9.12944
G1 X119.880 Y75.250 E9.29572
G1 X120.580 Y75.340 E9.31337
G1 X121.270 Y75.530 E9.33126
G1 X121.710 Y75.700 E9.34305
G1 X122.130 Y75.920 E9.35490
G1 X122.530 Y76.170 E9.36670
G1 X123.080 Y76.610 E9.38431
G1 X123.410 Y76.950 E9.39615
G1 X123.850 Y77.510 E9.41395
G1 X124.090 Y77.910 E9.42562
G1 X124.300 Y78.330 E9.43736
G1 X124.470 Y78.770 E9.44915
G1 X124.600 Y79.230 E9.46110
G1 X124.690 Y79.690 E9.47282
G1 X124.730 Y80.160 E9.48461
G1 X124.730 Y119.830 E10.47636
G1 X124.690 Y120.300 E10.48815
G1 X124.600 Y120.760 E10.49987
G1 X124.470 Y121.220 E10.51182
G1 X124.300 Y121.660 E10.52361
G1 X124.090 Y122.080 E10.53535
G1 X123.850 Y122.480 E10.54701
G1 X123.560 Y122.860 E10.55896
G1 X123.309 Y123.147 E10.56849
G1 X123.250 Y123.210 E10.57065
G1 X122.990 Y122.650 F6000.000
G1 X122.670 Y122.970 F2100.000 E10.58197
G1 X122.330 Y123.250 E10.59298
G1 X121.770 Y123.610 E10.60962
G1 X121.160 Y123.890 E10.62640
G1 X120.510 Y124.070 E10.64326
G1 X119.850 Y124.160 E10.65992
G1 X112.940 Y124.560 E10.83296
G1 X85.190 Y124.550 E11.52671
G1 X80.040 Y124.270 E11.65565
G1 X79.380 Y124.190 E11.67227
G1 X79.160 Y124.140 E11.67791
G1 X78.730 Y124.000 E11.68921
G1 X78.120 Y123.730 E11.70589
G1 X77.920 Y123.620 E11.71160
G1 X77.550 Y123.370 E11.72276
G1 X77.040 Y122.930 E11.73960
G1 X76.740 Y122.600 E11.75075
G1 X76.480 Y122.240 E11.76185
G1 X76.250 Y121.850 E11.77317
G1 X76.060 Y121.450 E11.78424
G1 X75.910 Y121.020 E11.79563
G1 X75.800 Y120.590 E11.80672
G1 X75.730 Y120.150 E11.81786
G1 X75.710 Y119.700 E11.82912
G1 X75.710 Y80.290 E12.81437
G1 X75.730 Y79.840 E12.82563
G1 X75.760 Y79.620 E12.83118
G1 X75.850 Y79.180 E12.84241
G1 X75.980 Y78.750 E12.85364
G1 X76.150 Y78.340 E12.86474
G1 X76.360 Y77.940 E12.87603
G1 X76.740 Y77.390 E12.89275
G1 X77.040 Y77.060 E12.90389
G1 X77.380 Y76.760 E12.91523
G1 X77.550 Y76.620 E12.92074
G1 X77.920 Y76.370 E12.93190
G1 X78.520 Y76.070 E12.94867
G1 X79.160 Y75.850 E12.96559
G1 X79.380 Y75.800 E12.97123
G1 X80.040 Y75.720 E12.98785
G1 X85.440 Y75.430 E13.12304
G1 X113.210 Y75.440 E13.81729
G1 X119.850 Y75.830 E13.98358
G1 X120.290 Y75.880 E13.99465
G1 X120.940 Y76.030 E14.01133
G1 X121.160 Y76.100 E14.01710
G1 X121.570 Y76.280 E14.02829
G1 X122.150 Y76.610 E14.04498
G1 X122.670 Y77.020 E14.06153
G1 X122.990 Y77.340 E14.07285
G1 X123.270 Y77.690 E14.08405
G1 X123.400 Y77.870 E14.08960
G1 X123.720 Y78.450 E14.10616
G1 X123.960 Y79.080 E14.12302
G1 X124.070 Y79.510 E14.13411
G1 X124.140 Y79.950 E14.14525
G1 X124.160 Y80.400 E14.15651
G1 X124.160 Y119.590 E15.13626
G1 X124.140 Y120.040 E15.14752
G1 X124.110 Y120.260 E15.15307
G1 X124.020 Y120.700 E15.16430
G1 X123.890 Y121.120 E15.17529
G1 X123.620 Y121.740 E15.19220
G1 X123.400 Y122.120 E15.20318
G1 X123.045 Y122.583 E15.21776
G1 X122.990 Y122.650 E15.21993
G1 F1800.000 E14.21993
G92 E0
G1 X112.945 Y119.990 F6000.000
G1 F1800.000 E1.00000
G1 X112.945 Y80.010 F3600.000 E1.99948
G1 X110.445 Y80.010 E2.06198
G1 X110.445 Y119.990 E3.06146
G1 X107.945 Y119.990 E3.12396
G1 X107.945 Y80.010 E4.12344
G1 X105.445 Y80.010 E4.18594
G1 X105.445 Y119.990 E5.18541
G1 X102.945 Y119.990 E5.24791
G1 X102.945 Y80.010 E6.24739
G1 X100.445 Y80.010 E6.30989
G1 X100.445 Y119.990 E7.30937
G1 X97.945 Y119.990 E7.37187
G1 X97.945 Y80.010 E8.37135
G1 X95.445 Y80.010 E8.43385
G1 X95.445 Y119.990 E9.43333
G1 X92.945 Y119.990 E9.49583
G1 X92.945 Y80.010 E10.49531
G1 X90.445 Y80.010 E10.55781
G1 X90.445 Y119.990 E11.55728
G1 X87.945 Y119.990 E11.61978
G1 X87.945 Y80.010 E12.61926
G1 X85.445 Y80.010 E12.68176
G1 X85.445 Y80.168 E12.68571
G1 F1800.000 E11.68571
G92 E0
G1 X85.445 Y119.832 F6000.000
G1 F1800.000 E1.00000
G1 X85.445 Y119.990 F3600.000 E1.00395
G1 F1800.000 E0.00395
G92 E0
G1 X80.902 Y80.299 F6000.000
G1 F1800.000 E1.00000
G1 X80.902 Y119.701 F2100.000 E1.98503
G1 X80.299 Y119.701 E2.00009
G1 X80.299 Y80.299 E2.98512
G1 X80.815 Y80.299 E2.99801
G1 X80.902 Y80.299 E3.00018
G1 F1800.000 E2.00018
G92 E0
G1 X119.448 Y98.955 F6000.000
G1 F1800.000 E1.00000
G1 X119.448 Y80.554 F900.000 E1.46003
G1 X119.310 Y80.405 E1.46512
G1 X119.448 Y80.554 F6000.000
G1 X119.563 Y80.448 F900.000 E1.46902
G1 X119.586 Y80.405 E1.47025
G1 F1800.000 E0.47025
G92 E0
G1 X119.448 Y98.955 F6000.000
G1 F1800.000 E1.00000
G1 X119.448 Y110.896 F900.000 E1.29851
G1 X119.448 Y114.776 E1.39552
G1 X119.448 Y118.657 E1.49254
G1 X119.448 Y119.446 E1.51227
G1 X119.333 Y119.552 E1.51618
G1 X119.310 Y119.595 E1.51741
G1 X119.448 Y119.446 F6000.000
G1 X119.586 Y119.595 F900.000 E1.52249
G1 F1800.000 E0.52249
G92 E0
G1 Z0.680 F6000.000
G1 X112.945 Y119.990
G1 F1800.000 E1.00000
G1 X112.945 Y80.010 F7200.000 E1.99948
G1 X110.445 Y80.010 E2.06198
G1 X110.445 Y119.990 E3.06146
G1 X107.945 Y119.990 E3.12396
G1 X107.945 Y80.010 E4.12344
G1 X105.445 Y80.010 E4.18594
G1 X105.445 Y119.990 E5.18541
G1 X102.945 Y119.990 E5.24791
G1 X102.945 Y80.010 E6.24739
G1 X100.445 Y80.010 E6.30989
G1 X100.445 Y119.990 E7.30937
G1 X97.945 Y119.990 E7.37187
G1 X97.945 Y80.010 E8.37135
G1 X95.445 Y80.010 E8.43385
G1 X95.445 Y119.990 E9.43333
G1 X92.945 Y119.990 E9.49583
G1 X92.945 Y80.010 E10.49531
G1 X90.445 Y80.010 E10.55781
G1 X90.445 Y119.990 E11.55728
G1 X87.945 Y119.990 E11.61978
G1 X87.945 Y80.010 E12.61926
G1 X85.445 Y80.010 E12.68176
G1 X85.445 Y80.168 E12.68571
G1 F1800.000 E11.68571
G92 E0
G1 X85.445 Y119.832 F6000.000
G1 F1800.000 E1.00000
G1 X85.445 Y119.990 F7200.000 E1.00395
G1 F1800.000 E0.00395
G92 E0
G1 X80.902 Y80.299 F6000.000
G1 F1800.000 E1.00000
G1 X80.902 Y119.701 F4200.000 E1.98503
G1 X80.299 Y119.701 E2.00009
G1 X80.299 Y80.299 E2.98512
G1 X80.815 Y80.299 E2.99801
G1 X80.902 Y80.299 E3.00018
G1 F1800.000 E2.00018
G92 E0
G1 X119.460 Y98.955 F6000.000
G1 F1800.000 E1.00000
G1 X119.460 Y80.543 F1800.000 E1.46031
G1 X119.325 Y80.394 E1.46534
G1 X119.460 Y80.543 F6000.000
G1 X119.565 Y80.448 F1800.000 E1.46889
G1 X119.595 Y80.394 E1.47043
G1 F1800.000 E0.47043
G92 E0
G1 X119.460 Y98.955 F6000.000
G1 F1800.000 E1.00000
G1 X119.460 Y110.896 F1800.000 E1.29851
G1 X119.460 Y114.776 E1.39552
G1 X119.460 Y118.657 E1.49254
G1 X119.460 Y118.955 E1.50000
G1 X119.460 Y119.457 E1.51254
G1 X119.354 Y119.552 E1.51609
G1 X119.325 Y119.606 E1.51764
G1 X119.460 Y119.457 F6000.000
G1 X119.595 Y119.606 F1800.000 E1.52267
G1 F1800.000 E0.52267
G92 E0
G1 Z1.020 F6000.000
G1 X112.945 Y119.990
G1 F1800.000 E1.00000
G1 X112.945 Y80.010 F7200.000 E1.99948
G1 X110.445 Y80.010 E2.06198
G1 X110.445 Y119.990 E3.06146
G1 X107.945 Y119.990 E3.12396
G1 X107.945 Y80.010 E4.12344
G1 X105.445 Y80.010 E4.18594
G1 X105.445 Y119.990 E5.18541
G1 X102.945 Y119.990 E5.24791
G1 X102.945 Y80.010 E6.24739
G1 X100.445 Y80.010 E6.30989
G1 X100.445 Y119.990 E7.30937
G1 X97.945 Y119.990 E7.37187
G1 X97.945 Y80.010 E8.37135
G1 X95.445 Y80.010 E8.43385
G1 X95.445 Y119.990 E9.43333
G1 X92.945 Y119.990 E9.49583
G1 X92.945 Y80.010 E10.49531
G1 X90.445 Y80.010 E10.55781
G1 X90.445 Y119.990 E11.55728
G1 X87.945 Y119.990 E11.61978
G1 X87.945 Y80.010 E12.61926
G1 X85.445 Y80.010 E12.68176
G1 X85.445 Y80.168 E12.68571
G1 F1800.000 E11.68571
G92 E0
G1 X85.445 Y119.832 F6000.000
G1 F1800.000 E1.00000
G1 X85.445 Y119.990 F7200.000 E1.00395
G1 F1800.000 E0.00395
G92 E0
G1 X80.299 Y119.701 F6000.000
G1 F1800.000 E1.00000
G1 X80.299 Y80.299 F4200.000 E1.98503
G1 X80.918 Y80.299 E2.00049
G1 X80.918 Y119.701 E2.98552
G1 X80.386 Y119.701 E2.99881
G1 X80.299 Y119.701 E3.00098
G1 F1800.000 E2.00098
G92 E0
G1 X119.472 Y98.955 F6000.000
G1 F1800.000 E1.00000
G1 X119.472 Y80.532 F1800.000 E1.46057
G1 X119.339 Y80.383 E1.46555
G1 X119.472 Y80.532 F6000.000
G1 X119.567 Y80.448 F1800.000 E1.46875
G1 X119.604 Y80.383 E1.47060
G1 F1800.000 E0.47060
G92 E0
G1 X119.472 Y98.955 F6000.000
G1 F1800.000 E1.00000
G1 X119.472 Y110.896 F1800.000 E1.29851
G1 X119.472 Y114.776 E1.39552
G1 X119.472 Y118.657 E1.49254
G1 X119.472 Y118.955 E1.50000
G1 X119.376 Y119.552 E1.51512
G1 X119.339 Y119.617 E1.51697
G1 X119.472 Y119.468 F6000.000
G1 X119.604 Y119.617 F1800.000 E1.52195
G1 F1800.000 E0.52195
G92 E0
G1 Z1.360 F6000.000
G1 X112.945 Y119.990
G1 F1800.000 E1.00000
G1 X112.945 Y80.010 F7200.000 E1.99948
G1 X110.445 Y80.010 E2.06198
G1 X110.445 Y119.990 E3.06146
G1 X107.945 Y119.990 E3.12396
G1 X107.945 Y80.010 E4.12344
G1 X105.445 Y80.010 E4.18594
G1 X105.445 Y119.990 E5.18541
G1 X102.945 Y119.990 E5.24791
G1 X102.945 Y80.010 E6.24739
G1 X100.445 Y80.010 E6.30989
G1 X100.445 Y119.990 E7.30937
G1 X97.945 Y119.990 E7.37187
G1 X97.945 Y80.010 E8.37135
G1 X95.445 Y80.010 E8.43385
G1 X95.445 Y119.990 E9.43333
G1 X92.945 Y119.990 E9.49583
G1 X92.945 Y80.010 E10.49531
G1 X90.445 Y80.010 E10.55781
G1 X90.445 Y119.990 E11.55728
G1 X87.945 Y119.990 E11.61978
G1 X87.945 Y80.010 E12.61926
G1 X85.445 Y80.010 E12.68176
G1 X85.445 Y80.168 E12.68571
G1 F1800.000 E11.68571
G92 E0
G1 X85.445 Y119.832 F6000.000
G1 F1800.000 E1.00000
G1 X85.445 Y119.990 F7200.000 E1.00395
G1 F1800.000 E0.00395
G92 E0
G1 X80.941 Y80.299 F6000.000
G1 F1800.000 E1.00000
G1 X80.941 Y119.701 F4200.000 E1.98503
G1 X80.299 Y119.701 E2.00108
G1 X80.299 Y80.299 E2.98612
G1 X80.855 Y80.299 E3.00000
G1 X80.941 Y80.299 E3.00217
G1 F1800.000 E2.00217
G92 E0
G1 X119.480 Y98.955 F6000.000
G1 F1800.000 E1.00000
G1 X119.480 Y80.525 F1800.000 E1.46075
G1 X119.349 Y80.376 E1.46570
G1 X119.480 Y80.525 F6000.000
G1 X119.569 Y80.448 F1800.000 E1.46865
G1 X119.610 Y80.376 E1.47071
G1 F1800.000 E0.47071
G92 E0
G1 X119.480 Y98.955 F6000.000
G1 F1800.000 E1.00000
G1 X119.480 Y110.896 F1800.000 E1.29851
G1 X119.480 Y114.776 E1.39552
G1 X119.480 Y118.657 E1.49254
G1 X119.480 Y118.955 E1.50000
G1 X119.391 Y119.552 E1.51509
G1 X119.349 Y119.624 E1.51716
G1 X119.480 Y119.475 F6000.000
G1 X119.610 Y119.624 F1800.000 E1.52211
G1 F1800.000 E0.52211
G92 E0
G1 Z1.700 F6000.000
G1 X112.945 Y119.990
G1 F1800.000 E1.00000
G1 X112.945 Y80.010 F7200.000 E1.99948
G1 X110.445 Y80.010 E2.06198
G1 X110.445 Y119.990 E3.06146
G1 X107.945 Y119.990 E3.12396
G1 X107.945 Y80.010 E4.12344
G1 X105.445 Y80.010 E4.18594
G1 X105.445 Y119.990 E5.18541
G1 X102.945 Y119.990 E5.24791
G1 X102.945 Y80.010 E6.24739
G1 X100.445 Y80.010 E6.30989
G1 X100.445 Y119.990 E7.30937
G1 X97.945 Y119.990 E7.37187
G1 X97.945 Y80.010 E8.37135
G1 X95.445 Y80.010 E8.43385
G1 X95.445 Y119.990 E9.43333
G1 X92.945 Y119.990 E9.49583
G1 X92.945 Y80.010 E10.49531
G1 X90.445 Y80.010 E10.55781
G1 X90.445 Y119.990 E11.55728
G1 X87.945 Y119.990 E11.61978
G1 X87.945 Y80.010 E12.61926
G1 X85.445 Y80.010 E12.68176
G1 X85.445 Y80.168 E12.68571
G1 F1800.000 E11.68571
G92 E0
G1 X85.445 Y119.832 F6000.000
G1 F1800.000 E1.00000
G1 X85.445 Y119.990 F7200.000 E1.00395
G1 F1800.000 E0.00395
G92 E0
G1 X80.965 Y80.299 F6000.000
G1 F1800.000 E1.00000
G1 X80.965 Y119.701 F4200.000 E1.98503
G1 X80.299 Y119.701 E2.00168
G1 X80.299 Y80.299 E2.98671
G1 X80.878 Y80.299 E3.00119
G1 X80.965 Y80.299 E3.00335
G1 F1800.000 E2.00335
G92 E0
G1 X119.446 Y98.955 F6000.000
G1 F1800.000 E1.00000
G1 X119.446 Y80.555 F1800.000 E1.46000
G1 X119.308 Y80.406 E1.46509
G1 X119.446 Y80.555 F6000.000
G1 X119.562 Y80.448 F1800.000 E1.46904
G1 X119.585 Y80.406 E1.47023
G1 F1800.000 E0.47023
G92 E0
G1 X119.446 Y98.955 F6000.000
G1 F1800.000 E1.00000
G1 X119.446 Y110.896 F1800.000 E1.29851
G1 X119.446 Y114.776 E1.39552
G1 X119.446 Y118.657 E1.49254
G1 X119.446 Y118.955 E1.50000
G1 X119.446 Y119.445 E1.51224
G1 X119.331 Y119.552 E1.51619
G1 X119.308 Y119.594 E1.51738
G1 X119.446 Y119.445 F6000.000
G1 X119.585 Y119.594 F1800.000 E1.52247
G1 F1800.000 E0.52247
G92 E0
G1 Z2.040 F6000.000
G1 X112.945 Y119.990
G1 F1800.000 E1.00000
G1 X112.945 Y80.010 F7200.000 E1.99948
G1 X110.445 Y80.010 E2.06198
G1 X110.445 Y119.990 E3.06146
G1 X107.945 Y119.990 E3.12396
G1 X107.945 Y80.010 E4.12344
