; generated by Slic3r 0.9.8 on 2013-06-06 at 18:36:33

; layer_height = 0.34
; perimeters = 2
; top_solid_layers = 2
; bottom_solid_layers = 2
; fill_density = 0.4
; perimeter_speed = 70
; infill_speed = 70
; travel_speed = 100
; scale = 1
; nozzle_diameter = 0.5
; filament_diameter = 3
; extrusion_multiplier = 0.9
; perimeters extrusion width = 0.60mm
; infill extrusion width = 0.37mm
; support material extrusion width = 0.60mm
; first layer extrusion width = 0.60mm

M107
M104 S220 ; set temperature
G28 ; home all axes
M92 X64.8592 ; calibrate X
M92 Y64.8592  ; calibrate Y
M92 Z2560   ; calibrate Z
M92 E569  ; calibrate E
M551 ; prime extruder 1
M109 S220 ; wait for temperature to be reached
G90 ; use absolute coordinates
G21 ; set units to millimeters
G92 E0
M82 ; use absolute distances for extrusion
G1 F1800.000 E-1.00000
G92 E0
G1 Z0.340 F6000.000
G1 X132.603 Y124.843
G1 F1800.000 E1.00000
G1 X103.593 Y124.843 F2100.000 E1.72525
G1 X102.723 Y124.793 E1.74704
G1 X66.723 Y120.113 E2.65461
G1 X66.253 Y120.003 E2.66668
G1 X65.793 Y119.853 E2.67877
G1 X65.353 Y119.663 E2.69075
G1 X64.733 Y119.303 E2.70868
G1 X64.173 Y118.863 E2.72648
G1 X63.833 Y118.523 E2.73850
G1 X63.383 Y117.963 E2.75646
G1 X63.123 Y117.553 E2.76860
G1 X62.913 Y117.123 E2.78056
G1 X62.663 Y116.453 E2.79844
G1 X62.553 Y115.983 E2.81051
G1 X62.473 Y115.273 E2.82837
G1 X62.473 Y85.383 E3.57562
G1 X62.513 Y84.913 E3.58741
G1 X62.603 Y84.453 E3.59913
G1 X62.733 Y83.993 E3.61108
G1 X62.903 Y83.553 E3.62288
G1 X63.113 Y83.133 E3.63461
G1 X63.353 Y82.733 E3.64628
G1 X63.493 Y82.533 E3.65238
G1 X63.793 Y82.173 E3.66410
G1 X64.123 Y81.833 E3.67594
G1 X64.483 Y81.533 E3.68766
G1 X64.873 Y81.263 E3.69951
G1 X65.283 Y81.023 E3.71139
G1 X65.713 Y80.833 E3.72314
G1 X65.943 Y80.753 E3.72923
G1 X66.393 Y80.613 E3.74101
G1 X66.623 Y80.563 E3.74690
G1 X102.193 Y75.203 E4.64619
G1 X102.963 Y75.153 E4.66548
G1 X132.603 Y75.153 E5.40648
G1 X133.073 Y75.193 E5.41827
G1 X133.773 Y75.343 E5.43617
G1 X134.443 Y75.583 E5.45396
G1 X134.873 Y75.803 E5.46604
G1 X135.473 Y76.193 E5.48393
G1 X136.013 Y76.653 E5.50166
G1 X136.473 Y77.193 E5.51939
G1 X136.743 Y77.593 E5.53146
G1 X137.083 Y78.223 E5.54936
G1 X137.253 Y78.663 E5.56115
G1 X137.433 Y79.353 E5.57898
G1 X137.473 Y79.593 E5.58506
G1 X137.513 Y80.063 E5.59685
G1 X137.513 Y119.933 E6.59360
G1 X137.493 Y120.173 E6.59962
G1 X137.473 Y120.403 E6.60539
G1 X137.383 Y120.873 E6.61736
G1 X137.253 Y121.333 E6.62931
G1 X137.083 Y121.773 E6.64110
G1 X136.863 Y122.203 E6.65318
G1 X136.613 Y122.603 E6.66497
G1 X136.333 Y122.983 E6.67677
G1 X136.013 Y123.343 E6.68881
G1 X135.653 Y123.663 E6.70085
G1 X135.273 Y123.943 E6.71265
G1 X134.873 Y124.193 E6.72444
G1 X134.443 Y124.413 E6.73652
G1 X134.003 Y124.583 E6.74831
G1 X133.543 Y124.713 E6.76026
G1 X133.073 Y124.803 E6.77223
G1 X132.690 Y124.836 E6.78185
G1 X132.603 Y124.843 E6.78402
G1 X132.583 Y124.263 F6000.000
G1 X103.893 Y124.273 F2100.000 E7.50127
G1 X102.433 Y124.183 E7.53784
G1 X66.803 Y119.533 E8.43614
G1 X66.363 Y119.433 E8.44742
G1 X65.723 Y119.203 E8.46442
G1 X65.123 Y118.873 E8.48154
G1 X64.583 Y118.453 E8.49865
G1 X64.263 Y118.143 E8.50978
G1 X63.973 Y117.793 E8.52115
G1 X63.713 Y117.413 E8.53266
G1 X63.493 Y117.013 E8.54407
G1 X63.403 Y116.803 E8.54978
G1 X63.183 Y116.163 E8.56670
G1 X63.093 Y115.713 E8.57817
G1 X63.043 Y115.033 E8.59522
G1 X63.043 Y85.623 E9.33047
G1 X63.063 Y85.173 E9.34173
G1 X63.133 Y84.733 E9.35287
G1 X63.243 Y84.293 E9.36421
G1 X63.393 Y83.873 E9.37536
G1 X63.693 Y83.273 E9.39213
G1 X63.943 Y82.903 E9.40329
G1 X64.223 Y82.553 E9.41450
G1 X64.543 Y82.233 E9.42581
G1 X64.893 Y81.953 E9.43702
G1 X65.073 Y81.823 E9.44257
G1 X65.463 Y81.593 E9.45389
G1 X65.863 Y81.393 E9.46507
G1 X66.073 Y81.313 E9.47069
G1 X66.503 Y81.183 E9.48192
G1 X66.943 Y81.093 E9.49314
G1 X102.283 Y75.773 E10.38660
G1 X102.963 Y75.723 E10.40364
G1 X132.363 Y75.723 E11.13864
G1 X132.813 Y75.743 E11.14991
G1 X133.473 Y75.863 E11.16668
G1 X133.903 Y75.993 E11.17791
G1 X134.323 Y76.163 E11.18923
G1 X134.903 Y76.493 E11.20592
G1 X135.093 Y76.623 E11.21167
G1 X135.603 Y77.063 E11.22851
G1 X136.043 Y77.573 E11.24535
G1 X136.293 Y77.953 E11.25672
G1 X136.503 Y78.343 E11.26780
G1 X136.743 Y78.973 E11.28465
G1 X136.893 Y79.633 E11.30157
G1 X136.923 Y79.853 E11.30712
G1 X136.943 Y80.303 E11.31838
G1 X136.943 Y119.693 E12.30313
G1 X136.923 Y120.143 E12.31439
G1 X136.853 Y120.583 E12.32553
G1 X136.743 Y121.023 E12.33687
G1 X136.503 Y121.653 E12.35372
G1 X136.293 Y122.043 E12.36480
G1 X136.043 Y122.423 E12.37617
G1 X135.603 Y122.933 E12.39301
G1 X135.093 Y123.373 E12.40985
G1 X134.713 Y123.623 E12.42122
G1 X134.323 Y123.833 E12.43229
G1 X133.903 Y124.003 E12.44362
G1 X133.473 Y124.133 E12.45485
G1 X133.033 Y124.223 E12.46608
G1 X132.670 Y124.260 E12.47521
G1 X132.583 Y124.263 E12.47738
G1 F1800.000 E11.47738
G92 E0
G1 X131.790 Y80.877 F6000.000
G1 F1800.000 E1.00000
G1 X131.790 Y119.123 F2100.000 E1.95616
G1 X108.989 Y119.123 E2.52619
G1 X108.932 Y118.877 E2.53251
G1 X113.632 Y116.584 E2.66326
G1 X117.545 Y113.181 E2.79290
G1 X120.445 Y108.882 E2.92253
G1 X122.132 Y103.979 E3.05217
G1 X122.494 Y98.806 E3.18181
G1 X121.504 Y93.716 E3.31145
G1 X119.230 Y89.055 E3.44109
G1 X115.827 Y85.142 E3.57073
G1 X111.528 Y82.243 E3.70037
G1 X108.499 Y81.200 E3.78047
G1 X108.553 Y80.877 E3.78866
G1 X131.703 Y80.877 E4.36742
G1 X131.790 Y80.877 E4.36959
G1 X132.367 Y80.299 F6000.000
G1 X132.367 Y119.701 F1200.000 E5.35462
G1 X103.903 Y119.701 E6.06623
G1 X103.861 Y119.263 E6.07722
G1 X108.787 Y118.305 E6.20268
G1 X113.311 Y116.098 E6.32851
G1 X117.109 Y112.795 E6.45435
G1 X119.923 Y108.622 E6.58019
G1 X121.562 Y103.863 E6.70602
G1 X121.912 Y98.842 E6.83186
G1 X120.951 Y93.901 E6.95770
G1 X118.771 Y89.431 E7.08202
G1 X118.744 Y89.377 E7.08354
G1 X115.441 Y85.578 E7.20937
G1 X111.268 Y82.764 E7.33521
G1 X106.509 Y81.126 E7.46105
G1 X103.297 Y80.902 E7.54153
G1 X102.966 Y80.902 E7.54981
G1 X102.966 Y80.299 E7.56487
G1 X132.281 Y80.299 E8.29774
G1 X132.367 Y80.299 E8.29990
G1 X132.079 Y80.799 F6000.000
G1 F1800.000 E7.29990
G92 E0
G1 X103.246 Y119.525 F6000.000
G1 F1800.000 E1.00000
G1 X103.269 Y119.573 F900.000 E1.00133
G1 X103.246 Y119.525 F6000.000
G1 X103.198 Y119.471 F900.000 E1.00315
G1 X103.198 Y119.454 F6000.000
G1 X103.366 Y119.309 F900.000 E1.00869
G1 X103.052 Y119.302 F6000.000
G1 X103.198 Y119.454 F900.000 E1.01396
G1 X103.069 Y119.581 E1.01850
G1 X103.028 Y119.652 E1.02054
G1 F1800.000 E0.02054
G92 E0
G1 X111.638 Y118.759 F6000.000
G1 F1800.000 E1.00000
G1 X111.340 Y118.333 F2100.000 E1.01317
G1 X111.729 Y117.869 E1.02850
G1 X112.352 Y118.759 E1.05600
G1 X113.066 Y118.759 E1.07408
G1 X112.262 Y117.609 E1.10960
G1 X112.794 Y117.350 E1.12459
G1 X113.780 Y118.759 E1.16814
G1 X114.494 Y118.759 E1.18622
G1 X113.326 Y117.090 E1.23780
G1 X113.849 Y116.818 E1.25273
G1 X115.208 Y118.759 E1.31272
G1 X115.922 Y118.759 E1.33080
G1 X114.293 Y116.432 E1.40272
G1 X114.737 Y116.046 E1.41761
G1 X116.636 Y118.759 E1.50146
G1 X117.350 Y118.759 E1.51953
G1 X115.181 Y115.660 E1.61531
G1 X115.624 Y115.274 E1.63019
G1 X118.064 Y118.759 E1.73789
G1 X118.778 Y118.759 E1.75597
G1 X116.068 Y114.888 E1.87559
G1 X116.512 Y114.502 E1.89049
G1 X119.492 Y118.759 E2.02204
G1 X120.206 Y118.759 E2.04011
G1 X116.956 Y114.117 E2.18359
G1 X117.400 Y113.731 E2.19848
G1 X120.920 Y118.759 E2.35389
G1 X121.634 Y118.759 E2.37196
G1 X117.841 Y113.342 E2.53939
G1 X118.191 Y112.822 E2.55526
G1 X122.348 Y118.759 E2.73874
G1 X123.062 Y118.759 E2.75682
G1 X118.542 Y112.303 E2.95636
G1 X118.892 Y111.783 E2.97222
G1 X123.776 Y118.759 E3.18782
G1 X124.490 Y118.759 E3.20590
G1 X119.242 Y111.264 E3.43755
G1 X119.592 Y110.745 E3.45341
G1 X125.204 Y118.759 E3.70111
G1 X125.918 Y118.759 E3.71919
G1 X119.943 Y110.225 E3.98295
G1 X120.293 Y109.706 E3.99881
G1 X126.632 Y118.759 E4.27862
G1 X127.346 Y118.759 E4.29670
G1 X120.643 Y109.186 E4.59257
G1 X120.936 Y108.584 E4.60952
G1 X128.060 Y118.759 E4.92400
G1 X128.774 Y118.759 E4.94208
G1 X121.171 Y107.900 E5.27769
G1 X121.406 Y107.217 E5.29600
G1 X129.488 Y118.759 E5.65274
G1 X130.202 Y118.759 E5.67081
G1 X121.641 Y106.533 E6.04869
G1 X121.877 Y105.849 E6.06699
G1 X130.916 Y118.759 E6.46600
G1 X131.361 Y118.375 E6.48088
G1 X122.112 Y105.166 E6.88916
G1 X122.347 Y104.482 E6.90746
G1 X131.362 Y117.356 E7.30536
G1 X131.362 Y116.336 E7.33118
G1 X122.562 Y103.769 E7.71961
G1 X122.627 Y102.842 E7.74314
G1 X131.361 Y115.316 E8.12871
G1 X131.362 Y114.297 E8.15453
G1 X122.691 Y101.914 E8.53724
G1 X122.756 Y100.987 E8.56078
G1 X131.361 Y113.277 E8.94063
G1 X131.361 Y112.257 E8.96645
G1 X122.821 Y100.060 E9.34345
G1 X122.886 Y99.133 E9.36698
G1 X131.362 Y111.238 E9.74112
G1 X131.361 Y110.218 E9.76694
G1 X122.822 Y98.022 E10.14391
G1 X122.547 Y96.610 E10.18032
G1 X131.361 Y109.198 E10.56941
G1 X131.361 Y108.179 E10.59522
G1 X122.272 Y95.198 E10.99643
G1 X121.998 Y93.786 E11.03285
G1 X131.361 Y107.159 E11.44618
G1 X131.361 Y106.139 E11.47199
G1 X120.810 Y91.071 E11.93773
G1 F1800.000 E10.93773
G92 E0
G1 X117.083 Y85.748 F6000.000
G1 F1800.000 E1.00000
G1 X113.928 Y81.241 F2100.000 E1.13928
G1 X113.214 Y81.241 E1.15736
G1 X115.275 Y84.186 E1.24836
G1 X113.923 Y83.274 E1.28967
G1 X112.500 Y81.241 E1.35248
G1 X111.786 Y81.241 E1.37056
G1 X112.570 Y82.361 E1.40517
G1 F1800.000 E0.40517
G92 E0
G1 X114.642 Y81.241 F6000.000
G1 F1800.000 E1.00000
G1 X131.361 Y105.120 F2100.000 E1.73804
G1 X131.362 Y104.100 E1.76386
G1 X115.356 Y81.241 E2.47038
G1 X116.070 Y81.241 E2.48845
G1 X131.362 Y103.080 E3.16346
G1 X131.362 Y102.061 E3.18928
G1 X116.784 Y81.241 E3.83277
G1 X117.498 Y81.241 E3.85084
G1 X131.361 Y101.041 E4.46281
G1 X131.362 Y100.021 E4.48863
G1 X118.212 Y81.241 E5.06909
G1 X118.926 Y81.241 E5.08717
G1 X131.362 Y99.002 E5.63611
G1 X131.361 Y97.982 E5.66192
G1 X119.640 Y81.241 E6.17935
G1 X120.354 Y81.241 E6.19742
G1 X131.362 Y96.962 E6.68333
G1 X131.361 Y95.943 E6.70915
G1 X121.068 Y81.241 E7.16354
G1 X121.782 Y81.241 E7.18162
G1 X131.361 Y94.923 E7.60449
G1 X131.361 Y93.903 E7.63031
G1 X122.495 Y81.241 E8.02167
G1 X123.209 Y81.241 E8.03975
G1 X131.361 Y92.884 E8.39959
G1 X131.362 Y91.864 E8.42540
G1 X123.923 Y81.241 E8.75373
G1 X124.637 Y81.241 E8.77181
G1 X131.361 Y90.844 E9.06862
G1 X131.361 Y89.825 E9.09444
G1 X125.351 Y81.241 E9.35973
G1 X126.065 Y81.241 E9.37781
G1 X131.361 Y88.805 E9.61159
G1 X131.362 Y87.785 E9.63740
G1 X126.779 Y81.241 E9.83967
G1 X127.493 Y81.241 E9.85774
G1 X131.362 Y86.766 E10.02849
G1 X131.362 Y85.746 E10.05430
G1 X128.207 Y81.241 E10.19353
G1 X128.921 Y81.241 E10.21161
G1 X131.362 Y84.726 E10.31932
G1 X131.361 Y83.707 E10.34514
G1 X129.635 Y81.241 E10.42134
G1 X130.349 Y81.241 E10.43941
G1 X131.362 Y82.687 E10.48409
G1 X131.361 Y81.667 E10.50991
G1 X131.063 Y81.241 E10.52308
G1 F1800.000 E9.52308
G92 E0
G1 X110.414 Y118.811 F6000.000
G1 F1800.000 E1.00000
G1 X110.237 Y118.559 F2700.000 E1.00492
G1 X110.572 Y118.395 E1.01086
G1 X110.864 Y118.811 E1.01896
G1 X111.085 Y118.484 E1.02525
G1 X110.908 Y118.231 E1.03017
G1 F1800.000 E0.03017
G92 E0
G1 X107.865 Y119.326 F6000.000
G1 F1800.000 E1.00000
G1 X107.567 Y118.900 F2700.000 E1.01337
G1 X108.205 Y118.775 E1.03008
G1 X108.503 Y119.202 E1.04346
G1 F1800.000 E0.04346
G92 E0
G1 X106.251 Y119.389 F6000.000
G1 F1800.000 E1.00000
G1 X106.074 Y119.136 F2700.000 E1.00699
G1 X106.636 Y119.027 E1.01998
G1 X106.813 Y119.279 E1.02697
G1 F1800.000 E0.02697
G92 E0
G1 X111.225 Y81.678 F6000.000
G1 F1800.000 E1.00000
G1 X110.926 Y81.252 F2700.000 E1.01300
G1 F1800.000 E0.01300
G92 E0
G1 X107.772 Y81.100 F6000.000
G1 F1800.000 E1.00000
G1 X107.474 Y80.675 F2700.000 E1.01300
G1 F1800.000 E0.01300
G92 E0
G1 X106.456 Y114.456 F6000.000
G1 F1800.000 E1.00000
G1 X97.697 Y114.456 F2100.000 E1.21900
G1 X87.333 Y104.093 E1.58539
G1 X76.970 Y114.456 E1.95179
G1 X68.210 Y114.456 E2.17079
G1 X68.210 Y86.210 E2.87695
G1 X106.456 Y86.210 E3.83310
G1 X106.456 Y114.370 E4.53710
G1 X106.456 Y114.456 E4.53926
G1 X107.034 Y115.034 F6000.000
G1 X97.457 Y115.034 F1200.000 E4.77868
G1 X87.333 Y104.910 E5.13662
G1 X77.209 Y115.034 E5.49455
G1 X67.633 Y115.034 E5.73397
G1 X67.633 Y85.633 E6.46900
G1 X107.034 Y85.633 E7.45404
G1 X107.034 Y114.947 E8.18690
G1 X107.034 Y115.034 E8.18907
G1 X106.534 Y114.745 F6000.000
G1 F1800.000 E7.18907
G92 E0
G1 X95.541 Y111.548 F6000.000
G1 F1800.000 E1.00000
G1 X78.054 Y86.575 F2100.000 E1.76718
G1 X78.764 Y86.575 E1.78504
G1 X97.908 Y113.915 E2.62494
G1 X98.741 Y114.092 E2.64638
G1 X79.474 Y86.575 E3.49172
G1 X80.183 Y86.575 E3.50957
G1 X99.451 Y114.092 E4.35491
G1 X100.161 Y114.092 E4.37277
G1 X80.893 Y86.575 E5.21810
G1 X81.602 Y86.575 E5.23596
G1 X100.870 Y114.092 E6.08129
G1 X101.580 Y114.092 E6.09915
G1 X82.312 Y86.575 E6.94448
G1 X83.022 Y86.575 E6.96234
G1 X102.290 Y114.092 E7.80767
G1 X102.999 Y114.092 E7.82553
G1 X83.731 Y86.575 E8.67086
G1 X84.441 Y86.575 E8.68872
G1 X103.709 Y114.092 E9.53405
G1 X104.418 Y114.092 E9.55191
G1 X85.151 Y86.575 E10.39725
G1 X85.860 Y86.575 E10.41511
G1 X105.128 Y114.092 E11.26044
G1 X105.838 Y114.092 E11.27830
G1 X86.570 Y86.575 E12.12363
G1 X87.279 Y86.575 E12.14149
G1 X106.028 Y113.351 E12.96405
G1 X106.028 Y112.337 E12.98955
G1 X87.989 Y86.575 E13.78097
G1 X88.699 Y86.575 E13.79883
G1 X106.028 Y111.324 E14.55912
G1 X106.028 Y110.310 E14.58463
G1 X89.408 Y86.575 E15.31378
G1 X90.118 Y86.575 E15.33164
G1 X106.028 Y109.297 E16.02966
G1 X106.028 Y108.283 E16.05517
G1 X90.828 Y86.575 E16.72205
G1 X91.537 Y86.575 E16.73991
G1 X106.028 Y107.270 E17.37567
G1 X106.028 Y106.256 E17.40117
G1 X92.247 Y86.575 E18.00580
G1 X92.957 Y86.575 E18.02365
G1 X106.028 Y105.243 E18.59714
G1 X106.028 Y104.229 E18.62264
G1 X93.666 Y86.575 E19.16500
G1 X94.376 Y86.575 E19.18286
G1 X106.028 Y103.216 E19.69408
G1 X106.028 Y102.203 E19.71958
G1 X95.085 Y86.575 E20.19967
G1 X95.795 Y86.575 E20.21752
G1 X106.028 Y101.189 E20.66648
G1 X106.028 Y100.176 E20.69198
G1 X96.505 Y86.575 E21.10980
G1 X97.214 Y86.575 E21.12766
G1 X106.028 Y99.162 E21.51435
G1 X106.028 Y98.149 E21.53985
G1 X97.924 Y86.575 E21.89540
G1 X98.634 Y86.575 E21.91326
G1 X106.028 Y97.135 E22.23768
G1 X106.028 Y96.122 E22.26319
G1 X99.343 Y86.575 E22.55647
G1 X100.053 Y86.575 E22.57433
G1 X106.028 Y95.108 E22.83648
G1 X106.028 Y94.095 E22.86198
G1 X100.763 Y86.575 E23.09300
G1 X101.472 Y86.575 E23.11086
G1 X106.028 Y93.081 E23.31075
G1 X106.028 Y92.068 E23.33625
G1 X102.182 Y86.575 E23.50500
G1 X102.891 Y86.575 E23.52286
G1 X106.028 Y91.054 E23.66048
G1 X106.028 Y90.041 E23.68598
G1 X103.601 Y86.575 E23.79247
G1 X104.311 Y86.575 E23.81032
G1 X106.028 Y89.028 E23.88568
G1 X106.028 Y88.014 E23.91118
G1 X105.020 Y86.575 E23.95540
G1 X105.730 Y86.575 E23.97325
G1 X106.028 Y87.001 E23.98634
G1 F1800.000 E22.98634
G92 E0
G1 X88.440 Y104.447 F6000.000
G1 F1800.000 E1.00000
G1 X75.925 Y86.575 F2100.000 E1.54903
G1 X75.216 Y86.575 E1.56689
G1 X87.234 Y103.738 E2.09416
G1 X86.816 Y104.156 E2.10901
G1 X74.506 Y86.575 E2.64910
G1 X73.796 Y86.575 E2.66696
G1 X86.399 Y104.573 E3.21987
G1 X85.982 Y104.990 E3.23472
G1 X73.087 Y86.575 E3.80046
G1 X72.377 Y86.575 E3.81831
G1 X85.564 Y105.408 E4.39686
G1 X85.147 Y105.825 E4.41172
G1 X71.668 Y86.575 E5.00309
G1 X70.958 Y86.575 E5.02095
G1 X84.729 Y106.242 E5.62515
G1 X84.312 Y106.660 E5.64000
G1 X70.248 Y86.575 E6.25702
G1 X69.539 Y86.575 E6.27488
G1 X83.895 Y107.077 E6.90472
G1 X83.477 Y107.495 E6.91957
G1 X68.829 Y86.575 E7.56223
G1 X68.638 Y87.316 E7.58150
G1 X83.060 Y107.912 E8.21421
G1 X82.643 Y108.329 E8.22906
G1 X68.638 Y88.329 E8.84346
G1 X68.639 Y89.343 E8.86896
G1 X82.225 Y108.747 E9.46505
G1 X81.808 Y109.164 E9.47990
G1 X68.638 Y90.356 E10.05768
G1 X68.638 Y91.370 E10.08318
G1 X81.390 Y109.582 E10.64265
G1 X80.973 Y109.999 E10.65750
G1 X68.638 Y92.383 E11.19865
G1 X68.638 Y93.397 E11.22416
G1 X80.556 Y110.416 E11.74700
G1 X80.138 Y110.834 E11.76185
G1 X68.638 Y94.410 E12.26638
G1 X68.638 Y95.424 E12.29189
G1 X79.721 Y111.251 E12.77810
G1 X79.304 Y111.668 E12.79296
G1 X68.638 Y96.437 E13.26086
G1 X68.638 Y97.451 E13.28637
G1 X78.886 Y112.086 E13.73596
G1 X78.469 Y112.503 E13.75082
G1 X68.638 Y98.464 E14.18210
