; generated by Slic3r 1.2.9 on 2016-07-07 at 15:09:41

; external perimeters extrusion width = 0.50mm
; perimeters extrusion width = 0.72mm
; infill extrusion width = 0.72mm
; solid infill extrusion width = 0.72mm
; top infill extrusion width = 0.72mm

M107
M104 S199 ; set temperature
G28 ; home all axes
M92 X63.32381436404949    ; calibrate X
M92 Y62.63227467811132    ; calibrate Y
M92 Z4076   ; calibrate Z
M551 ; prime extruder 1
M109 S199 ; wait for temperature to be reached
G21 ; set units to millimeters
G90 ; use absolute coordinates
M82 ; use absolute distances for extrusion
G92 E0
G1 Z0.350 F7800.000
G1 E-2.00000 F2400.00000
G92 E0
G1 X84.249 Y73.334 F7800.000
G1 E2.00000 F2400.00000
G1 X84.670 Y72.887 E2.00596 F2880.000
G1 X85.569 Y72.042 E2.01794
G1 X86.042 Y71.651 E2.02390
G1 X87.040 Y70.926 E2.03587
G1 X87.558 Y70.597 E2.04183
G1 X88.639 Y70.003 E2.05381
G1 X89.195 Y69.741 E2.05977
G1 X90.341 Y69.287 E2.07174
G1 X90.925 Y69.097 E2.07770
G1 X92.120 Y68.791 E2.08968
G1 X92.723 Y68.676 E2.09564
G1 X93.947 Y68.521 E2.10761
G1 X94.560 Y68.482 E2.11358
G1 X120.793 Y68.482 E2.36825
G1 X121.406 Y68.521 E2.37421
G1 X122.630 Y68.676 E2.38619 F2880.000
G1 X123.233 Y68.791 E2.39215
G1 X124.428 Y69.097 E2.40413
G1 X125.012 Y69.287 E2.41009
G1 X126.158 Y69.741 E2.42206
G1 X126.714 Y70.003 E2.42802
G1 X127.010 Y70.165 E2.43130
G1 X127.795 Y70.597 E2.44000
G1 X128.313 Y70.926 E2.44596
G1 X129.311 Y71.651 E2.45793
G1 X129.784 Y72.042 E2.46389
G1 X130.683 Y72.887 E2.47587
G1 X131.104 Y73.334 E2.48183
G1 X131.890 Y74.285 E2.49380
G1 X132.251 Y74.781 E2.49977
G1 X132.912 Y75.823 E2.51174
G1 X133.208 Y76.361 E2.51770
G1 X133.733 Y77.477 E2.52967
G1 X133.959 Y78.048 E2.53563
G1 X134.340 Y79.221 E2.54761
G1 X134.493 Y79.816 E2.55357
G1 X134.724 Y81.028 E2.56555
G1 X134.801 Y81.636 E2.57151
G1 X134.888 Y83.192 E2.58663
G1 X134.691 Y137.963 E3.11836
G1 X134.604 Y139.484 E3.13315
G1 X134.527 Y140.093 E3.13911
G1 X134.296 Y141.304 E3.15108
G1 X134.144 Y141.899 E3.15705
G1 X133.762 Y143.073 E3.16902
G1 X133.536 Y143.643 E3.17498
G1 X133.011 Y144.759 E3.18696
G1 X132.715 Y145.297 E3.19292
G1 X132.054 Y146.339 E3.20489
G1 X131.694 Y146.835 E3.21085
G1 X130.907 Y147.786 E3.22283
G1 X130.487 Y148.234 E3.22879
G1 X129.588 Y149.078 E3.24076
G1 X115.955 Y160.919 E3.41606
G1 X114.174 Y162.297 E3.43793
G1 X113.067 Y162.936 E3.45034
G1 X111.258 Y163.685 E3.46934
G1 X110.027 Y164.015 E3.48172
G1 X108.086 Y164.271 E3.50072
G1 X106.807 Y164.271 E3.51314
G1 X104.866 Y164.015 E3.53214
G1 X103.635 Y163.685 E3.54452
G1 X101.826 Y162.936 E3.56353
G1 X100.720 Y162.297 E3.57593
G1 X98.929 Y160.911 E3.59792
G1 X85.505 Y149.198 E3.77088
G1 X84.473 Y148.234 E3.78459
G1 X84.053 Y147.786 E3.79055
G1 X83.266 Y146.836 E3.80252
G1 X82.905 Y146.339 E3.80849
G1 X82.244 Y145.297 E3.82046
G1 X81.949 Y144.759 E3.82642
G1 X81.423 Y143.643 E3.83840
G1 X81.197 Y143.072 E3.84436
G1 X80.816 Y141.899 E3.85633
G1 X80.664 Y141.304 E3.86229
G1 X80.432 Y140.093 E3.87427
G1 X80.356 Y139.484 E3.88023
G1 X80.269 Y138.005 E3.89461
G1 X79.952 Y111.832 E4.14872
G1 X80.475 Y82.868 E4.42996
G1 X80.552 Y81.636 E4.44193
G1 X80.629 Y81.027 E4.44789
G1 X80.860 Y79.816 E4.45987
G1 X81.013 Y79.221 E4.46583
G1 X81.394 Y78.048 E4.47780
G1 X81.620 Y77.477 E4.48376
G1 X82.145 Y76.361 E4.49574
G1 X82.441 Y75.823 E4.50170
G1 X83.102 Y74.781 E4.51367
G1 X83.463 Y74.285 E4.51964
G1 X84.201 Y73.392 E4.53088
G1 X84.421 Y73.476 F7800.000
G1 X84.822 Y73.049 E4.53657 F2880.000
G1 X85.721 Y72.204 E4.54855
G1 X86.173 Y71.831 E4.55424
G1 X87.170 Y71.106 E4.56621
G1 X87.665 Y70.792 E4.57190
G1 X88.746 Y70.198 E4.58388
G1 X89.277 Y69.948 E4.58957
G1 X90.423 Y69.494 E4.60154
G1 X90.981 Y69.313 E4.60723
G1 X92.175 Y69.006 E4.61920
G1 X92.751 Y68.896 E4.62489
G1 X93.975 Y68.742 E4.63687
G1 X94.560 Y68.705 E4.64256
G1 X120.793 Y68.705 E4.89724
G1 X121.378 Y68.742 E4.90293
G1 X122.602 Y68.896 E4.91490 F2880.000
G1 X123.178 Y69.006 E4.92059
G1 X124.372 Y69.313 E4.93257
G1 X124.930 Y69.494 E4.93826
G1 X126.077 Y69.948 E4.95023
G1 X126.607 Y70.197 E4.95592
G1 X126.902 Y70.360 E4.95919
G1 X127.688 Y70.792 E4.96790
G1 X128.183 Y71.106 E4.97359
G1 X129.181 Y71.831 E4.98556
G1 X129.632 Y72.204 E4.99125
G1 X130.531 Y73.049 E5.00322
G1 X130.933 Y73.476 E5.00892
G1 X131.719 Y74.426 E5.02089
G1 X132.063 Y74.901 E5.02658
G1 X132.724 Y75.942 E5.03855
G1 X133.006 Y76.455 E5.04424
G1 X133.532 Y77.572 E5.05622
G1 X133.747 Y78.116 E5.06191
G1 X134.129 Y79.290 E5.07388
G1 X134.274 Y79.857 E5.07957
G1 X134.506 Y81.069 E5.09155
G1 X134.579 Y81.650 E5.09724
G1 X134.666 Y83.191 E5.11222
G1 X134.469 Y137.962 E5.64395
G1 X134.382 Y139.470 E5.65861
G1 X134.309 Y140.051 E5.66430
G1 X134.078 Y141.263 E5.67627
G1 X133.932 Y141.830 E5.68196
G1 X133.551 Y143.004 E5.69394
G1 X133.335 Y143.549 E5.69963
G1 X132.810 Y144.665 E5.71160
G1 X132.528 Y145.178 E5.71729
G1 X131.867 Y146.220 E5.72927
G1 X131.522 Y146.694 E5.73495
G1 X130.736 Y147.644 E5.74693
G1 X130.335 Y148.071 E5.75262
G1 X129.435 Y148.916 E5.76460
G1 X115.810 Y160.751 E5.93981
G1 X114.039 Y162.121 E5.96155
G1 X112.982 Y162.731 E5.97339
G1 X111.173 Y163.480 E5.99240
G1 X109.998 Y163.795 E6.00421
G1 X108.057 Y164.051 E6.02321
G1 X106.837 Y164.051 E6.03506
G1 X104.896 Y163.795 E6.05407
G1 X103.720 Y163.480 E6.06588
G1 X101.911 Y162.731 E6.08489
G1 X100.855 Y162.121 E6.09673
G1 X99.075 Y160.743 E6.11858
G1 X85.651 Y149.030 E6.29154
G1 X84.625 Y148.071 E6.30517
G1 X84.224 Y147.644 E6.31086
G1 X83.438 Y146.694 E6.32284
G1 X83.093 Y146.220 E6.32853
G1 X82.432 Y145.178 E6.34050
G1 X82.150 Y144.665 E6.34619
G1 X81.625 Y143.549 E6.35817
G1 X81.409 Y143.004 E6.36386
G1 X81.028 Y141.830 E6.37583
G1 X80.882 Y141.263 E6.38152
G1 X80.651 Y140.051 E6.39350
G1 X80.577 Y139.470 E6.39919
G1 X80.491 Y138.002 E6.41346
G1 X80.174 Y111.830 E6.66757
G1 X80.697 Y82.881 E6.94864
G1 X80.774 Y81.650 E6.96062
G1 X80.848 Y81.069 E6.96631
G1 X81.079 Y79.857 E6.97828
G1 X81.224 Y79.290 E6.98397
G1 X81.606 Y78.117 E6.99595
G1 X81.821 Y77.572 E7.00164
G1 X82.347 Y76.456 E7.01361
G1 X82.629 Y75.942 E7.01930
G1 X83.290 Y74.901 E7.03128
G1 X83.634 Y74.426 E7.03697
G1 X84.373 Y73.534 E7.04821
G1 X84.592 Y73.618 F7800.000
G1 X84.974 Y73.211 E7.05363 F2880.000
G1 X85.873 Y72.366 E7.06561
G1 X86.303 Y72.011 E7.07103
G1 X87.301 Y71.286 E7.08300
G1 X87.772 Y70.987 E7.08842
G1 X88.853 Y70.392 E7.10039
G1 X89.358 Y70.155 E7.10581
G1 X90.505 Y69.701 E7.11779
G1 X91.036 Y69.528 E7.12321
G1 X92.231 Y69.221 E7.13518
G1 X92.779 Y69.117 E7.14060
G1 X94.003 Y68.962 E7.15257
G1 X94.560 Y68.927 E7.15799
G1 X120.793 Y68.927 E7.41267
G1 X121.350 Y68.962 E7.41809
G1 X122.574 Y69.117 E7.43006 F2880.000
G1 X123.122 Y69.221 E7.43548
G1 X124.317 Y69.528 E7.44746
G1 X124.848 Y69.701 E7.45288
G1 X125.995 Y70.155 E7.46485
G1 X126.500 Y70.392 E7.47027
G1 X126.795 Y70.555 E7.47354
G1 X127.581 Y70.987 E7.48225
G1 X128.052 Y71.286 E7.48766
G1 X129.050 Y72.011 E7.49964
G1 X129.480 Y72.366 E7.50506
G1 X130.379 Y73.211 E7.51703
G1 X130.761 Y73.618 E7.52245
G1 X131.547 Y74.568 E7.53443
G1 X131.876 Y75.020 E7.53984
G1 X132.536 Y76.061 E7.55182
G1 X132.805 Y76.550 E7.55724
G1 X133.330 Y77.666 E7.56921
G1 X133.536 Y78.185 E7.57463
G1 X133.917 Y79.358 E7.58660
G1 X134.056 Y79.899 E7.59202
G1 X134.287 Y81.111 E7.60400
G1 X134.357 Y81.664 E7.60942
G1 X134.443 Y83.190 E7.62426
G1 X134.247 Y137.962 E8.15599
G1 X134.160 Y139.456 E8.17052
G1 X134.090 Y140.009 E8.17593
G1 X133.859 Y141.221 E8.18791
G1 X133.720 Y141.762 E8.19333
G1 X133.339 Y142.935 E8.20531
G1 X133.134 Y143.454 E8.21072
G1 X132.609 Y144.570 E8.22270
G1 X132.340 Y145.059 E8.22811
G1 X131.679 Y146.100 E8.24009
G1 X131.351 Y146.552 E8.24551
G1 X130.565 Y147.502 E8.25748
G1 X130.182 Y147.909 E8.26290
G1 X129.283 Y148.754 E8.27488
G1 X115.664 Y160.583 E8.45001
G1 X113.903 Y161.945 E8.47162
G1 X112.897 Y162.525 E8.48289
G1 X111.088 Y163.274 E8.50190
G1 X109.969 Y163.574 E8.51315
G1 X108.028 Y163.830 E8.53216
G1 X106.866 Y163.830 E8.54344
G1 X104.925 Y163.574 E8.56245
G1 X103.805 Y163.274 E8.57369
G1 X101.996 Y162.525 E8.59270
G1 X100.991 Y161.945 E8.60398
G1 X99.222 Y160.576 E8.62569
G1 X85.797 Y148.863 E8.79866
G1 X84.777 Y147.909 E8.81221
G1 X84.395 Y147.502 E8.81763
G1 X83.609 Y146.552 E8.82960
G1 X83.281 Y146.100 E8.83502
G1 X82.620 Y145.059 E8.84700
G1 X82.351 Y144.570 E8.85241
G1 X81.826 Y143.454 E8.86439
G1 X81.620 Y142.935 E8.86981
G1 X81.239 Y141.762 E8.88178
G1 X81.101 Y141.221 E8.88720
G1 X80.869 Y140.010 E8.89918
G1 X80.799 Y139.456 E8.90459
G1 X80.714 Y137.999 E8.91876
G1 X80.397 Y111.827 E9.17286
G1 X80.919 Y82.895 E9.45378
G1 X80.996 Y81.664 E9.46575
G1 X81.066 Y81.111 E9.47117
G1 X81.297 Y79.899 E9.48315
G1 X81.436 Y79.358 E9.48857
G1 X81.817 Y78.185 E9.50054
G1 X82.023 Y77.666 E9.50596
G1 X82.548 Y76.550 E9.51793
G1 X82.817 Y76.061 E9.52335
G1 X83.478 Y75.020 E9.53533
G1 X83.806 Y74.568 E9.54075
G1 X84.544 Y73.676 E9.55199
G1 X84.763 Y73.759 F7800.000
G1 X85.126 Y73.373 E9.55714 F2880.000
G1 X86.025 Y72.529 E9.56912
G1 X86.434 Y72.191 E9.57426
G1 X87.432 Y71.466 E9.58624
G1 X87.880 Y71.181 E9.59139
G1 X88.960 Y70.587 E9.60336
G1 X89.440 Y70.362 E9.60851
G1 X90.587 Y69.907 E9.62048
G1 X91.091 Y69.744 E9.62563
G1 X92.286 Y69.437 E9.63760
G1 X92.807 Y69.337 E9.64275
G1 X94.031 Y69.183 E9.65473
G1 X94.560 Y69.150 E9.65988
G1 X120.793 Y69.150 E9.91455
G1 X121.323 Y69.183 E9.91970
G1 X122.546 Y69.337 E9.93168 F2880.000
G1 X123.067 Y69.437 E9.93682
G1 X124.262 Y69.744 E9.94880
G1 X124.766 Y69.907 E9.95395
G1 X125.913 Y70.362 E9.96592
G1 X126.393 Y70.587 E9.97107
G1 X126.688 Y70.750 E9.97434
G1 X127.474 Y71.182 E9.98304
G1 X127.921 Y71.466 E9.98819
G1 X128.919 Y72.191 E10.00017
G1 X129.328 Y72.529 E10.00531
G1 X130.227 Y73.373 E10.01729
G1 X130.590 Y73.760 E10.02244
G1 X131.376 Y74.710 E10.03441
G1 X131.688 Y75.139 E10.03956
G1 X132.349 Y76.180 E10.05153
G1 X132.604 Y76.645 E10.05668
G1 X133.129 Y77.761 E10.06865
G1 X133.324 Y78.254 E10.07380
G1 X133.706 Y79.427 E10.08578
G1 X133.838 Y79.941 E10.09092
G1 X134.069 Y81.153 E10.10290
G1 X134.135 Y81.678 E10.10805
G1 X134.221 Y83.190 E10.12274
G1 X134.024 Y137.961 E10.65447
G1 X133.938 Y139.442 E10.66888
G1 X133.872 Y139.968 E10.67402
G1 X133.641 Y141.179 E10.68600
G1 X133.509 Y141.693 E10.69114
G1 X133.128 Y142.866 E10.70312
G1 X132.933 Y143.359 E10.70827
G1 X132.407 Y144.475 E10.72024
G1 X132.152 Y144.940 E10.72539
G1 X131.491 Y145.981 E10.73736
G1 X131.179 Y146.410 E10.74251
G1 X130.393 Y147.361 E10.75448
G1 X130.030 Y147.747 E10.75963
G1 X129.131 Y148.592 E10.77161
G1 X115.518 Y160.415 E10.94665
G1 X113.768 Y161.768 E10.96813
G1 X112.812 Y162.320 E10.97885
G1 X111.003 Y163.069 E10.99785
G1 X109.940 Y163.354 E11.00854
G1 X107.999 Y163.610 E11.02755
G1 X106.895 Y163.610 E11.03827
G1 X104.954 Y163.354 E11.05727
G1 X103.891 Y163.069 E11.06796
G1 X102.082 Y162.320 E11.08697
G1 X101.126 Y161.768 E11.09768
G1 X99.368 Y160.408 E11.11926
G1 X85.943 Y148.695 E11.29222
G1 X84.930 Y147.747 E11.30569
G1 X84.567 Y147.361 E11.31084
G1 X83.780 Y146.410 E11.32281
G1 X83.469 Y145.981 E11.32796
G1 X82.808 Y144.940 E11.33994
G1 X82.552 Y144.475 E11.34508
G1 X82.027 Y143.359 E11.35706
G1 X81.832 Y142.866 E11.36221
G1 X81.451 Y141.693 E11.37418
G1 X81.319 Y141.179 E11.37933
G1 X81.088 Y139.968 E11.39130
G1 X81.021 Y139.442 E11.39645
G1 X80.936 Y137.997 E11.41050
G1 X80.619 Y111.824 E11.66461
G1 X81.141 Y82.909 E11.94537
G1 X81.218 Y81.678 E11.95734
G1 X81.285 Y81.152 E11.96249
G1 X81.516 Y79.941 E11.97446
G1 X81.648 Y79.427 E11.97961
G1 X82.029 Y78.254 E11.99159
G1 X82.224 Y77.761 E11.99673
G1 X82.749 Y76.645 E12.00871
G1 X83.004 Y76.180 E12.01386
G1 X83.665 Y75.139 E12.02583
G1 X83.977 Y74.710 E12.03098
G1 X84.715 Y73.817 E12.04222
G1 E10.04222 F2400.00000
G92 E0
G1 X123.437 Y87.144 F7800.000
G1 E2.00000 F2400.00000
G1 X122.930 Y87.513 E2.00609 F1920.000
G1 X122.364 Y87.824 E2.01235
G1 X121.764 Y88.062 E2.01862
G1 X121.139 Y88.222 E2.02488
G1 X120.499 Y88.303 E2.03115
G1 X119.854 Y88.303 E2.03741
G1 X119.213 Y88.222 E2.04368
G1 X118.572 Y88.055 E2.05012
G1 X117.989 Y87.824 E2.05620
G1 X117.423 Y87.513 E2.06247
G1 X116.901 Y87.134 E2.06873
G1 X116.431 Y86.692 E2.07500
G1 X116.019 Y86.195 E2.08126
G1 X115.674 Y85.650 E2.08753
G1 X115.399 Y85.066 E2.09379
G1 X115.199 Y84.452 E2.10006
G1 X115.079 Y83.819 E2.10632
G1 X115.038 Y83.175 E2.11259
G1 X115.079 Y82.530 E2.11885
G1 X115.199 Y81.897 E2.12512
G1 X115.399 Y81.283 E2.13138
G1 X115.674 Y80.699 E2.13765
G1 X116.019 Y80.154 E2.14391
G1 X116.431 Y79.657 E2.15018
G1 X116.901 Y79.215 E2.15644
G1 X117.423 Y78.836 E2.16271
G1 X117.989 Y78.525 E2.16897
G1 X118.589 Y78.287 E2.17523
G1 X119.196 Y78.131 E2.18132
G1 X119.853 Y78.046 E2.18776
G1 X120.499 Y78.046 E2.19403 F1920.000
G1 X121.139 Y78.127 E2.20029
G1 X121.764 Y78.287 E2.20656
G1 X122.364 Y78.525 E2.21282
G1 X122.930 Y78.836 E2.21909
G1 X123.452 Y79.215 E2.22535
G1 X123.922 Y79.657 E2.23162
G1 X124.334 Y80.154 E2.23788
G1 X124.680 Y80.699 E2.24415
G1 X124.954 Y81.283 E2.25041
G1 X125.154 Y81.897 E2.25667
G1 X125.275 Y82.530 E2.26294
G1 X125.314 Y83.156 E2.26903
G1 X125.275 Y83.818 E2.27546
G1 X125.154 Y84.452 E2.28173
G1 X124.954 Y85.066 E2.28800
G1 X124.680 Y85.650 E2.29426
G1 X124.334 Y86.195 E2.30053
G1 X123.922 Y86.693 E2.30680
G1 X123.492 Y87.093 E2.31250
G1 X123.296 Y86.973 F7800.000
G1 X122.811 Y87.325 E2.31832 F1920.000
G1 X122.270 Y87.622 E2.32432
G1 X121.696 Y87.850 E2.33031
G1 X121.098 Y88.003 E2.33630
G1 X120.485 Y88.081 E2.34230
G1 X119.868 Y88.081 E2.34829
G1 X119.255 Y88.003 E2.35428
G1 X118.641 Y87.843 E2.36045
G1 X118.084 Y87.622 E2.36627
G1 X117.543 Y87.325 E2.37226
G1 X117.043 Y86.962 E2.37825
G1 X116.593 Y86.540 E2.38425
G1 X116.200 Y86.064 E2.39024
G1 X115.869 Y85.543 E2.39623
G1 X115.606 Y84.984 E2.40222
G1 X115.415 Y84.397 E2.40822
G1 X115.300 Y83.791 E2.41421
G1 X115.261 Y83.175 E2.42020
G1 X115.300 Y82.558 E2.42620
G1 X115.415 Y81.952 E2.43219
G1 X115.606 Y81.365 E2.43818
G1 X115.869 Y80.806 E2.44418
G1 X116.200 Y80.285 E2.45017
G1 X116.593 Y79.809 E2.45616
G1 X117.043 Y79.387 E2.46216
G1 X117.543 Y79.024 E2.46815
G1 X118.084 Y78.727 E2.47414
G1 X118.658 Y78.499 E2.48013
G1 X119.238 Y78.350 E2.48596
G1 X119.868 Y78.268 E2.49212
G1 X120.485 Y78.268 E2.49811 F1920.000
G1 X121.098 Y78.346 E2.50411
G1 X121.696 Y78.499 E2.51010
G1 X122.270 Y78.727 E2.51609
G1 X122.811 Y79.024 E2.52208
G1 X123.310 Y79.387 E2.52808
G1 X123.760 Y79.809 E2.53407
G1 X124.153 Y80.285 E2.54006
G1 X124.484 Y80.806 E2.54606
G1 X124.747 Y81.365 E2.55205
G1 X124.938 Y81.952 E2.55804
G1 X125.054 Y82.558 E2.56404
G1 X125.091 Y83.157 E2.56986
G1 X125.054 Y83.790 E2.57602
G1 X124.938 Y84.397 E2.58201
G1 X124.747 Y84.984 E2.58801
G1 X124.484 Y85.543 E2.59400
G1 X124.153 Y86.064 E2.59999
G1 X123.760 Y86.540 E2.60599
G1 X123.350 Y86.921 E2.61142
G1 X123.368 Y87.467 F7800.000
G1 X125.956 Y90.634 F7800.000
G1 X125.240 Y91.153 E2.62001 F3120.000
G1 X124.200 Y91.725 E2.63153
G1 X123.097 Y92.162 E2.64305
G1 X121.947 Y92.457 E2.65457
G1 X120.770 Y92.606 E2.66609
G1 X119.583 Y92.606 E2.67761
G1 X118.406 Y92.457 E2.68913
G1 X117.256 Y92.162 E2.70065
G1 X116.153 Y91.725 E2.71218
G1 X115.113 Y91.153 E2.72370
G1 X114.153 Y90.456 E2.73522
G1 X113.288 Y89.643 E2.74674
G1 X112.531 Y88.729 E2.75826
G1 X111.895 Y87.727 E2.76978
G1 X111.390 Y86.653 E2.78130
G1 X111.023 Y85.525 E2.79282
G1 X110.801 Y84.359 E2.80434
G1 X110.727 Y83.175 E2.81587
G1 X110.801 Y81.990 E2.82739
G1 X111.023 Y80.824 E2.83891
G1 X111.390 Y79.696 E2.85043
G1 X111.895 Y78.622 E2.86195
G1 X112.531 Y77.620 E2.87347
G1 X113.288 Y76.706 E2.88499
G1 X114.153 Y75.893 E2.89651
G1 X115.113 Y75.196 E2.90803
G1 X116.153 Y74.624 E2.91956
G1 X117.256 Y74.187 E2.93108
G1 X118.406 Y73.892 E2.94260
G1 X119.583 Y73.743 E2.95412
G1 X120.770 Y73.743 E2.96564
G1 X121.081 Y73.782 E2.96869
G1 X121.947 Y73.892 E2.97716 F3120.000
G1 X123.097 Y74.187 E2.98868
G1 X124.200 Y74.624 E3.00020
G1 X125.240 Y75.196 E3.01172
G1 X126.200 Y75.893 E3.02325
G1 X127.065 Y76.706 E3.03477
G1 X127.822 Y77.620 E3.04629
G1 X128.458 Y78.622 E3.05781
G1 X128.963 Y79.696 E3.06933
G1 X129.330 Y80.824 E3.08085
G1 X129.552 Y81.990 E3.09237
