; generated by Slic3r 0.8.4 on 2012-09-06 at 13:53:44

; layer_height = 0.4
; perimeters = 3
; solid_layers = 3
; fill_density = 0.4
; nozzle_diameter = 0.5
; filament_diameter = 3
; extrusion_multiplier = 1
; perimeter_speed = 30
; infill_speed = 60
; travel_speed = 130
; scale = 1
; single wall width = 0.53mm

M104 S200 ; set temperature
G28 ; home all axes
M109 S200 ; wait for temperature to be reached
G90 ; use absolute coordinates
G21 ; set units to millimeters
G92 E0 ; reset extrusion distance
M82 ; use absolute distances for extrusion
G1 Z0.400 F7800.000
G1 X75.120 Y85.830
G1 F1800.000 E1.00000
G1 X75.830 Y85.120 F540.000 E1.02953
G1 X77.500 Y83.690 E1.09418
G1 X78.340 Y83.080 E1.12470
G1 X80.220 Y81.930 E1.18951
G1 X81.140 Y81.470 E1.21975
G1 X83.180 Y80.630 E1.28463
G1 X84.120 Y80.320 E1.31373
G1 X86.260 Y79.800 E1.37849
G1 X87.300 Y79.630 E1.40948
G1 X89.500 Y79.460 E1.47436
G1 X90.500 Y79.460 E1.50377
G1 X92.690 Y79.630 E1.56836
G1 X93.720 Y79.800 E1.59906
G1 X96.510 Y80.510 E1.68371
G1 X123.740 Y90.140 E2.53302
G1 X124.340 Y90.390 E2.55213
G1 X125.230 Y90.840 E2.58146
G1 X125.770 Y91.170 E2.60006
G1 X126.600 Y91.780 E2.63035
G1 X127.080 Y92.190 E2.64892
G1 X127.800 Y92.910 E2.67886
G1 X128.210 Y93.390 E2.69742
G1 X128.820 Y94.220 E2.72771
G1 X129.150 Y94.760 E2.74632
G1 X129.620 Y95.710 E2.77749
G1 X129.860 Y96.300 E2.79622
G1 X130.160 Y97.190 E2.82383
G1 X130.310 Y97.800 E2.84230
G1 X130.470 Y98.840 E2.87325
G1 X130.520 Y99.470 E2.89183
G1 X130.530 Y100.500 E2.92212
G1 X130.480 Y101.140 E2.94099
G1 X130.310 Y102.190 E2.97227
G1 X130.160 Y102.800 E2.99074
G1 X129.860 Y103.690 E3.01836
G1 X129.620 Y104.280 E3.03709
G1 X129.150 Y105.230 E3.06826
G1 X128.820 Y105.770 E3.08687
G1 X128.210 Y106.600 E3.11716
G1 X127.800 Y107.080 E3.13572
G1 X127.080 Y107.800 E3.16566
G1 X126.600 Y108.210 E3.18422
G1 X125.770 Y108.820 E3.21451
G1 X125.230 Y109.150 E3.23312
G1 X124.340 Y109.600 E3.26245
G1 X95.850 Y119.680 E4.15109
G1 X93.660 Y120.200 E4.21728
G1 X92.660 Y120.350 E4.24702
G1 X90.510 Y120.520 E4.31044
G1 X89.500 Y120.530 E4.34014
G1 X87.300 Y120.360 E4.40502
G1 X86.470 Y120.240 E4.42968
G1 X84.170 Y119.740 E4.49889
G1 X83.710 Y119.590 E4.51312
G1 X81.120 Y118.520 E4.59552
G1 X80.220 Y118.060 E4.62524
G1 X78.340 Y116.910 E4.69005
G1 X77.500 Y116.300 E4.72058
G1 X75.830 Y114.870 E4.78523
G1 X75.120 Y114.160 E4.81475
G1 X73.690 Y112.490 E4.87940
G1 X73.080 Y111.650 E4.90993
G1 X71.930 Y109.770 E4.97473
G1 X71.470 Y108.850 E5.00498
G1 X70.630 Y106.810 E5.06985
G1 X70.320 Y105.870 E5.09896
G1 X69.800 Y103.730 E5.16372
G1 X69.630 Y102.690 E5.19470
G1 X69.460 Y100.490 E5.25959
G1 X69.460 Y99.490 E5.28899
G1 X69.630 Y97.300 E5.35358
G1 X69.800 Y96.260 E5.38457
G1 X70.320 Y94.120 E5.44933
G1 X70.630 Y93.180 E5.47844
G1 X71.470 Y91.140 E5.54331
G1 X71.930 Y90.220 E5.57356
G1 X73.080 Y88.340 E5.63836
G1 X73.690 Y87.500 E5.66889
G1 X75.069 Y85.890 E5.73122
G1 F1800.000 E4.73122
G92 E0
G1 X117.261 Y99.110 F7800.000
G1 F1800.000 E1.00000
G1 X117.434 Y98.693 F540.000 E1.01329
G1 X117.670 Y98.307 E1.02658
G1 X117.964 Y97.964 E1.03986
G1 X118.307 Y97.670 E1.05315
G1 X118.693 Y97.434 E1.06644
G1 X119.110 Y97.261 E1.07973
G1 X119.549 Y97.156 E1.09301
G1 X120.000 Y97.120 E1.10630
G1 X120.451 Y97.156 E1.11959
G1 X120.890 Y97.261 E1.13288
G1 X121.307 Y97.434 E1.14617
G1 X121.693 Y97.670 E1.15945
G1 X122.036 Y97.964 E1.17274
G1 X122.330 Y98.307 E1.18603
G1 X122.566 Y98.693 E1.19932
G1 X122.739 Y99.110 E1.21261
G1 X122.844 Y99.549 E1.22589
G1 X122.870 Y99.878 E1.23558
G1 X122.870 Y99.878 E1.23558
G1 X122.880 Y100.000 E1.23918
G1 X122.870 Y100.122 E1.24278
G1 X122.870 Y100.122 E1.24278
G1 X122.844 Y100.451 E1.25247
G1 X122.739 Y100.890 E1.26576
G1 X122.566 Y101.307 E1.27905
G1 X122.330 Y101.693 E1.29233
G1 X122.036 Y102.036 E1.30562
G1 X121.693 Y102.330 E1.31891
G1 X121.307 Y102.566 E1.33220
G1 X120.890 Y102.739 E1.34549
G1 X120.451 Y102.844 E1.35877
G1 X120.000 Y102.880 E1.37206
G1 X119.549 Y102.844 E1.38535
G1 X119.110 Y102.739 E1.39864
G1 X118.693 Y102.566 E1.41193
G1 X118.307 Y102.330 E1.42521
G1 X117.964 Y102.036 E1.43850
G1 X117.670 Y101.693 E1.45179
G1 X117.434 Y101.307 E1.46508
G1 X117.261 Y100.890 E1.47836
G1 X117.156 Y100.451 E1.49165
G1 X117.120 Y100.000 E1.50494
G1 X117.156 Y99.549 E1.51823
G1 X117.243 Y99.187 E1.52920
G1 X117.753 Y99.270 F7800.000
G1 X117.895 Y98.927 F540.000 E1.54010
G1 X118.088 Y98.611 E1.55101
G1 X118.329 Y98.329 E1.56191
G1 X118.611 Y98.088 E1.57281
G1 X118.927 Y97.895 E1.58372
G1 X119.270 Y97.753 E1.59462
G1 X119.630 Y97.666 E1.60552
G1 X120.000 Y97.637 E1.61643
G1 X120.370 Y97.666 E1.62733
G1 X120.730 Y97.753 E1.63823
G1 X121.073 Y97.895 E1.64914
G1 X121.389 Y98.088 E1.66004
G1 X121.671 Y98.329 E1.67094
G1 X121.912 Y98.611 E1.68185
G1 X122.105 Y98.927 E1.69275
G1 X122.247 Y99.270 E1.70365
G1 X122.334 Y99.630 E1.71456
G1 X122.363 Y100.000 E1.72546
G1 X122.334 Y100.370 E1.73636
G1 X122.247 Y100.730 E1.74727
G1 X122.105 Y101.073 E1.75817
G1 X121.912 Y101.389 E1.76908
G1 X121.671 Y101.671 E1.77998
G1 X121.389 Y101.912 E1.79088
G1 X121.073 Y102.105 E1.80178
G1 X120.730 Y102.247 E1.81269
G1 X120.370 Y102.334 E1.82359
G1 X120.000 Y102.363 E1.83449
G1 X119.630 Y102.334 E1.84540
G1 X119.270 Y102.247 E1.85630
G1 X118.927 Y102.105 E1.86721
G1 X118.611 Y101.912 E1.87811
G1 X118.329 Y101.671 E1.88901
G1 X118.088 Y101.389 E1.89991
G1 X117.895 Y101.073 E1.91082
G1 X117.753 Y100.730 E1.92172
G1 X117.666 Y100.370 E1.93262
G1 X117.637 Y100.000 E1.94353
G1 X117.666 Y99.630 E1.95443
G1 X117.734 Y99.346 E1.96302
G1 F1800.000 E0.96302
G92 E0
G1 X115.518 Y104.772 F7800.000
G1 F1800.000 E1.00000
G1 X94.049 Y112.360 F540.000 E1.66958
G1 X92.034 Y112.843 E1.73051
G1 X90.000 Y113.003 E1.79051
G1 X87.966 Y112.843 E1.85052
G1 X85.982 Y112.367 E1.91052
G1 X84.097 Y111.586 E1.97052
G1 X82.357 Y110.520 E2.03052
G1 X80.805 Y109.195 E2.09052
G1 X79.480 Y107.643 E2.15052
G1 X78.414 Y105.903 E2.21052
G1 X78.165 Y105.303 E2.22964
G1 X78.165 Y105.303 E2.22964
G1 X77.633 Y104.018 E2.27052
G1 X77.157 Y102.034 E2.33052
G1 X76.997 Y100.000 E2.39052
G1 X77.157 Y97.966 E2.45052
G1 X77.633 Y95.982 E2.51053
G1 X78.165 Y94.697 E2.55140
G1 X78.165 Y94.697 E2.55140
G1 X78.414 Y94.097 E2.57053
G1 X79.480 Y92.357 E2.63053
G1 X80.805 Y90.805 E2.69053
G1 X82.357 Y89.480 E2.75053
G1 X83.223 Y88.949 E2.78041
G1 X83.223 Y88.949 E2.78041
G1 X84.097 Y88.414 E2.81053
G1 X85.982 Y87.633 E2.87053
G1 X87.966 Y87.157 E2.93053
G1 X90.000 Y86.997 E2.99053
G1 X92.034 Y87.157 E3.05053
G1 X94.049 Y87.640 E3.11147
G1 X119.079 Y96.487 E3.89210
G1 X119.085 Y96.714 E3.89879
G1 X118.458 Y96.974 E3.91875
G1 X118.004 Y97.252 E3.93442
G1 X117.598 Y97.598 E3.95009
G1 X117.252 Y98.004 E3.96576
G1 X116.974 Y98.458 E3.98144
G1 X116.770 Y98.950 E3.99711
G1 X116.645 Y99.469 E4.01278
G1 X116.603 Y100.000 E4.02845
G1 X116.645 Y100.531 E4.04413
G1 X116.770 Y101.050 E4.05980
G1 X116.974 Y101.542 E4.07547
G1 X117.252 Y101.996 E4.09115
G1 X117.598 Y102.402 E4.10682
G1 X118.004 Y102.748 E4.12249
G1 X118.458 Y103.026 E4.13816
G1 X119.085 Y103.286 E4.15812
G1 X119.079 Y103.513 E4.16481
G1 X115.593 Y104.746 E4.27355
G1 X115.690 Y105.258 F7800.000
G1 X94.195 Y112.854 F540.000 E4.94392
G1 X92.115 Y113.354 E5.00683
G1 X90.000 Y113.520 E5.06922
G1 X87.885 Y113.354 E5.13160
G1 X85.822 Y112.858 E5.19399
G1 X83.862 Y112.047 E5.25637
G1 X82.053 Y110.938 E5.31876
G1 X80.440 Y109.560 E5.38114
G1 X79.062 Y107.947 E5.44353
G1 X77.953 Y106.138 E5.50591
G1 X77.821 Y105.818 E5.51611
G1 X77.821 Y105.818 E5.51611
G1 X77.142 Y104.178 E5.56830
G1 X76.646 Y102.115 E5.63068
G1 X76.480 Y100.000 E5.69307
G1 X76.646 Y97.885 E5.75546
G1 X77.142 Y95.822 E5.81784
G1 X77.821 Y94.182 E5.87003
G1 X77.821 Y94.182 E5.87003
G1 X77.953 Y93.862 E5.88023
G1 X79.062 Y92.053 E5.94261
G1 X80.440 Y90.440 E6.00500
G1 X82.053 Y89.062 E6.06738
G1 X83.219 Y88.347 E6.10761
G1 X83.219 Y88.347 E6.10761
G1 X83.862 Y87.953 E6.12977
G1 X85.822 Y87.142 E6.19215
G1 X87.885 Y86.646 E6.25454
G1 X90.000 Y86.480 E6.31692
G1 X92.115 Y86.646 E6.37931
G1 X94.195 Y87.146 E6.44223
G1 X121.055 Y96.639 E7.27992
G1 X121.685 Y96.899 E7.29996
G1 X121.685 Y96.916 E7.30046
G1 X122.069 Y97.152 E7.31372
G1 X122.489 Y97.511 E7.32996
G1 X122.848 Y97.931 E7.34621
G1 X123.136 Y98.402 E7.36245
G1 X123.348 Y98.912 E7.37869
G1 X123.477 Y99.449 E7.39493
G1 X123.514 Y99.922 E7.40887
G1 X123.514 Y99.922 E7.40887
G1 X123.520 Y100.000 E7.41118
G1 X123.514 Y100.078 E7.41349
G1 X123.514 Y100.078 E7.41349
G1 X123.477 Y100.551 E7.42742
G1 X123.348 Y101.088 E7.44366
G1 X123.136 Y101.598 E7.45991
G1 X122.848 Y102.069 E7.47615
G1 X122.489 Y102.489 E7.49239
G1 X122.069 Y102.848 E7.50864
G1 X121.685 Y103.084 E7.52189
G1 X121.685 Y103.101 E7.52240
G1 X121.055 Y103.361 E7.54244
G1 X115.764 Y105.231 E7.70745
G1 X115.862 Y105.743 F7800.000
G1 X94.342 Y113.349 F540.000 E8.37860
G1 X92.196 Y113.864 E8.44350
G1 X90.000 Y114.037 E8.50827
G1 X87.804 Y113.864 E8.57304
G1 X85.986 Y113.428 E8.62803
G1 X85.986 Y113.484 E8.62969
G1 X83.627 Y112.507 E8.70475
G1 X81.749 Y111.356 E8.76952
G1 X80.074 Y109.926 E8.83429
G1 X79.889 Y109.708 E8.84269
G1 X79.889 Y109.708 E8.84269
G1 X78.644 Y108.251 E8.89906
G1 X77.493 Y106.373 E8.96383
G1 X77.477 Y106.333 E8.96509
G1 X77.477 Y106.333 E8.96509
G1 X76.650 Y104.338 E9.02860
G1 X76.136 Y102.196 E9.09337
G1 X75.963 Y100.000 E9.15814
G1 X76.136 Y97.804 E9.22291
G1 X76.650 Y95.662 E9.28768
G1 X77.477 Y93.667 E9.35119
G1 X77.477 Y93.667 E9.35119
G1 X77.493 Y93.627 E9.35245
G1 X78.644 Y91.749 E9.41722
G1 X80.074 Y90.074 E9.48199
G1 X81.749 Y88.644 E9.54676
G1 X83.591 Y87.515 E9.61027
G1 X83.591 Y87.515 E9.61027
G1 X83.627 Y87.493 E9.61153
G1 X85.662 Y86.650 E9.67630
G1 X87.804 Y86.136 E9.74107
G1 X90.000 Y85.963 E9.80584
G1 X92.196 Y86.136 E9.87061
G1 X94.342 Y86.651 E9.93550
G1 X121.240 Y96.157 E10.77439
G1 X121.833 Y96.403 E10.79326
G1 X122.373 Y96.734 E10.81189
G1 X122.855 Y97.145 E10.83052
G1 X123.266 Y97.627 E10.84915
G1 X123.597 Y98.167 E10.86777
G1 X123.794 Y98.643 E10.88290
G1 X123.794 Y98.643 E10.88290
G1 X123.839 Y98.753 E10.88640
G1 X123.987 Y99.368 E10.90503
G1 X124.037 Y100.000 E10.92366
G1 X123.987 Y100.632 E10.94228
G1 X123.839 Y101.247 E10.96091
G1 X123.794 Y101.357 E10.96441
G1 X123.794 Y101.357 E10.96441
G1 X123.597 Y101.833 E10.97954
G1 X123.266 Y102.373 E10.99817
G1 X122.855 Y102.855 E11.01680
G1 X122.373 Y103.266 E11.03542
G1 X121.833 Y103.597 E11.05405
G1 X121.240 Y103.843 E11.07293
G1 X115.936 Y105.717 E11.23834
G1 F1800.000 E10.23834
G92 E0
G1 X117.947 Y96.729 F7800.000
G1 F1800.000 E1.00000
G1 X117.650 Y96.431 F1080.000 E1.01236
G1 X116.522 Y96.033 E1.04755
G1 X117.645 Y97.156 E1.09427
G1 X117.271 Y97.511 E1.10945
G1 X115.393 Y95.634 E1.18751
G1 X114.265 Y95.235 E1.22270
G1 X116.943 Y97.913 E1.33406
G1 X116.666 Y98.366 E1.34967
G1 X113.137 Y94.837 E1.49642
G1 X112.008 Y94.438 E1.53161
G1 X116.451 Y98.881 E1.71635
G1 X116.302 Y99.460 E1.73395
G1 X110.881 Y94.039 E1.95940
G1 X109.752 Y93.640 E1.99459
G1 X116.237 Y100.125 E2.26427
G1 X116.328 Y100.946 E2.28855
G1 X108.624 Y93.242 E2.60893
G1 X107.495 Y92.843 E2.64412
G1 X116.795 Y102.143 E3.03085
G1 X117.610 Y103.687 E3.08221
G1 X106.367 Y92.444 E3.54976
G1 X105.239 Y92.046 E3.58495
G1 X117.071 Y103.878 E4.07700
G1 X116.532 Y104.069 E4.09382
G1 X104.110 Y91.647 E4.61037
G1 X102.983 Y91.248 E4.64555
G1 X115.994 Y104.258 E5.18661
G1 X115.454 Y104.449 E5.20343
G1 X101.854 Y90.849 E5.76900
G1 X100.726 Y90.450 E5.80418
G1 X114.915 Y104.640 E6.39425
G1 X114.376 Y104.830 E6.41107
G1 X99.598 Y90.052 E7.02564
G1 X98.469 Y89.653 E7.06083
G1 X113.837 Y105.021 E7.69991
G1 X113.298 Y105.212 E7.71672
G1 X97.341 Y89.254 E8.38030
G1 X96.213 Y88.855 E8.41548
G1 X112.760 Y105.401 E9.10357
G1 X112.220 Y105.592 E9.12039
G1 X95.085 Y88.456 E9.83297
G1 X93.956 Y88.058 E9.86816
G1 X111.681 Y105.783 E10.60526
G1 X111.142 Y105.973 E10.62207
G1 X92.966 Y87.797 E11.37793
G1 X92.006 Y87.567 E11.40696
G1 X110.603 Y106.164 E12.18032
G1 X110.064 Y106.354 E12.19714
G1 X91.179 Y87.470 E12.98248
G1 X90.388 Y87.407 E13.00582
G1 X109.525 Y106.544 E13.80167
G1 X108.986 Y106.735 E13.81849
G1 X89.633 Y87.382 E14.62330
G1 X88.957 Y87.435 E14.64325
G1 X108.447 Y106.926 E15.45377
G1 X107.908 Y107.116 E15.47059
G1 X88.280 Y87.488 E16.28682
G1 X87.642 Y87.580 E16.30578
G1 X107.369 Y107.307 E17.12612
G1 X106.830 Y107.497 E17.14294
G1 X87.054 Y87.721 E17.96533
G1 X86.466 Y87.862 E17.98310
G1 X106.291 Y107.687 E18.80755
G1 X105.752 Y107.878 E18.82436
G1 X85.892 Y88.018 E19.65027
G1 X85.376 Y88.231 E19.66669
G1 X105.213 Y108.069 E20.49163
G1 X104.674 Y108.259 E20.50844
G1 X84.860 Y88.445 E21.33242
G1 X84.344 Y88.659 E21.34884
G1 X104.135 Y108.450 E22.17185
G1 X103.596 Y108.640 E22.18867
G1 X83.872 Y88.916 E23.00890
G1 X83.420 Y89.193 E23.02449
G1 X103.057 Y108.831 E23.84112
G1 X102.518 Y109.021 E23.85793
G1 X82.967 Y89.470 E24.67096
G1 X82.515 Y89.748 E24.68656
G1 X101.979 Y109.212 E25.49598
G1 X101.440 Y109.402 E25.51279
G1 X82.121 Y90.083 E26.31617
G1 X81.728 Y90.419 E26.33139
G1 X100.901 Y109.593 E27.12872
G1 X100.362 Y109.783 E27.14553
G1 X81.334 Y90.755 E27.93681
G1 X80.953 Y91.103 E27.95199
G1 X99.823 Y109.974 E28.73673
G1 X99.284 Y110.164 E28.75354
G1 X80.617 Y91.497 E29.52983
G1 X80.281 Y91.890 E29.54505
G1 X98.745 Y110.355 E30.31290
G1 X98.206 Y110.545 E30.32971
G1 X79.944 Y92.284 E31.08912
G1 X79.633 Y92.702 E31.10445
G1 X97.667 Y110.736 E31.85440
G1 X97.128 Y110.926 E31.87121
G1 X79.356 Y93.154 E32.61026
G1 X79.079 Y93.606 E32.62586
G1 X96.589 Y111.117 E33.35403
G1 X96.050 Y111.307 E33.37084
G1 X78.802 Y94.059 E34.08812
G1 X78.571 Y94.557 E34.10428
G1 X95.511 Y111.498 E34.80875
G1 X94.972 Y111.688 E34.82557
G1 X78.357 Y95.073 E35.51651
G1 X78.143 Y95.589 E35.53293
G1 X94.433 Y111.879 E36.21034
G1 X93.879 Y112.055 E36.22742
G1 X77.945 Y96.120 E36.89005
G1 X77.804 Y96.709 E36.90784
G1 X93.291 Y112.196 E37.55189
G1 X92.703 Y112.337 E37.56968
G1 X77.663 Y97.297 E38.19514
G1 X77.521 Y97.885 E38.21293
G1 X92.115 Y112.479 E38.81979
G1 X91.440 Y112.534 E38.83969
G1 X77.466 Y98.560 E39.42080
G1 X77.413 Y99.236 E39.44075
G1 X90.764 Y112.587 E39.99596
G1 X90.077 Y112.630 E40.01619
G1 X77.370 Y99.923 E40.54462
G1 X77.433 Y100.714 E40.56797
G1 X89.286 Y112.567 E41.06088
G1 X88.494 Y112.505 E41.08424
G1 X77.495 Y101.506 E41.54163
G1 X77.662 Y102.403 E41.56845
G1 X87.597 Y112.338 E41.98161
G1 X86.637 Y112.108 E42.01064
G1 X77.892 Y103.363 E42.37430
G1 X78.305 Y104.505 E42.41001
G1 X85.495 Y111.695 E42.70901
G1 X84.132 Y111.061 E42.75322
G1 X78.939 Y105.868 E42.96918
G1 F1800.000 E41.96918
G92 E0
G1 X81.021 Y108.680 F7800.000
G1 F1800.000 E1.00000
G1 X81.320 Y108.979 F1080.000 E1.01243
G1 F1800.000 E0.01243
G92 E0
G1 Z0.800 F7800.000
G1 X117.156 Y100.451
G1 F1800.000 E1.00000
G1 X117.120 Y100.000 F1800.000 E1.01329
G1 X117.156 Y99.549 E1.02658
G1 X117.261 Y99.110 E1.03986
G1 X117.434 Y98.693 E1.05315
G1 X117.670 Y98.307 E1.06644
G1 X117.964 Y97.964 E1.07973
G1 X118.307 Y97.670 E1.09302
G1 X118.693 Y97.434 E1.10630
G1 X119.110 Y97.261 E1.11959
G1 X119.549 Y97.156 E1.13288
G1 X120.000 Y97.120 E1.14617
G1 X120.451 Y97.156 E1.15946
G1 X120.890 Y97.261 E1.17274
G1 X121.307 Y97.434 E1.18603
G1 X121.693 Y97.670 E1.19932
G1 X122.036 Y97.964 E1.21261
G1 X122.330 Y98.307 E1.22589
G1 X122.566 Y98.693 E1.23918
G1 X122.739 Y99.110 E1.25247
G1 X122.844 Y99.549 E1.26576
G1 X122.880 Y100.000 E1.27905
G1 X122.844 Y100.451 E1.29234
G1 X122.739 Y100.890 E1.30562
G1 X122.566 Y101.307 E1.31891
G1 X122.330 Y101.693 E1.33220
G1 X122.036 Y102.036 E1.34549
G1 X121.693 Y102.330 E1.35877
G1 X121.307 Y102.566 E1.37206
G1 X120.890 Y102.739 E1.38535
G1 X120.451 Y102.844 E1.39864
G1 X120.000 Y102.880 E1.41193
G1 X119.549 Y102.844 E1.42522
G1 X119.110 Y102.739 E1.43850
G1 X118.693 Y102.566 E1.45179
G1 X118.307 Y102.330 E1.46508
G1 X117.964 Y102.036 E1.47836
G1 X117.670 Y101.693 E1.49165
G1 X117.434 Y101.307 E1.50494
G1 X117.261 Y100.890 E1.51823
G1 X117.174 Y100.527 E1.52920
G1 X117.666 Y100.370 F7800.000
G1 X117.637 Y100.000 F1800.000 E1.54010
G1 X117.666 Y99.630 E1.55101
G1 X117.753 Y99.270 E1.56191
G1 X117.895 Y98.927 E1.57281
