; generated by Slic3r 1.2.9 on 2016-03-11 at 22:12:36

; external perimeters extrusion width = 0.50mm
; perimeters extrusion width = 0.85mm
; infill extrusion width = 1.02mm
; solid infill extrusion width = 0.85mm
; top infill extrusion width = 0.85mm
; support material extrusion width = 0.50mm

M107
M104 S199 ; set temperature
G28 ; home all axes
M92 X64.8592 ; calibrate X
M92 Y64.8592  ; calibrate Y
M92 Z2560   ; calibrate Z
M551 ; prime extruder 1

M109 S199 ; wait for temperature to be reached
G21 ; set units to millimeters
G90 ; use absolute coordinates
M82 ; use absolute distances for extrusion
G92 E0
G1 Z0.200 F7800.000
G1 E-2.00000 F2400.00000
G92 E0
G1 X64.082 Y82.593 F7800.000
G1 E2.00000 F2400.00000
G1 X64.659 Y82.174 E2.02663 F1800.000
G1 X65.224 Y81.833 E2.05132
G1 X65.827 Y81.532 E2.07650
G1 X66.626 Y81.219 E2.10857
G1 X67.406 Y80.996 E2.13889
G1 X68.199 Y80.842 E2.16909
G1 X68.987 Y80.757 E2.19874
G1 X69.723 Y80.735 E2.22625
G1 X70.155 Y80.746 E2.24241 F1800.000
G1 X70.824 Y80.796 E2.26751
G1 X135.183 Y87.163 E4.68511
G1 X136.638 Y87.316 E4.73982
G1 X137.530 Y87.505 E4.77388
G1 X138.921 Y87.957 E4.82859
G1 X139.753 Y88.328 E4.86263
G1 X141.021 Y89.059 E4.91733
G1 X141.758 Y89.595 E4.95139
G1 X142.845 Y90.574 E5.00610
G1 X143.455 Y91.251 E5.04015
G1 X144.315 Y92.435 E5.09485
G1 X144.770 Y93.223 E5.12888
G1 X145.365 Y94.560 E5.18359
G1 X145.689 Y95.651 E5.22613
G1 X146.031 Y97.815 E5.30801
G1 X146.085 Y98.496 E5.33355
G1 X146.085 Y103.746 E5.52981
G1 X146.061 Y104.201 E5.54685
G1 X145.908 Y105.657 E5.60156
G1 X145.719 Y106.548 E5.63561
G1 X145.266 Y107.940 E5.69032
G1 X144.896 Y108.772 E5.72436
G1 X144.181 Y110.009 E5.77778
G1 X143.629 Y110.776 E5.81312
G1 X142.649 Y111.864 E5.86784
G1 X141.973 Y112.473 E5.90186
G1 X140.789 Y113.333 E5.95657
G1 X140.000 Y113.788 E5.99062
G1 X138.663 Y114.384 E6.04533
G1 X138.136 Y114.579 E6.06635
G1 X128.474 Y117.459 E6.44324
G1 X127.370 Y117.638 E6.48505
G1 X77.158 Y119.261 E8.36304
G1 X76.544 Y119.257 E8.38600
G1 X75.856 Y119.192 E8.41185
G1 X75.235 Y119.079 E8.43546
G1 X74.563 Y118.892 E8.46152
G1 X61.017 Y114.264 E8.99664
G1 X60.247 Y113.914 E9.02825
G1 X58.979 Y113.182 E9.08296
G1 X58.242 Y112.647 E9.11701
G1 X57.155 Y111.668 E9.17171
G1 X56.545 Y110.991 E9.20577
G1 X55.685 Y109.807 E9.26047
G1 X55.230 Y109.018 E9.29452
G1 X54.635 Y107.681 E9.34922
G1 X54.312 Y106.591 E9.39175
G1 X53.969 Y104.428 E9.47362
G1 X53.915 Y103.746 E9.49917
G1 X53.915 Y98.496 E9.69543
G1 X53.939 Y98.041 E9.71248
G1 X54.092 Y96.585 E9.76718
G1 X54.282 Y95.694 E9.80124
G1 X54.734 Y94.302 E9.85595
G1 X55.104 Y93.470 E9.88999
G1 X55.836 Y92.203 E9.94469
G1 X56.286 Y91.564 E9.97389
G1 X63.043 Y83.592 E10.36456
G1 X63.543 Y83.065 E10.39171
G1 X64.024 Y82.640 E10.41573
G1 E8.41573 F2400.00000
G92 E0
G1 X67.989 Y105.013 F7800.000
G1 E2.00000 F2400.00000
G1 X67.302 Y105.512 E2.03173 F1800.000
G1 X66.527 Y105.857 E2.06346
G1 X65.697 Y106.034 E2.09519
G1 X64.848 Y106.034 E2.12692
G1 X64.018 Y105.857 E2.15865
G1 X63.242 Y105.512 E2.19038
G1 X62.549 Y105.008 E2.22243
G1 X61.987 Y104.382 E2.25387
G1 X61.563 Y103.647 E2.28558
G1 X61.301 Y102.840 E2.31731
G1 X61.215 Y102.025 E2.34794
G1 X61.215 Y100.217 E2.41554
G1 X61.301 Y99.402 E2.44617
G1 X61.563 Y98.595 E2.47790
G1 X61.988 Y97.859 E2.50963
G1 X62.556 Y97.229 E2.54136
G1 X63.242 Y96.730 E2.57309
G1 X64.018 Y96.385 E2.60482
G1 X64.848 Y96.208 E2.63655
G1 X65.697 Y96.208 E2.66828 F1800.000
G1 X66.527 Y96.385 E2.70001
G1 X67.302 Y96.730 E2.73174
G1 X67.989 Y97.229 E2.76347
G1 X68.557 Y97.859 E2.79520
G1 X68.982 Y98.595 E2.82693
G1 X69.244 Y99.402 E2.85866
G1 X69.329 Y100.217 E2.88929
G1 X69.329 Y102.025 E2.95690
G1 X69.244 Y102.840 E2.98753
G1 X68.982 Y103.647 E3.01926
G1 X68.557 Y104.382 E3.05099
G1 X68.039 Y104.957 E3.07991
G1 X67.749 Y104.746 F7800.000
G1 X67.123 Y105.201 E3.10884 F1800.000
G1 X66.416 Y105.516 E3.13776
G1 X65.659 Y105.677 E3.16669
G1 X64.886 Y105.677 E3.19561
G1 X64.129 Y105.516 E3.22453
G1 X63.422 Y105.201 E3.25346
G1 X62.789 Y104.742 E3.28269
G1 X62.278 Y104.171 E3.31132
G1 X61.891 Y103.501 E3.34024
G1 X61.652 Y102.765 E3.36916
G1 X61.572 Y102.006 E3.39769
G1 X61.572 Y100.236 E3.46389
G1 X61.652 Y99.476 E3.49242
G1 X61.891 Y98.741 E3.52135
G1 X62.278 Y98.071 E3.55027
G1 X62.796 Y97.496 E3.57919
G1 X63.422 Y97.041 E3.60812
G1 X64.129 Y96.726 E3.63704
G1 X64.886 Y96.565 E3.66597
G1 X65.659 Y96.565 E3.69489 F1800.000
G1 X66.416 Y96.726 E3.72381
G1 X67.123 Y97.041 E3.75274
G1 X67.749 Y97.496 E3.78166
G1 X68.267 Y98.071 E3.81059
G1 X68.654 Y98.741 E3.83951
G1 X68.893 Y99.476 E3.86843
G1 X68.972 Y100.235 E3.89696
G1 X68.972 Y102.006 E3.96317
G1 X68.893 Y102.765 E3.99170
G1 X68.654 Y103.501 E4.02062
G1 X68.267 Y104.171 E4.04955
G1 X67.799 Y104.691 E4.07567
G1 X67.836 Y105.239 F7800.000
G1 X73.982 Y110.189 F7800.000
G1 X65.302 Y110.189 E4.40015 F1800.000
G1 X63.933 Y110.045 E4.45158
G1 X62.653 Y109.629 E4.50190
G1 X61.487 Y108.956 E4.55223
G1 X60.487 Y108.055 E4.60256
G1 X59.695 Y106.966 E4.65289
G1 X59.154 Y105.749 E4.70266
G1 X58.829 Y103.702 E4.78015
G1 X58.829 Y98.525 E4.97368
G1 X58.973 Y97.157 E5.02510
G1 X59.389 Y95.877 E5.07543
G1 X60.062 Y94.711 E5.12576
G1 X60.941 Y93.735 E5.17483
G1 X62.054 Y92.918 E5.22643
G1 X63.269 Y92.377 E5.27616
G1 X66.588 Y91.869 E5.40168
G1 X66.212 Y89.819 E5.47960
G1 X66.111 Y89.365 E5.49698
G1 X66.080 Y89.103 E5.50687
G1 X66.068 Y88.779 E5.51897
G1 X66.095 Y88.346 E5.53517
G1 X66.171 Y87.942 E5.55055
G1 X66.297 Y87.563 E5.56551
G1 X66.465 Y87.226 E5.57956
G1 X66.670 Y86.919 E5.59337
G1 X66.911 Y86.644 E5.60702
G1 X67.179 Y86.410 E5.62031
G1 X67.645 Y86.111 E5.64103
G1 X67.965 Y85.961 E5.65423
G1 X68.507 Y85.786 E5.67553
G1 X69.077 Y85.682 E5.69720
G1 X69.651 Y85.649 E5.71867
G1 X70.108 Y85.665 E5.73579
G1 X70.795 Y85.751 E5.76166
G1 X71.257 Y85.846 E5.77928
G1 X71.748 Y85.998 E5.79851
G1 X72.215 Y86.208 E5.81765
G1 X72.664 Y86.478 E5.83723
G1 X73.111 Y86.820 E5.85827
G1 X73.309 Y87.003 E5.86837
G1 X73.715 Y87.449 E5.89089
G1 X74.087 Y87.954 E5.91435
G1 X74.444 Y88.554 E5.94047
G1 X74.599 Y88.876 E5.95380
G1 X74.742 Y89.221 E5.96777
G1 X74.998 Y90.003 E5.99853
G1 X75.505 Y92.053 E6.07747
G1 X134.698 Y92.053 E8.29026
G1 X136.067 Y92.197 E8.34168
G1 X137.347 Y92.613 E8.39201
G1 X138.513 Y93.286 E8.44234
G1 X139.513 Y94.187 E8.49266
G1 X140.305 Y95.276 E8.54299
G1 X140.846 Y96.492 E8.59277
G1 X141.171 Y98.540 E8.67026
G1 X141.171 Y103.717 E8.86378
G1 X141.027 Y105.085 E8.91521
G1 X140.611 Y106.365 E8.96554
G1 X139.938 Y107.531 E9.01586
G1 X139.037 Y108.532 E9.06619
G1 X137.948 Y109.323 E9.11652
G1 X136.731 Y109.865 E9.16629
G1 X134.684 Y110.189 E9.24378
G1 X127.408 Y110.189 E9.51575
G1 X127.415 Y112.207 E9.59120
G1 X127.434 Y112.476 E9.60128
G1 X127.382 Y112.592 E9.60603
G1 X127.288 Y112.678 E9.61078
G1 X127.143 Y112.725 E9.61648
G1 X122.842 Y112.152 E9.77871
G1 X122.666 Y112.089 E9.78570
G1 X121.273 Y111.222 E9.84702
G1 X119.805 Y112.553 E9.92110
G1 X119.787 Y112.593 E9.92271
G1 X119.694 Y112.678 E9.92745
G1 X119.549 Y112.725 E9.93314
G1 X115.247 Y112.152 E10.09539
G1 X115.071 Y112.089 E10.10237
G1 X114.975 Y111.998 E10.10732
G1 X114.909 Y111.845 E10.11353
G1 X114.876 Y111.692 E10.11937
G1 X114.392 Y110.189 E10.17842
G1 X79.809 Y110.189 E11.47121
G1 X79.542 Y111.813 E11.53273
G1 X79.500 Y112.174 E11.54631
G1 X79.375 Y112.627 E11.56391
G1 X79.261 Y112.888 E11.57453
G1 X79.116 Y113.142 E11.58548
G1 X78.946 Y113.376 E11.59629
G1 X78.755 Y113.586 E11.60689
G1 X78.417 Y113.869 E11.62338
G1 X78.186 Y114.014 E11.63356
G1 X77.773 Y114.204 E11.65058
G1 X77.491 Y114.287 E11.66156
G1 X77.201 Y114.335 E11.67254
G1 X76.726 Y114.345 E11.69030
G1 X76.430 Y114.308 E11.70143
G1 X76.145 Y114.238 E11.71243
G1 X75.722 Y114.065 E11.72952
G1 X75.478 Y113.924 E11.74004
G1 X75.252 Y113.760 E11.75047
G1 X74.936 Y113.454 E11.76691
G1 X74.680 Y113.106 E11.78306
G1 X74.479 Y112.707 E11.79974
G1 X74.385 Y112.430 E11.81069
G1 X73.995 Y110.263 E11.89302
G1 X73.684 Y110.546 F7800.000
G1 X65.283 Y110.546 E12.20708 F1800.000
G1 X63.859 Y110.396 E12.26061
G1 X62.507 Y109.957 E12.31374
G1 X61.276 Y109.246 E12.36688
G1 X60.220 Y108.295 E12.42001
G1 X59.384 Y107.145 E12.47314
G1 X58.808 Y105.852 E12.52608
G1 X58.472 Y103.730 E12.60638
G1 X58.472 Y98.506 E12.80165
G1 X58.622 Y97.082 E12.85518
G1 X59.061 Y95.731 E12.90831
G1 X59.772 Y94.500 E12.96145
G1 X60.700 Y93.469 E13.01329
G1 X61.873 Y92.608 E13.06770
G1 X63.167 Y92.032 E13.12062
G1 X66.171 Y91.574 E13.23422
G1 X65.862 Y89.890 E13.29821
G1 X65.758 Y89.425 E13.31603
G1 X65.724 Y89.130 E13.32714
G1 X65.711 Y88.775 E13.34043
G1 X65.740 Y88.303 E13.35811
G1 X65.824 Y87.852 E13.37523
G1 X65.967 Y87.426 E13.39204
G1 X66.155 Y87.047 E13.40787
G1 X66.386 Y86.701 E13.42341
G1 X66.658 Y86.391 E13.43882
G1 X66.963 Y86.124 E13.45398
G1 X67.472 Y85.797 E13.47658
G1 X67.834 Y85.628 E13.49151
G1 X68.420 Y85.439 E13.51453
G1 X69.035 Y85.327 E13.53789
G1 X69.647 Y85.291 E13.56081
G1 X70.137 Y85.309 E13.57914
G1 X70.853 Y85.398 E13.60613
G1 X71.346 Y85.500 E13.62493
G1 X71.875 Y85.663 E13.64561
G1 X72.381 Y85.891 E13.66637
G1 X72.865 Y86.182 E13.68750
G1 X73.341 Y86.547 E13.70990
G1 X73.563 Y86.751 E13.72119
G1 X73.991 Y87.222 E13.74499
G1 X74.385 Y87.756 E13.76979
G1 X74.759 Y88.385 E13.79716
G1 X74.925 Y88.730 E13.81146
G1 X75.077 Y89.097 E13.82631
G1 X75.342 Y89.904 E13.85806
G1 X75.784 Y91.696 E13.92705
G1 X134.717 Y91.696 E16.13008
G1 X136.141 Y91.846 E16.18362
G1 X137.493 Y92.285 E16.23675
G1 X138.724 Y92.996 E16.28988
G1 X139.780 Y93.947 E16.34301
G1 X140.616 Y95.097 E16.39615
G1 X141.192 Y96.390 E16.44908
G1 X141.528 Y98.512 E16.52938
G1 X141.528 Y103.735 E16.72466
G1 X141.378 Y105.160 E16.77818
G1 X140.939 Y106.511 E16.83132
G1 X140.228 Y107.742 E16.88445
G1 X139.277 Y108.799 E16.93759
G1 X138.127 Y109.634 E16.99072
G1 X136.833 Y110.210 E17.04365
G1 X134.712 Y110.546 E17.12395
G1 X127.767 Y110.546 E17.38358
G1 X127.772 Y112.168 E17.44422
G1 X127.790 Y112.251 E17.44737
G1 X127.791 Y112.551 E17.45860
G1 X127.679 Y112.806 E17.46902
G1 X127.472 Y112.993 E17.47944
G1 X127.198 Y113.083 E17.49021
G1 X127.032 Y113.081 E17.49643
G1 X122.756 Y112.501 E17.65772
G1 X122.474 Y112.400 E17.66895
G1 X121.314 Y111.667 E17.72023
G1 X120.101 Y112.767 E17.78142
G1 X120.084 Y112.806 E17.78303
G1 X119.877 Y112.993 E17.79345
G1 X119.604 Y113.083 E17.80421
G1 X119.437 Y113.081 E17.81044
G1 X115.162 Y112.501 E17.97173
G1 X114.879 Y112.400 E17.98296
G1 X114.676 Y112.205 E17.99345
G1 X114.568 Y111.955 E18.00365
G1 X114.531 Y111.785 E18.01014
G1 X114.132 Y110.546 E18.05882
G1 X80.112 Y110.546 E19.33055
G1 X79.896 Y111.862 E19.38042
G1 X79.852 Y112.242 E19.39472
G1 X79.712 Y112.747 E19.41430
G1 X79.580 Y113.048 E19.42658
G1 X79.416 Y113.336 E19.43896
G1 X79.224 Y113.602 E19.45124
G1 X79.003 Y113.845 E19.46349
G1 X78.628 Y114.159 E19.48180
G1 X78.357 Y114.329 E19.49376
G1 X77.898 Y114.539 E19.51262
G1 X77.571 Y114.635 E19.52537
G1 X77.234 Y114.691 E19.53813
G1 X76.708 Y114.702 E19.55781
G1 X76.366 Y114.660 E19.57069
G1 X76.034 Y114.578 E19.58347
G1 X75.564 Y114.386 E19.60244
G1 X75.283 Y114.224 E19.61458
G1 X75.022 Y114.034 E19.62664
G1 X74.666 Y113.690 E19.64514
G1 X74.375 Y113.293 E19.66353
G1 X74.149 Y112.846 E19.68226
G1 X74.040 Y112.526 E19.69490
G1 X73.698 Y110.620 E19.76730
G1 X73.655 Y110.047 F7800.000
G1 X74.215 Y110.227 F7800.000
G1 X77.922 Y113.934 E19.96354 F1800.000
G1 X78.254 Y113.761 E19.97756
G1 X68.805 Y104.312 E20.47773
G1 X68.990 Y103.992 E20.49159
G1 X78.537 Y113.538 E20.99697
G1 X78.790 Y113.286 E21.01035
G1 X69.172 Y103.668 E21.51950
G1 X69.296 Y103.286 E21.53452
G1 X78.997 Y112.987 E22.04804
G1 X79.165 Y112.649 E22.06216
G1 X69.420 Y102.905 E22.57800
G1 X69.485 Y102.463 E22.59470
G1 X79.279 Y112.258 E23.11321
G1 X79.343 Y111.816 E23.12994
G1 X69.533 Y102.006 E23.64926
G1 X69.537 Y101.505 E23.66802
G1 X79.414 Y111.381 E24.19088
G1 X79.485 Y110.947 E24.20736
G1 X69.537 Y100.999 E24.73399
G1 X69.537 Y100.493 E24.75292
G1 X79.556 Y110.512 E25.28331
G1 X79.628 Y110.078 E25.29979
G1 X69.521 Y99.971 E25.83483
G1 X69.462 Y99.406 E25.85610
G1 X80.037 Y109.981 E26.41592
G1 X80.542 Y109.981 E26.43485
G1 X69.263 Y98.702 E27.03193
G1 X68.752 Y97.685 F7800.000
G1 X81.048 Y109.981 E27.68288 F1800.000
G1 X81.554 Y109.981 E27.70181
G1 X64.032 Y92.460 E28.62935
G1 X64.471 Y92.393 E28.64596
G1 X82.059 Y109.981 E29.57706
G1 X82.565 Y109.981 E29.59599
G1 X64.909 Y92.326 E30.53065
G1 X65.348 Y92.259 E30.54725
G1 X83.071 Y109.981 E31.48546
G1 X83.576 Y109.981 E31.50439
G1 X65.787 Y92.191 E32.44615
G1 X66.225 Y92.124 E32.46276
G1 X84.082 Y109.981 E33.40807
G1 X84.588 Y109.981 E33.42700
G1 X66.664 Y92.057 E34.37587
G1 X66.777 Y91.665 F7800.000
G1 X85.093 Y109.981 E35.34551 F1800.000
G1 X85.599 Y109.981 E35.36444
G1 X66.663 Y91.045 E36.36688
G1 X66.549 Y90.426 E36.39045
G1 X86.105 Y109.981 E37.42568
G1 X86.610 Y109.981 E37.44461
G1 X66.436 Y89.807 E38.51262
G1 X66.311 Y89.176 E38.53668
G1 X87.116 Y109.981 E39.63806
G1 X87.622 Y109.981 E39.65699
G1 X66.281 Y88.640 E40.78676
G1 X66.325 Y88.179 E40.80411
G1 X88.127 Y109.981 E41.95830
G1 X88.633 Y109.981 E41.97723
G1 X66.425 Y87.773 E43.15290
G1 X66.574 Y87.416 E43.16737
G1 X89.139 Y109.981 E44.36194
G1 X89.644 Y109.981 E44.38087
G1 X66.764 Y87.100 E45.59214
G1 X67.001 Y86.833 E45.60555
G1 X90.150 Y109.981 E46.83100
G1 X90.656 Y109.981 E46.84993
G1 X67.254 Y86.580 E48.08877
G1 X67.559 Y86.378 E48.10243
G1 X91.161 Y109.981 E49.35192
G1 X91.667 Y109.981 E49.37085
G1 X67.886 Y86.200 E50.62980
G1 X68.256 Y86.065 E50.64456
G1 X92.173 Y109.981 E51.91066
G1 X92.678 Y109.981 E51.92959
G1 X68.655 Y85.958 E53.20135
G1 X69.088 Y85.885 E53.21780
G1 X93.184 Y109.981 E54.49339
G1 X93.690 Y109.981 E54.51232
G1 X75.969 Y92.261 E55.45041
G1 X76.475 Y92.261 E55.46934
G1 X94.195 Y109.981 E56.40743
G1 X94.701 Y109.981 E56.42636
G1 X76.981 Y92.261 E57.36445
G1 X77.486 Y92.261 E57.38338
G1 X95.207 Y109.981 E58.32147
G1 X95.713 Y109.981 E58.34040
G1 X77.992 Y92.261 E59.27849
G1 X78.498 Y92.261 E59.29742
G1 X96.218 Y109.981 E60.23551
G1 X96.724 Y109.981 E60.25443
G1 X79.004 Y92.261 E61.19252
G1 X79.509 Y92.261 E61.21145
G1 X97.230 Y109.981 E62.14954
G1 X97.735 Y109.981 E62.16847
G1 X80.015 Y92.261 E63.10656
G1 X80.521 Y92.261 E63.12549
G1 X98.241 Y109.981 E64.06358
G1 X98.747 Y109.981 E64.08251
G1 X81.026 Y92.261 E65.02060
G1 X81.532 Y92.261 E65.03953
G1 X99.252 Y109.981 E65.97762
G1 X99.758 Y109.981 E65.99655
G1 X82.038 Y92.261 E66.93464
G1 X82.543 Y92.261 E66.95357
G1 X100.264 Y109.981 E67.89166
G1 X100.769 Y109.981 E67.91059
G1 X83.049 Y92.261 E68.84868
G1 X83.555 Y92.261 E68.86761
G1 X101.275 Y109.981 E69.80570
G1 X101.781 Y109.981 E69.82463
G1 X84.060 Y92.261 E70.76272
G1 X84.566 Y92.261 E70.78165
G1 X102.286 Y109.981 E71.71974
G1 X102.792 Y109.981 E71.73866
G1 X85.072 Y92.261 E72.67675
G1 X85.577 Y92.261 E72.69568
G1 X103.298 Y109.981 E73.63377
G1 X103.803 Y109.981 E73.65270
G1 X86.083 Y92.261 E74.59079
G1 X86.589 Y92.261 E74.60972
G1 X104.309 Y109.981 E75.54781
G1 X104.815 Y109.981 E75.56674
G1 X87.094 Y92.261 E76.50483
G1 X87.600 Y92.261 E76.52376
G1 X105.320 Y109.981 E77.46185
G1 X105.826 Y109.981 E77.48078
G1 X88.106 Y92.261 E78.41887
G1 X88.611 Y92.261 E78.43780
G1 X106.332 Y109.981 E79.37589
G1 X106.837 Y109.981 E79.39482
G1 X89.117 Y92.261 E80.33291
G1 X89.623 Y92.261 E80.35184
G1 X107.343 Y109.981 E81.28993
G1 X107.849 Y109.981 E81.30886
G1 X90.128 Y92.261 E82.24695
G1 X90.634 Y92.261 E82.26587
G1 X108.354 Y109.981 E83.20396
G1 X108.860 Y109.981 E83.22289
G1 X91.140 Y92.261 E84.16098
G1 X91.645 Y92.261 E84.17991
G1 X109.366 Y109.981 E85.11800
G1 X109.871 Y109.981 E85.13693
G1 X92.151 Y92.261 E86.07502
G1 X92.657 Y92.261 E86.09395
G1 X110.377 Y109.981 E87.03204
G1 X110.883 Y109.981 E87.05097
G1 X93.162 Y92.261 E87.98906
G1 X93.668 Y92.261 E88.00799
G1 X111.388 Y109.981 E88.94608
G1 X111.894 Y109.981 E88.96501
G1 X94.174 Y92.261 E89.90310
G1 X94.679 Y92.261 E89.92203
G1 X112.400 Y109.981 E90.86012
G1 X112.906 Y109.981 E90.87905
G1 X95.185 Y92.261 E91.81714
G1 X95.691 Y92.261 E91.83607
G1 X113.411 Y109.981 E92.77416
G1 X113.917 Y109.981 E92.79309
