; generated by Slic3r 0.9.9 on 2013-06-10 at 12:13:35

; layer_height = 0.34
; perimeters = 2
; top_solid_layers = 2
; bottom_solid_layers = 2
; fill_density = 0.4
; perimeter_speed = 70
; infill_speed = 70
; travel_speed = 100
; nozzle_diameter = 0.5
; filament_diameter = 3
; extrusion_multiplier = 0.9
; perimeters extrusion width = 0.60mm
; infill extrusion width = 0.37mm
; solid infill extrusion width = 0.60mm
; top infill extrusion width = 0.60mm

G21 ; set units to millimeters
M107
M104 S220 ; set temperature
G28 ; home all axes
M92 X64.8592 ; calibrate X
M92 Y64.8592  ; calibrate Y
M92 Z2560   ; calibrate Z
M92 E569  ; calibrate E
M551 ; prime extruder 1
M109 S220 ; wait for temperature to be reached
G90 ; use absolute coordinates
G92 E0
M82 ; use absolute distances for extrusion
G1 F1800.000 E-1.00000
G92 E0
G1 Z0.340 F6000.000
G1 X71.531 Y58.211
G1 F1800.000 E1.00000
G1 X71.851 Y57.851 F2100.000 E1.01204
G1 X72.391 Y57.391 E1.02978
G1 X72.991 Y57.001 E1.04767
G1 X73.421 Y56.781 E1.05974
G1 X73.861 Y56.611 E1.07153
G1 X74.321 Y56.481 E1.08348
G1 X74.791 Y56.391 E1.09545
G1 X75.261 Y56.351 E1.10724
G1 X124.731 Y56.351 E2.34399
G1 X125.201 Y56.391 E2.35578
G1 X125.901 Y56.541 E2.37368
G1 X126.571 Y56.781 E2.39147
G1 X127.001 Y57.001 E2.40355
G1 X127.601 Y57.391 E2.42144
G1 X128.141 Y57.851 E2.43917
G1 X128.461 Y58.211 E2.45121
G1 X128.741 Y58.591 E2.46301
G1 X129.101 Y59.201 E2.48072
G1 X129.211 Y59.421 E2.48687
G1 X129.381 Y59.861 E2.49866
G1 X129.561 Y60.551 E2.51649
G1 X129.601 Y60.791 E2.52257
G1 X129.641 Y61.261 E2.53437
G1 X129.641 Y138.731 E4.47112
G1 X129.601 Y139.201 E4.48291
G1 X129.451 Y139.901 E4.50081
G1 X129.211 Y140.571 E4.51860
G1 X128.991 Y141.001 E4.53067
G1 X128.601 Y141.601 E4.54856
G1 X128.141 Y142.141 E4.56630
G1 X127.781 Y142.461 E4.57834
G1 X127.401 Y142.741 E4.59014
G1 X126.791 Y143.101 E4.60785
G1 X126.571 Y143.211 E4.61400
G1 X126.131 Y143.381 E4.62579
G1 X125.441 Y143.561 E4.64362
G1 X125.201 Y143.601 E4.64970
G1 X124.731 Y143.641 E4.66149
G1 X75.261 Y143.641 E5.89824
G1 X74.791 Y143.601 E5.91003
G1 X74.091 Y143.451 E5.92793
G1 X73.421 Y143.211 E5.94572
G1 X72.991 Y142.991 E5.95780
G1 X72.391 Y142.601 E5.97569
G1 X71.851 Y142.141 E5.99342
G1 X71.531 Y141.781 E6.00546
G1 X71.251 Y141.401 E6.01727
G1 X70.891 Y140.791 E6.03497
G1 X70.781 Y140.571 E6.04112
G1 X70.611 Y140.131 E6.05291
G1 X70.431 Y139.441 E6.07074
G1 X70.391 Y139.201 E6.07682
G1 X70.351 Y138.731 E6.08862
G1 X70.351 Y61.261 E8.02537
G1 X70.391 Y60.791 E8.03716
G1 X70.431 Y60.551 E8.04324
G1 X70.541 Y60.091 E8.05507
G1 X70.691 Y59.641 E8.06693
G1 X70.781 Y59.421 E8.07287
G1 X71.001 Y58.991 E8.08494
G1 X71.251 Y58.591 E8.09674
G1 X71.478 Y58.279 E8.10637
G1 X71.961 Y58.601 F6000.000
G1 X72.261 Y58.261 F2100.000 E8.11771
G1 X72.771 Y57.821 E8.13455
G1 X73.151 Y57.571 E8.14592
G1 X73.541 Y57.361 E8.15699
G1 X74.171 Y57.121 E8.17385
G1 X74.611 Y57.011 E8.18518
G1 X75.051 Y56.941 E8.19632
G1 X75.501 Y56.921 E8.20758
G1 X124.491 Y56.921 E9.43233
G1 X124.941 Y56.941 E9.44359
G1 X125.601 Y57.061 E9.46037
G1 X126.031 Y57.191 E9.47160
G1 X126.651 Y57.461 E9.48850
G1 X127.221 Y57.821 E9.50536
G1 X127.731 Y58.261 E9.52220
G1 X128.171 Y58.771 E9.53903
G1 X128.301 Y58.961 E9.54479
G1 X128.631 Y59.541 E9.56147
G1 X128.871 Y60.171 E9.57833
G1 X129.021 Y60.831 E9.59525
G1 X129.051 Y61.051 E9.60080
G1 X129.071 Y61.501 E9.61206
G1 X129.071 Y138.491 E11.53681
G1 X129.051 Y138.941 E11.54807
G1 X128.931 Y139.601 E11.56484
G1 X128.801 Y140.031 E11.57607
G1 X128.531 Y140.651 E11.59298
G1 X128.171 Y141.221 E11.60983
G1 X127.731 Y141.731 E11.62667
G1 X127.221 Y142.171 E11.64351
G1 X127.031 Y142.301 E11.64927
G1 X126.451 Y142.631 E11.66595
G1 X125.821 Y142.871 E11.68280
G1 X125.161 Y143.021 E11.69972
G1 X124.941 Y143.051 E11.70527
G1 X124.491 Y143.071 E11.71654
G1 X75.501 Y143.071 E12.94129
G1 X75.051 Y143.051 E12.95255
G1 X74.391 Y142.931 E12.96932
G1 X73.961 Y142.801 E12.98055
G1 X73.341 Y142.531 E12.99745
G1 X72.771 Y142.171 E13.01431
G1 X72.261 Y141.731 E13.03115
G1 X71.821 Y141.221 E13.04799
G1 X71.691 Y141.031 E13.05374
G1 X71.361 Y140.451 E13.07042
G1 X71.121 Y139.821 E13.08728
G1 X70.971 Y139.161 E13.10420
G1 X70.941 Y138.941 E13.10975
G1 X70.921 Y138.491 E13.12101
G1 X70.921 Y61.501 E15.04576
G1 X70.941 Y61.051 E15.05702
G1 X70.971 Y60.831 E15.06257
G1 X71.061 Y60.391 E15.07380
G1 X71.191 Y59.961 E15.08503
G1 X71.461 Y59.341 E15.10194
G1 X71.691 Y58.961 E15.11304
G1 X71.906 Y58.668 E15.12213
G1 F1800.000 E14.12213
G92 E0
G1 X117.966 Y113.389 F6000.000
G1 F1800.000 E1.00000
G1 X118.693 Y113.019 F900.000 E1.02040
G1 X119.499 Y112.890 E1.04080
G1 X120.307 Y113.019 E1.06126
G1 X121.032 Y113.389 E1.08160
G1 X121.610 Y113.965 E1.10201
G1 X121.981 Y114.695 E1.12248
G1 X122.108 Y115.499 E1.14283
G1 X121.981 Y116.306 E1.16325
G1 X121.610 Y117.033 E1.18365
G1 X121.033 Y117.610 E1.20407
G1 X120.306 Y117.981 E1.22448
G1 X119.499 Y118.108 E1.24490
G1 X118.695 Y117.981 E1.26525
G1 X117.965 Y117.610 E1.28572
G1 X117.389 Y117.032 E1.30612
G1 X117.019 Y116.307 E1.32646
G1 X116.890 Y115.499 E1.34693
G1 X117.019 Y114.693 E1.36732
G1 X117.389 Y113.966 E1.38773
G1 X117.905 Y113.450 E1.40595
G1 X118.309 Y113.862 F6000.000
G1 X118.874 Y113.575 F900.000 E1.42180
G1 X119.499 Y113.475 E1.43761
G1 X120.126 Y113.575 E1.45348
G1 X120.689 Y113.862 E1.46928
G1 X121.137 Y114.309 E1.48511
G1 X121.425 Y114.875 E1.50098
G1 X121.523 Y115.499 E1.51677
G1 X121.425 Y116.125 E1.53262
G1 X121.137 Y116.689 E1.54844
G1 X120.689 Y117.137 E1.56430
G1 X120.125 Y117.425 E1.58012
G1 X119.499 Y117.523 E1.59597
G1 X118.875 Y117.425 E1.61176
G1 X118.309 Y117.137 E1.62764
G1 X117.862 Y116.689 E1.64347
G1 X117.575 Y116.126 E1.65927
G1 X117.475 Y115.499 E1.67514
G1 X117.575 Y114.874 E1.69095
G1 X117.862 Y114.309 E1.70680
G1 X118.248 Y113.924 E1.72043
G1 X118.279 Y113.286 F6000.000
G1 X119.499 Y87.110
G1 X118.693 Y86.981 F900.000 E1.74083
G1 X117.966 Y86.611 E1.76123
G1 X117.389 Y86.034 E1.78162
G1 X117.019 Y85.307 E1.80202
G1 X116.890 Y84.501 E1.82242
G1 X117.019 Y83.693 E1.84288
G1 X117.389 Y82.968 E1.86322
G1 X117.965 Y82.390 E1.88363
G1 X118.695 Y82.019 E1.90410
G1 X119.499 Y81.892 E1.92445
G1 X120.306 Y82.019 E1.94486
G1 X121.033 Y82.390 E1.96527
G1 X121.497 Y82.854 E1.98169
G1 X121.610 Y82.967 E1.98569
G1 X121.981 Y83.694 E2.00610
G1 X122.108 Y84.501 E2.02652
G1 X121.981 Y85.305 E2.04686
G1 X121.610 Y86.035 E2.06734
G1 X121.032 Y86.611 E2.08774
G1 X120.307 Y86.981 E2.10808
G1 X119.584 Y87.097 E2.12638
G1 X119.499 Y86.525 F6000.000
G1 X118.874 Y86.425 F900.000 E2.14219
G1 X118.309 Y86.138 E2.15804
G1 X117.862 Y85.691 E2.17384
G1 X117.575 Y85.126 E2.18970
G1 X117.475 Y84.501 E2.20551
G1 X117.575 Y83.874 E2.22138
G1 X117.862 Y83.311 E2.23718
G1 X118.309 Y82.863 E2.25300
G1 X118.875 Y82.575 E2.26888
G1 X119.499 Y82.477 E2.28467
G1 X120.125 Y82.575 E2.30052
G1 X120.689 Y82.863 E2.31634
G1 X121.137 Y83.311 E2.33220
G1 X121.425 Y83.875 E2.34802
G1 X121.523 Y84.501 E2.36387
G1 X121.425 Y85.125 E2.37966
G1 X121.137 Y85.691 E2.39553
G1 X120.689 Y86.138 E2.41136
G1 X120.126 Y86.425 E2.42716
G1 X119.584 Y86.512 E2.44086
G1 X119.184 Y87.009 F6000.000
G1 X87.867 Y90.617
G1 X81.135 Y90.617 F900.000 E2.60918
G1 X81.135 Y78.385 E2.91499
G1 X87.867 Y78.385 E3.08330
G1 X87.867 Y90.531 E3.38695
G1 X87.290 Y90.040 F6000.000
G1 X81.712 Y90.040 F900.000 E3.52639
G1 X81.712 Y78.962 E3.80332
G1 X87.290 Y78.962 E3.94276
G1 X87.290 Y89.953 E4.21753
G1 X87.290 Y90.617 F6000.000
G1 X89.650 Y88.290
G1 X89.650 Y63.212 F1200.000 E4.84447
G1 X100.850 Y63.212 E5.12446
G1 X100.850 Y88.290 E5.75139
G1 X89.737 Y88.290 E6.02921
G1 X89.073 Y88.290 F6000.000
G1 X99.633 Y97.984
G1 X102.484 Y95.135 F900.000 E6.13000
G1 X106.516 Y95.135 E6.23078
G1 X108.516 Y97.135 E6.30150
G1 X110.165 Y97.135 E6.34273
G1 X110.165 Y102.865 E6.48599
G1 X108.516 Y102.865 E6.52723
G1 X106.516 Y104.865 E6.59794
G1 X102.484 Y104.865 E6.69873
G1 X99.635 Y102.016 E6.79947
G1 X99.633 Y98.071 E6.89810
G1 X100.210 Y98.223 F6000.000
G1 X102.723 Y95.712 F900.000 E6.98692
G1 X106.277 Y95.712 E7.07575
G1 X108.277 Y97.712 E7.14646
G1 X109.588 Y97.712 E7.17923
G1 X109.588 Y102.288 E7.29362
G1 X108.277 Y102.288 E7.32640
G1 X106.277 Y104.288 E7.39711
G1 X102.723 Y104.288 E7.48594
G1 X100.212 Y101.777 E7.57472
G1 X100.210 Y98.310 E7.66139
G1 X99.921 Y97.723 F6000.000
G1 X87.867 Y109.383
G1 X87.867 Y121.615 F900.000 E7.96720
G1 X81.135 Y121.615 E8.13551
G1 X81.135 Y109.383 E8.44133
G1 X87.781 Y109.383 E8.60747
G1 X87.290 Y109.960 F6000.000
G1 X87.290 Y121.038 F900.000 E8.88441
G1 X81.712 Y121.038 E9.02385
G1 X81.712 Y109.960 E9.30078
G1 X87.203 Y109.960 E9.43806
G1 X87.867 Y109.960 F6000.000
G1 X89.650 Y111.710
G1 X100.850 Y111.710 F1200.000 E9.71804
G1 X100.850 Y136.788 E10.34498
G1 X89.650 Y136.788 E10.62497
G1 X89.650 Y111.797 E11.24974
G1 X89.650 Y111.133 F6000.000
G1 F1800.000 E10.24974
G92 E0
G1 X76.367 Y137.633 F6000.000
G1 F1800.000 E1.00000
G1 X76.367 Y62.367 F2100.000 E2.88164
G1 X89.073 Y62.367 E3.19928
G1 X89.073 Y88.867 E3.86178
G1 X101.427 Y88.867 E4.17064
G1 X101.427 Y62.367 E4.83314
G1 X123.633 Y62.367 E5.38828
G1 X123.633 Y88.490 E6.04135
G1 X121.749 Y90.374 E6.10794
G1 X119.425 Y94.940 E6.23604
G1 X118.622 Y100.001 E6.36415
G1 X119.425 Y105.060 E6.49220
G1 X121.749 Y109.626 E6.62030
G1 X123.633 Y111.510 E6.68689
G1 X123.633 Y137.633 E7.33996
G1 X101.427 Y137.633 E7.89510
G1 X101.427 Y111.133 E8.55760
G1 X89.073 Y111.133 E8.86646
G1 X89.073 Y137.633 E9.52896
G1 X76.454 Y137.633 E9.84444
G1 X75.790 Y138.210 F6000.000
G1 X75.790 Y61.790 F1200.000 E11.75495
G1 X124.210 Y61.790 E12.96546
G1 X124.210 Y88.729 E13.63895
G1 X122.222 Y90.717 E13.70923
G1 X119.981 Y95.121 E13.83276
G1 X119.207 Y100.001 E13.95629
G1 X119.981 Y104.879 E14.07978
G1 X122.222 Y109.283 E14.20331
G1 X124.210 Y111.271 E14.27359
G1 X124.210 Y138.210 E14.94708
G1 X75.876 Y138.210 E16.15543
G1 X76.078 Y137.710 F6000.000
G1 X76.786 Y137.214
G1 X77.495 Y137.214 F2100.000 E16.17325
G1 X76.786 Y136.201 E16.20433
G1 X76.786 Y135.189 E16.22978
G1 X78.204 Y137.214 E16.29194
G1 X78.913 Y137.214 E16.30976
G1 X76.786 Y134.177 E16.40299
G1 X76.786 Y133.164 E16.42844
G1 X79.622 Y137.214 E16.55274
G1 X80.331 Y137.214 E16.57057
G1 X76.786 Y132.152 E16.72594
G1 X76.786 Y131.139 E16.75139
G1 X81.040 Y137.214 E16.93784
G1 X81.749 Y137.214 E16.95566
G1 X76.786 Y130.127 E17.17319
G1 X76.786 Y129.114 E17.19864
G1 X82.458 Y137.214 E17.44723
G1 X83.166 Y137.214 E17.46506
G1 X76.786 Y128.102 E17.74472
G1 X76.786 Y127.089 E17.77018
G1 X83.875 Y137.214 E18.08092
G1 X84.584 Y137.214 E18.09874
G1 X76.786 Y126.077 E18.44056
G1 X76.786 Y125.064 E18.46601
G1 X85.293 Y137.214 E18.83890
G1 X86.002 Y137.214 E18.85672
G1 X76.786 Y124.052 E19.26068
G1 X76.786 Y123.039 E19.28614
G1 X86.711 Y137.214 E19.72117
G1 X87.420 Y137.214 E19.73899
G1 X76.786 Y122.027 E20.20510
G1 X76.786 Y121.014 E20.23055
G1 X88.129 Y137.214 E20.72774
G1 X88.654 Y136.952 E20.74250
G1 X76.786 Y120.002 E21.26269
G1 X76.786 Y118.989 E21.28815
G1 X88.654 Y135.939 E21.80835
G1 X88.654 Y134.927 E21.83380
G1 X76.786 Y117.977 E22.35400
G1 X76.786 Y116.964 E22.37945
G1 X88.654 Y133.914 E22.89965
G1 X88.654 Y132.902 E22.92510
G1 X81.044 Y122.034 E23.25864
G1 X80.716 Y121.565 F6000.000
G1 X76.786 Y115.952 F2100.000 E23.43091
G1 X76.786 Y114.939 E23.45637
G1 X80.716 Y120.553 E23.62864
G1 X80.716 Y119.540 E23.65409
G1 X76.786 Y113.927 E23.82636
G1 X76.786 Y112.914 E23.85181
G1 X80.716 Y118.528 E24.02408
G1 X80.716 Y117.515 E24.04954
G1 X76.786 Y111.902 E24.22181
G1 X76.786 Y110.889 E24.24726
G1 X80.716 Y116.503 E24.41953
G1 X80.716 Y115.490 E24.44498
G1 X76.786 Y109.877 E24.61725
G1 X76.786 Y108.865 E24.64271
G1 X80.716 Y114.478 E24.81498
G1 X80.716 Y113.465 E24.84043
G1 X76.786 Y107.852 E25.01270
G1 X76.786 Y106.840 E25.03815
G1 X80.716 Y112.453 E25.21042
G1 X80.716 Y111.440 E25.23588
G1 X76.786 Y105.827 E25.40815
G1 X76.786 Y104.815 E25.43360
G1 X80.716 Y110.428 E25.60587
G1 X80.716 Y109.415 E25.63133
G1 X76.786 Y103.802 E25.80360
G1 X76.786 Y102.790 E25.82905
G1 X81.109 Y108.964 E26.01855
G1 X81.818 Y108.964 E26.03637
G1 X76.786 Y101.777 E26.25694
G1 X76.786 Y100.765 E26.28240
G1 X82.527 Y108.964 E26.53404
G1 X83.236 Y108.964 E26.55187
G1 X76.786 Y99.752 E26.83458
G1 X76.786 Y98.740 E26.86004
G1 X83.945 Y108.964 E27.17383
G1 X84.654 Y108.964 E27.19165
G1 X76.786 Y97.727 E27.53652
G1 X76.786 Y96.715 E27.56197
G1 X85.363 Y108.964 E27.93791
G1 X86.072 Y108.964 E27.95573
G1 X76.786 Y95.702 E28.36275
G1 X76.786 Y94.690 E28.38820
G1 X86.781 Y108.964 E28.82629
G1 X87.490 Y108.964 E28.84411
G1 X76.786 Y93.677 E29.31327
G1 X76.786 Y92.665 E29.33872
G1 X88.199 Y108.964 E29.83896
G1 X88.286 Y109.089 F6000.000
G1 X89.424 Y110.714 F2100.000 E29.88885
G1 X90.133 Y110.714 E29.90667
G1 X76.786 Y91.652 E30.49168
G1 X76.786 Y90.640 E30.51714
G1 X90.842 Y110.714 E31.13322
G1 X91.551 Y110.714 E31.15105
G1 X76.786 Y89.627 E31.79821
G1 X76.786 Y88.615 E31.82366
G1 X92.260 Y110.714 E32.50190
G1 X92.969 Y110.714 E32.51972
G1 X76.786 Y87.602 E33.22903
G1 X76.786 Y86.590 E33.25448
G1 X93.678 Y110.714 E33.99486
G1 X94.387 Y110.714 E34.01268
G1 X76.786 Y85.577 E34.78414
G1 X76.786 Y84.565 E34.80959
G1 X80.716 Y90.178 E34.98186
G1 X80.716 Y89.166 E35.00732
G1 X76.786 Y83.553 E35.17959
G1 X76.786 Y82.540 E35.20504
G1 X80.716 Y88.153 E35.37731
G1 X80.716 Y87.141 E35.40276
G1 X76.786 Y81.528 E35.57503
G1 X76.786 Y80.515 E35.60049
G1 X80.716 Y86.128 E35.77276
G1 X80.716 Y85.116 E35.79821
G1 X76.786 Y79.503 E35.97048
G1 X76.786 Y78.490 E35.99593
G1 X80.716 Y84.103 E36.16820
G1 X80.716 Y83.091 E36.19366
G1 X76.786 Y77.478 E36.36593
G1 X76.786 Y76.465 E36.39138
G1 X80.716 Y82.078 E36.56365
G1 X80.716 Y81.066 E36.58910
G1 X76.786 Y75.453 E36.76137
G1 X76.786 Y74.440 E36.78683
G1 X80.716 Y80.053 E36.95910
G1 X80.716 Y79.041 E36.98455
G1 X76.786 Y73.428 E37.15682
G1 X76.786 Y72.415 E37.18227
G1 X80.716 Y78.028 E37.35454
G1 X81.382 Y77.966 E37.37134
G1 X76.786 Y71.403 E37.57278
G1 X76.786 Y70.390 E37.59823
G1 X82.090 Y77.966 E37.83074
G1 X82.799 Y77.966 E37.84856
G1 X76.786 Y69.378 E38.11214
G1 X76.786 Y68.365 E38.13759
G1 X83.508 Y77.966 E38.43225
G1 X84.217 Y77.966 E38.45007
G1 X76.786 Y67.353 E38.77580
G1 X76.786 Y66.340 E38.80125
G1 X84.926 Y77.966 E39.15805
G1 X85.635 Y77.966 E39.17587
G1 X76.786 Y65.328 E39.56375
G1 X76.786 Y64.315 E39.58920
G1 X86.344 Y77.966 E40.00815
G1 X87.053 Y77.966 E40.02597
G1 X76.786 Y63.303 E40.47599
G1 X77.133 Y62.786 E40.49164
G1 X87.762 Y77.966 E40.95754
G1 X88.471 Y77.966 E40.97536
G1 X77.842 Y62.786 E41.44125
G1 X78.551 Y62.786 E41.45907
G1 X88.654 Y77.215 E41.90192
G1 X88.654 Y76.203 E41.92737
G1 X79.259 Y62.786 E42.33915
G1 X79.968 Y62.786 E42.35697
G1 X88.654 Y75.190 E42.73768
G1 X88.654 Y74.178 E42.76313
G1 X80.677 Y62.786 E43.11276
G1 X81.386 Y62.786 E43.13058
G1 X88.654 Y73.165 E43.44914
G1 X88.654 Y72.153 E43.47459
G1 X82.095 Y62.786 E43.76207
G1 X82.804 Y62.786 E43.77990
G1 X88.654 Y71.141 E44.03630
G1 X88.654 Y70.128 E44.06176
G1 X83.513 Y62.786 E44.28709
G1 X84.222 Y62.786 E44.30492
G1 X88.654 Y69.116 E44.49918
G1 X88.654 Y68.103 E44.52463
G1 X84.931 Y62.786 E44.68782
G1 X85.640 Y62.786 E44.70564
G1 X88.654 Y67.091 E44.83776
G1 X88.654 Y66.078 E44.86321
G1 X86.349 Y62.786 E44.96425
G1 X87.058 Y62.786 E44.98208
G1 X88.654 Y65.066 E45.05205
G1 X88.654 Y64.053 E45.07750
G1 X87.767 Y62.786 E45.11640
G1 X88.476 Y62.786 E45.13422
G1 X88.654 Y63.041 E45.14204
G1 F1800.000 E44.14204
G92 E0
G1 X101.846 Y63.656 F6000.000
G1 F1800.000 E1.00000
G1 X116.473 Y84.545 F2100.000 E1.64110
G1 X116.593 Y83.705 E1.66244
G1 X101.946 Y62.786 E2.30445
G1 X102.655 Y62.786 E2.32227
G1 X116.863 Y83.078 E2.94504
G1 X117.208 Y82.557 E2.96074
G1 X103.364 Y62.786 E3.56753
G1 X104.073 Y62.786 E3.58535
G1 X117.624 Y82.139 E4.17930
G1 X118.123 Y81.840 E4.19394
G1 X104.782 Y62.786 E4.77871
G1 X105.490 Y62.786 E4.79653
G1 X118.664 Y81.600 E5.37394
G1 X119.303 Y81.499 E5.39019
G1 X106.199 Y62.786 E5.96451
G1 X106.908 Y62.786 E5.98234
G1 X120.051 Y81.555 E6.55837
G1 X121.005 Y81.906 E6.58393
G1 X107.617 Y62.786 E7.17073
G1 X108.326 Y62.786 E7.18855
