; generated by Slic3r 0.9.9 on 2013-06-10 at 00:10:30

; layer_height = 0.34
; perimeters = 2
; top_solid_layers = 2
; bottom_solid_layers = 2
; fill_density = 0.4
; perimeter_speed = 70
; infill_speed = 70
; travel_speed = 100
; nozzle_diameter = 0.5
; filament_diameter = 3
; extrusion_multiplier = 0.9
; perimeters extrusion width = 0.60mm
; infill extrusion width = 0.37mm
; solid infill extrusion width = 0.60mm
; top infill extrusion width = 0.60mm

G21 ; set units to millimeters
M107
M104 S220 ; set temperature
G28 ; home all axes
M92 X64.8592 ; calibrate X
M92 Y64.8592  ; calibrate Y
M92 Z2560   ; calibrate Z
M92 E569  ; calibrate E
M551 ; prime extruder 1
M109 S220 ; wait for temperature to be reached
G90 ; use absolute coordinates
G92 E0
M82 ; use absolute distances for extrusion
G1 F1800.000 E-1.00000
G92 E0
G1 Z0.340 F6000.000
G1 X71.530 Y58.210
G1 F1800.000 E1.00000
G1 X71.850 Y57.850 F2100.000 E1.01204
G1 X72.390 Y57.390 E1.02978
G1 X72.990 Y57.000 E1.04767
G1 X73.420 Y56.780 E1.05974
G1 X73.860 Y56.610 E1.07153
G1 X74.320 Y56.480 E1.08348
G1 X74.790 Y56.390 E1.09545
G1 X75.260 Y56.350 E1.10724
G1 X124.740 Y56.350 E2.34424
G1 X125.210 Y56.390 E2.35603
G1 X125.910 Y56.540 E2.37393
G1 X126.580 Y56.780 E2.39172
G1 X127.010 Y57.000 E2.40380
G1 X127.610 Y57.390 E2.42169
G1 X128.150 Y57.850 E2.43942
G1 X128.470 Y58.210 E2.45146
G1 X128.750 Y58.590 E2.46326
G1 X129.110 Y59.200 E2.48097
G1 X129.220 Y59.420 E2.48712
G1 X129.390 Y59.860 E2.49891
G1 X129.570 Y60.550 E2.51674
G1 X129.610 Y60.790 E2.52282
G1 X129.650 Y61.260 E2.53462
G1 X129.650 Y138.740 E4.47162
G1 X129.610 Y139.210 E4.48341
G1 X129.460 Y139.910 E4.50131
G1 X129.220 Y140.580 E4.51910
G1 X129.000 Y141.010 E4.53117
G1 X128.610 Y141.610 E4.54906
G1 X128.150 Y142.150 E4.56680
G1 X127.790 Y142.470 E4.57884
G1 X127.410 Y142.750 E4.59064
G1 X126.800 Y143.110 E4.60835
G1 X126.580 Y143.220 E4.61450
G1 X126.140 Y143.390 E4.62629
G1 X125.450 Y143.570 E4.64412
G1 X125.210 Y143.610 E4.65020
G1 X124.740 Y143.650 E4.66199
G1 X75.260 Y143.650 E5.89899
G1 X74.790 Y143.610 E5.91078
G1 X74.090 Y143.460 E5.92868
G1 X73.420 Y143.220 E5.94647
G1 X72.990 Y143.000 E5.95855
G1 X72.390 Y142.610 E5.97644
G1 X71.850 Y142.150 E5.99417
G1 X71.530 Y141.790 E6.00621
G1 X71.250 Y141.410 E6.01802
G1 X70.890 Y140.800 E6.03572
G1 X70.780 Y140.580 E6.04187
G1 X70.610 Y140.140 E6.05366
G1 X70.430 Y139.450 E6.07149
G1 X70.390 Y139.210 E6.07757
G1 X70.350 Y138.740 E6.08937
G1 X70.350 Y61.260 E8.02637
G1 X70.390 Y60.790 E8.03816
G1 X70.430 Y60.550 E8.04424
G1 X70.540 Y60.090 E8.05607
G1 X70.690 Y59.640 E8.06793
G1 X70.780 Y59.420 E8.07387
G1 X71.000 Y58.990 E8.08594
G1 X71.250 Y58.590 E8.09774
G1 X71.477 Y58.278 E8.10737
G1 X71.960 Y58.600 F6000.000
G1 X72.260 Y58.260 F2100.000 E8.11871
G1 X72.770 Y57.820 E8.13555
G1 X73.150 Y57.570 E8.14692
G1 X73.540 Y57.360 E8.15799
G1 X74.170 Y57.120 E8.17485
G1 X74.610 Y57.010 E8.18618
G1 X75.050 Y56.940 E8.19732
G1 X75.500 Y56.920 E8.20858
G1 X124.500 Y56.920 E9.43358
G1 X124.950 Y56.940 E9.44484
G1 X125.610 Y57.060 E9.46162
G1 X126.040 Y57.190 E9.47285
G1 X126.660 Y57.460 E9.48975
G1 X127.230 Y57.820 E9.50661
G1 X127.740 Y58.260 E9.52345
G1 X128.180 Y58.770 E9.54028
G1 X128.310 Y58.960 E9.54604
G1 X128.640 Y59.540 E9.56272
G1 X128.880 Y60.170 E9.57958
G1 X129.030 Y60.830 E9.59650
G1 X129.060 Y61.050 E9.60205
G1 X129.080 Y61.500 E9.61331
G1 X129.080 Y138.500 E11.53831
G1 X129.060 Y138.950 E11.54957
G1 X128.940 Y139.610 E11.56634
G1 X128.810 Y140.040 E11.57757
G1 X128.540 Y140.660 E11.59448
G1 X128.180 Y141.230 E11.61133
G1 X127.740 Y141.740 E11.62817
G1 X127.230 Y142.180 E11.64501
G1 X127.040 Y142.310 E11.65077
G1 X126.460 Y142.640 E11.66745
G1 X125.830 Y142.880 E11.68430
G1 X125.170 Y143.030 E11.70122
G1 X124.950 Y143.060 E11.70677
G1 X124.500 Y143.080 E11.71804
G1 X75.500 Y143.080 E12.94304
G1 X75.050 Y143.060 E12.95430
G1 X74.390 Y142.940 E12.97107
G1 X73.960 Y142.810 E12.98230
G1 X73.340 Y142.540 E12.99920
G1 X72.770 Y142.180 E13.01606
G1 X72.260 Y141.740 E13.03290
G1 X71.820 Y141.230 E13.04974
G1 X71.690 Y141.040 E13.05549
G1 X71.360 Y140.460 E13.07217
G1 X71.120 Y139.830 E13.08903
G1 X70.970 Y139.170 E13.10595
G1 X70.940 Y138.950 E13.11150
G1 X70.920 Y138.500 E13.12276
G1 X70.920 Y61.500 E15.04776
G1 X70.940 Y61.050 E15.05902
G1 X70.970 Y60.830 E15.06457
G1 X71.060 Y60.390 E15.07580
G1 X71.190 Y59.960 E15.08703
G1 X71.460 Y59.340 E15.10394
G1 X71.690 Y58.960 E15.11504
G1 X71.905 Y58.667 E15.12413
G1 F1800.000 E14.12413
G92 E0
G1 X116.768 Y84.500 F6000.000
G1 F1800.000 E1.00000
G1 X118.134 Y82.134 F900.000 E1.06831
G1 X120.866 Y82.134 E1.13661
G1 X122.232 Y84.500 E1.20492
G1 X120.866 Y86.866 E1.27323
G1 X118.134 Y86.866 E1.34154
G1 X116.811 Y84.575 E1.40768
G1 X117.435 Y84.500 F6000.000
G1 X118.467 Y82.711 F900.000 E1.45931
G1 X120.533 Y82.711 E1.51095
G1 X121.565 Y84.500 E1.56259
G1 X120.533 Y86.289 E1.61422
G1 X118.467 Y86.289 E1.66586
G1 X117.478 Y84.575 E1.71533
G1 X116.992 Y84.129 F6000.000
G1 X100.835 Y88.289
G1 X89.665 Y88.289 F1200.000 E1.99457
G1 X89.665 Y63.211 E2.62151
G1 X100.835 Y63.211 E2.90076
G1 X100.835 Y88.202 E3.52553
G1 X100.835 Y88.866 F6000.000
G1 X102.484 Y95.134
G1 X106.516 Y95.134 F900.000 E3.62631
G1 X108.516 Y97.134 E3.69702
G1 X110.166 Y97.134 E3.73829
G1 X110.166 Y102.866 E3.88160
G1 X108.516 Y102.866 E3.92287
G1 X106.516 Y104.866 E3.99358
G1 X102.484 Y104.866 E4.09436
G1 X99.634 Y102.016 E4.19514
G1 X99.634 Y97.984 E4.29593
G1 X102.423 Y95.195 E4.39454
G1 X102.724 Y95.711 F6000.000
G1 X106.276 Y95.711 F900.000 E4.48337
G1 X108.276 Y97.711 E4.55408
G1 X109.589 Y97.711 E4.58688
G1 X109.589 Y102.289 E4.70132
G1 X108.276 Y102.289 E4.73413
G1 X106.276 Y104.289 E4.80484
G1 X102.724 Y104.289 E4.89366
G1 X100.211 Y101.776 E4.98249
G1 X100.211 Y98.224 E5.07131
G1 X102.662 Y95.773 E5.15797
G1 X102.873 Y95.153 F6000.000
G1 F1800.000 E4.15797
G92 E0
G1 X118.134 Y113.134 F6000.000
G1 F1800.000 E1.00000
G1 X120.866 Y113.134 F900.000 E1.06831
G1 X122.232 Y115.500 E1.13661
G1 X120.866 Y117.866 E1.20492
G1 X118.134 Y117.866 E1.27323
G1 X116.768 Y115.500 E1.34154
G1 X118.091 Y113.209 E1.40768
G1 X118.467 Y113.711 F6000.000
G1 X120.533 Y113.711 F900.000 E1.45931
G1 X121.565 Y115.500 E1.51095
G1 X120.533 Y117.289 E1.56259
G1 X118.467 Y117.289 E1.61422
G1 X117.435 Y115.500 E1.66586
G1 X118.424 Y113.786 E1.71533
G1 X118.568 Y113.143 F6000.000
G1 X100.835 Y111.711
G1 X100.835 Y136.789 F1200.000 E2.34227
G1 X89.665 Y136.789 E2.62151
G1 X89.665 Y111.711 E3.24845
G1 X100.748 Y111.711 E3.52553
G1 X101.412 Y111.711 F6000.000
G1 X76.366 Y62.366
G1 X89.088 Y62.366 F2100.000 E3.84356
G1 X89.088 Y88.866 E4.50606
G1 X101.412 Y88.866 E4.81418
G1 X101.412 Y62.366 E5.47668
G1 X123.634 Y62.366 E6.03222
G1 X123.634 Y88.490 E6.68532
G1 X121.750 Y90.374 E6.75190
G1 X119.425 Y94.939 E6.87999
G1 X118.623 Y100.000 E7.00810
G1 X119.425 Y105.061 E7.13620
G1 X121.750 Y109.626 E7.26429
G1 X123.634 Y111.510 E7.33088
G1 X123.634 Y137.634 E7.98398
G1 X101.412 Y137.634 E8.53951
G1 X101.412 Y111.134 E9.20201
G1 X89.088 Y111.134 E9.51013
G1 X89.088 Y137.634 E10.17263
G1 X76.366 Y137.634 E10.49066
G1 X76.366 Y62.453 E12.37019
G1 X75.789 Y61.789 F6000.000
G1 X124.211 Y61.789 F1200.000 E13.58075
G1 X124.211 Y88.729 E14.25426
G1 X122.223 Y90.717 E14.32454
G1 X119.981 Y95.120 E14.44806
G1 X119.208 Y100.000 E14.57159
G1 X119.981 Y104.880 E14.69512
G1 X122.223 Y109.283 E14.81864
G1 X124.211 Y111.271 E14.88892
G1 X124.211 Y138.211 E15.56244
G1 X75.789 Y138.211 E16.77300
G1 X75.789 Y61.875 E18.68139
G1 X76.289 Y62.077 F6000.000
G1 X88.669 Y63.061
G1 X88.476 Y62.785 F2100.000 E18.68987
G1 X87.767 Y62.785 E18.70770
G1 X88.669 Y64.074 E18.74725
G1 X88.669 Y65.086 E18.77271
G1 X87.058 Y62.785 E18.84333
G1 X86.349 Y62.785 E18.86116
G1 X88.669 Y66.099 E18.96286
G1 X88.669 Y67.111 E18.98832
G1 X85.640 Y62.785 E19.12110
G1 X84.931 Y62.785 E19.13892
G1 X88.669 Y68.124 E19.30278
G1 X88.669 Y69.136 E19.32823
G1 X84.222 Y62.785 E19.52316
G1 X83.513 Y62.785 E19.54099
G1 X88.669 Y70.149 E19.76699
G1 X88.669 Y71.161 E19.79245
G1 X82.804 Y62.785 E20.04953
G1 X82.095 Y62.785 E20.06735
G1 X88.669 Y72.174 E20.35551
G1 X88.669 Y73.186 E20.38097
G1 X81.386 Y62.785 E20.70020
G1 X80.677 Y62.785 E20.71802
G1 X88.669 Y74.199 E21.06833
G1 X88.669 Y75.211 E21.09379
G1 X79.968 Y62.785 E21.47517
G1 X79.259 Y62.785 E21.49299
G1 X88.669 Y76.224 E21.90545
G1 X88.669 Y77.236 E21.93091
G1 X78.550 Y62.785 E22.37444
G1 X77.841 Y62.785 E22.39227
G1 X88.669 Y78.249 E22.86688
G1 X88.669 Y79.261 E22.89233
G1 X77.132 Y62.785 E23.39802
G1 X76.785 Y63.301 E23.41367
G1 X88.669 Y80.274 E23.93457
G1 X88.669 Y81.286 E23.96003
G1 X76.785 Y64.314 E24.48094
G1 X76.785 Y65.326 E24.50639
G1 X88.669 Y82.299 E25.02730
G1 X88.669 Y83.311 E25.05275
G1 X76.785 Y66.339 E25.57366
G1 X76.785 Y67.351 E25.59912
G1 X88.669 Y84.324 E26.12002
G1 X88.669 Y85.336 E26.14548
G1 X76.785 Y68.364 E26.66638
G1 X76.785 Y69.376 E26.69184
G1 X88.669 Y86.349 E27.21275
G1 X88.669 Y87.361 E27.23820
G1 X76.785 Y70.389 E27.75911
G1 X76.785 Y71.402 E27.78456
G1 X88.669 Y88.374 E28.30547
G1 X90.725 Y89.285 F6000.000
G1 X99.215 Y101.410 F2100.000 E28.67762
G1 X99.215 Y100.398 E28.70308
G1 X91.434 Y89.285 E29.04415
G1 X92.143 Y89.285 E29.06197
G1 X99.215 Y99.385 E29.37197
G1 X99.215 Y98.373 E29.39743
G1 X92.852 Y89.285 E29.67635
G1 X93.561 Y89.285 E29.69418
G1 X99.401 Y97.625 E29.95016
G1 X99.818 Y97.208 E29.96499
G1 X94.270 Y89.285 E30.20817
G1 X94.979 Y89.285 E30.22600
G1 X100.235 Y96.791 E30.45638
G1 X100.652 Y96.374 E30.47121
G1 X95.688 Y89.285 E30.68880
G1 X96.397 Y89.285 E30.70662
G1 X101.069 Y95.957 E30.91142
G1 X101.486 Y95.540 E30.92624
G1 X97.106 Y89.285 E31.11824
G1 X97.814 Y89.285 E31.13606
G1 X101.903 Y95.123 E31.31525
G1 X102.326 Y94.715 E31.33004
G1 X98.523 Y89.285 E31.49670
G1 X99.232 Y89.285 E31.51453
G1 X103.035 Y94.715 E31.68119
G1 X103.744 Y94.715 E31.69902
G1 X99.941 Y89.285 E31.86568
G1 X100.650 Y89.285 E31.88351
G1 X104.453 Y94.715 E32.05017
G1 X105.162 Y94.715 E32.06800
G1 X101.359 Y89.285 E32.23466
G1 X101.831 Y88.946 E32.24926
G1 X105.871 Y94.715 E32.42633
G1 X106.580 Y94.715 E32.44416
G1 X101.831 Y87.933 E32.65230
G1 X101.831 Y86.921 E32.67775
G1 X108.689 Y96.715 E32.97836
G1 X109.398 Y96.715 E32.99618
G1 X101.831 Y85.908 E33.32786
G1 X101.831 Y84.896 E33.35331
G1 X110.107 Y96.715 E33.71606
G1 X110.585 Y97.398 F6000.000
G1 X123.215 Y115.436 F2100.000 E34.26968
G1 X123.215 Y116.448 E34.29513
G1 X122.641 Y115.629 E34.32029
G1 X122.321 Y116.184 E34.33640
G1 X123.215 Y117.461 E34.37559
G1 X123.215 Y118.473 E34.40105
G1 X122.001 Y116.738 E34.45429
G1 X121.680 Y117.293 E34.47040
G1 X123.215 Y119.486 E34.53768
G1 X123.215 Y120.498 E34.56314
G1 X121.360 Y117.848 E34.64447
G1 X120.956 Y118.285 E34.65941
G1 X123.215 Y121.511 E34.75841
G1 X123.215 Y122.523 E34.78387
G1 X120.247 Y118.285 E34.91395
G1 X119.538 Y118.285 E34.93178
G1 X123.215 Y123.536 E35.09294
G1 X123.215 Y124.548 E35.11839
G1 X118.829 Y118.285 E35.31063
G1 X118.120 Y118.285 E35.32845
G1 X123.215 Y125.561 E35.55176
G1 X123.215 Y126.573 E35.57722
G1 X107.642 Y104.332 E36.25983
G1 X107.225 Y104.749 E36.27466
G1 X123.215 Y127.586 E36.97555
G1 X123.215 Y128.598 E37.00100
G1 X106.808 Y105.166 E37.72017
G1 X106.182 Y105.285 E37.73619
G1 X123.215 Y129.611 E38.48279
G1 X123.215 Y130.623 E38.50824
G1 X105.473 Y105.285 E39.28592
G1 X104.764 Y105.285 E39.30374
G1 X123.215 Y131.636 E40.11249
G1 X123.215 Y132.648 E40.13795
G1 X104.055 Y105.285 E40.97778
G1 X103.346 Y105.285 E40.99560
G1 X123.215 Y133.661 E41.86650
G1 X123.215 Y134.673 E41.89196
G1 X102.637 Y105.285 E42.79394
G1 X101.034 Y104.008 E42.84547
G1 X123.215 Y135.686 E43.81772
G1 X123.215 Y136.698 E43.84317
G1 X90.016 Y89.285 E45.29836
G1 X89.307 Y89.285 E45.31619
G1 X122.868 Y137.215 E46.78724
G1 X122.159 Y137.215 E46.80506
G1 X76.785 Y72.414 E48.79390
G1 X76.785 Y73.427 E48.81936
G1 X121.450 Y137.215 E50.77712
G1 X120.741 Y137.215 E50.79495
G1 X76.785 Y74.439 E52.72163
G1 X76.785 Y75.452 E52.74709
G1 X101.477 Y110.715 E53.82938
G1 X100.768 Y110.715 E53.84720
G1 X76.785 Y76.464 E54.89842
G1 X76.785 Y77.477 E54.92387
G1 X100.059 Y110.715 E55.94401
G1 X99.350 Y110.715 E55.96184
G1 X76.785 Y78.489 E56.95090
G1 X76.785 Y79.502 E56.97636
G1 X98.641 Y110.715 E57.93435
G1 X97.932 Y110.715 E57.95217
G1 X76.785 Y80.514 E58.87908
G1 X76.785 Y81.527 E58.90454
G1 X97.223 Y110.715 E59.80038
G1 X96.514 Y110.715 E59.81820
G1 X76.785 Y82.539 E60.68296
G1 X76.785 Y83.552 E60.70842
G1 X95.805 Y110.715 E61.54210
G1 X95.096 Y110.715 E61.55993
G1 X76.785 Y84.564 E62.36254
G1 X76.785 Y85.577 E62.38799
G1 X94.387 Y110.715 E63.15953
G1 X93.678 Y110.715 E63.17735
G1 X76.785 Y86.589 E63.91781
G1 X76.785 Y87.602 E63.94327
G1 X92.969 Y110.715 E64.65265
G1 X92.260 Y110.715 E64.67048
G1 X76.785 Y88.614 E65.34879
G1 X76.785 Y89.627 E65.37424
G1 X91.551 Y110.715 E66.02148
G1 X90.842 Y110.715 E66.03930
G1 X76.785 Y90.639 E66.65546
G1 X76.785 Y91.652 E66.68091
G1 X90.133 Y110.715 E67.26600
G1 X89.424 Y110.715 E67.28382
G1 X76.785 Y92.664 E67.83783
G1 X76.785 Y93.677 E67.86328
G1 X88.715 Y110.715 E68.38621
G1 X88.669 Y111.662 E68.41004
G1 X76.785 Y94.689 E68.93094
G1 X76.785 Y95.702 E68.95640
G1 X88.669 Y112.674 E69.47731
G1 X88.669 Y113.687 E69.50276
G1 X76.785 Y96.714 E70.02367
G1 X76.785 Y97.727 E70.04912
G1 X88.669 Y114.699 E70.57003
G1 X88.669 Y115.712 E70.59549
G1 X76.785 Y98.739 E71.11639
G1 X76.785 Y99.752 E71.14185
G1 X88.669 Y116.724 E71.66275
G1 X88.669 Y117.737 E71.68821
G1 X76.785 Y100.764 E72.20912
G1 X76.785 Y101.777 E72.23457
G1 X88.669 Y118.749 E72.75548
G1 X88.669 Y119.762 E72.78093
G1 X76.785 Y102.789 E73.30184
G1 X76.785 Y103.802 E73.32729
G1 X88.669 Y120.774 E73.84820
G1 X88.669 Y121.787 E73.87366
G1 X76.785 Y104.814 E74.39456
G1 X76.785 Y105.827 E74.42002
G1 X88.669 Y122.799 E74.94093
G1 X88.669 Y123.812 E74.96638
G1 X76.785 Y106.840 E75.48729
G1 X76.785 Y107.852 E75.51274
G1 X88.669 Y124.824 E76.03365
G1 X88.669 Y125.837 E76.05910
G1 X76.785 Y108.865 E76.58001
G1 X76.785 Y109.877 E76.60547
G1 X88.669 Y126.849 E77.12637
G1 X88.669 Y127.862 E77.15183
G1 X76.785 Y110.890 E77.67273
G1 X76.785 Y111.902 E77.69819
G1 X88.669 Y128.874 E78.21910
G1 X88.669 Y129.887 E78.24455
G1 X76.785 Y112.915 E78.76546
G1 X76.785 Y113.927 E78.79091
G1 X88.669 Y130.899 E79.31182
G1 X88.669 Y131.912 E79.33728
G1 X76.785 Y114.940 E79.85818
G1 X76.785 Y115.952 E79.88364
G1 X88.669 Y132.925 E80.40454
G1 X88.669 Y133.937 E80.43000
G1 X76.785 Y116.965 E80.95091
G1 X76.785 Y117.977 E80.97636
G1 X88.669 Y134.950 E81.49727
G1 X88.669 Y135.962 E81.52272
G1 X76.785 Y118.990 E82.04363
G1 X76.785 Y120.002 E82.06908
G1 X88.669 Y136.975 E82.58999
G1 X88.129 Y137.215 E82.60486
G1 X76.785 Y121.015 E83.10208
G1 X76.785 Y122.027 E83.12754
G1 X87.420 Y137.215 E83.59368
G1 X86.711 Y137.215 E83.61150
G1 X76.785 Y123.040 E84.04656
G1 X76.785 Y124.052 E84.07202
G1 X86.002 Y137.215 E84.47601
G1 X85.293 Y137.215 E84.49383
G1 X76.785 Y125.065 E84.86675
G1 X76.785 Y126.077 E84.89220
G1 X84.584 Y137.215 E85.23404
G1 X83.875 Y137.215 E85.25186
G1 X76.785 Y127.090 E85.56263
G1 X76.785 Y128.102 E85.58808
G1 X83.166 Y137.215 E85.86777
G1 X82.457 Y137.215 E85.88559
G1 X76.785 Y129.115 E86.13421
G1 X76.785 Y130.127 E86.15966
G1 X81.748 Y137.215 E86.37720
G1 X81.039 Y137.215 E86.39502
G1 X76.785 Y131.140 E86.58148
G1 X76.785 Y132.152 E86.60694
G1 X80.330 Y137.215 E86.76232
G1 X79.621 Y137.215 E86.78015
G1 X76.785 Y133.165 E86.90446
G1 X76.785 Y134.177 E86.92991
G1 X78.912 Y137.215 E87.02314
G1 X78.203 Y137.215 E87.04097
G1 X76.785 Y135.190 E87.10313
G1 X76.785 Y136.202 E87.12858
G1 X77.494 Y137.215 E87.15967
G1 X76.785 Y137.215 E87.17749
G1 X101.831 Y136.534 F6000.000
G1 X102.308 Y137.215 F2100.000 E87.19839
G1 X103.017 Y137.215 E87.21622
G1 X101.831 Y135.522 E87.26820
G1 X101.831 Y134.509 E87.29365
G1 X103.726 Y137.215 E87.37671
G1 X104.435 Y137.215 E87.39453
G1 X101.831 Y133.497 E87.50866
G1 X101.831 Y132.484 E87.53412
G1 X105.144 Y137.215 E87.67933
G1 X105.853 Y137.215 E87.69715
G1 X101.831 Y131.471 E87.87343
G1 X101.831 Y130.459 E87.89889
G1 X106.562 Y137.215 E88.10625
