; generated by Slic3r 0.9.9 on 2013-06-13 at 23:11:07

; layer_height = 0.34
; perimeters = 2
; top_solid_layers = 2
; bottom_solid_layers = 2
; fill_density = 0.4
; perimeter_speed = 70
; infill_speed = 70
; travel_speed = 100
; nozzle_diameter = 0.5
; filament_diameter = 3
; extrusion_multiplier = 0.9
; perimeters extrusion width = 0.60mm
; infill extrusion width = 0.37mm
; solid infill extrusion width = 0.60mm
; top infill extrusion width = 0.60mm

G21 ; set units to millimeters
M107
M104 S220 ; set temperature
G28 ; home all axes
M92 X64.8592 ; calibrate X
M92 Y64.8592  ; calibrate Y
M92 Z2560   ; calibrate Z
M92 E569  ; calibrate E
M551 ; prime extruder 1
M109 S220 ; wait for temperature to be reached
G90 ; use absolute coordinates
G92 E0
M82 ; use absolute distances for extrusion
G1 F1800.000 E-1.00000
G92 E0
G1 Z0.340 F6000.000
G1 X71.530 Y58.210
G1 F1800.000 E1.00000
G1 X71.850 Y57.850 F2100.000 E1.01204
G1 X72.390 Y57.390 E1.02978
G1 X72.990 Y57.000 E1.04767
G1 X73.420 Y56.780 E1.05974
G1 X73.860 Y56.610 E1.07153
G1 X74.320 Y56.480 E1.08348
G1 X74.790 Y56.390 E1.09545
G1 X75.260 Y56.350 E1.10724
G1 X124.740 Y56.350 E2.34424
G1 X125.210 Y56.390 E2.35603
G1 X125.910 Y56.540 E2.37393
G1 X126.580 Y56.780 E2.39172
G1 X127.010 Y57.000 E2.40380
G1 X127.610 Y57.390 E2.42169
G1 X128.150 Y57.850 E2.43942
G1 X128.470 Y58.210 E2.45146
G1 X128.750 Y58.590 E2.46326
G1 X129.110 Y59.200 E2.48097
G1 X129.220 Y59.420 E2.48712
G1 X129.390 Y59.860 E2.49891
G1 X129.570 Y60.550 E2.51674
G1 X129.610 Y60.790 E2.52282
G1 X129.650 Y61.260 E2.53462
G1 X129.650 Y138.740 E4.47162
G1 X129.610 Y139.210 E4.48341
G1 X129.460 Y139.910 E4.50131
G1 X129.220 Y140.580 E4.51910
G1 X129.000 Y141.010 E4.53117
G1 X128.610 Y141.610 E4.54906
G1 X128.150 Y142.150 E4.56680
G1 X127.790 Y142.470 E4.57884
G1 X127.410 Y142.750 E4.59064
G1 X126.800 Y143.110 E4.60835
G1 X126.580 Y143.220 E4.61450
G1 X126.140 Y143.390 E4.62629
G1 X125.450 Y143.570 E4.64412
G1 X125.210 Y143.610 E4.65020
G1 X124.740 Y143.650 E4.66199
G1 X75.260 Y143.650 E5.89899
G1 X74.790 Y143.610 E5.91078
G1 X74.090 Y143.460 E5.92868
G1 X73.420 Y143.220 E5.94647
G1 X72.990 Y143.000 E5.95855
G1 X72.390 Y142.610 E5.97644
G1 X71.850 Y142.150 E5.99417
G1 X71.530 Y141.790 E6.00621
G1 X71.250 Y141.410 E6.01802
G1 X70.890 Y140.800 E6.03572
G1 X70.780 Y140.580 E6.04187
G1 X70.610 Y140.140 E6.05366
G1 X70.430 Y139.450 E6.07149
G1 X70.390 Y139.210 E6.07757
G1 X70.350 Y138.740 E6.08937
G1 X70.350 Y61.260 E8.02637
G1 X70.390 Y60.790 E8.03816
G1 X70.430 Y60.550 E8.04424
G1 X70.540 Y60.090 E8.05607
G1 X70.690 Y59.640 E8.06793
G1 X70.780 Y59.420 E8.07387
G1 X71.000 Y58.990 E8.08594
G1 X71.250 Y58.590 E8.09774
G1 X71.477 Y58.278 E8.10737
G1 X71.960 Y58.600 F6000.000
G1 X72.260 Y58.260 F2100.000 E8.11871
G1 X72.770 Y57.820 E8.13555
G1 X73.150 Y57.570 E8.14692
G1 X73.540 Y57.360 E8.15799
G1 X74.170 Y57.120 E8.17485
G1 X74.610 Y57.010 E8.18618
G1 X75.050 Y56.940 E8.19732
G1 X75.500 Y56.920 E8.20858
G1 X124.500 Y56.920 E9.43358
G1 X124.950 Y56.940 E9.44484
G1 X125.610 Y57.060 E9.46162
G1 X126.040 Y57.190 E9.47285
G1 X126.660 Y57.460 E9.48975
G1 X127.230 Y57.820 E9.50661
G1 X127.740 Y58.260 E9.52345
G1 X128.180 Y58.770 E9.54028
G1 X128.310 Y58.960 E9.54604
G1 X128.640 Y59.540 E9.56272
G1 X128.880 Y60.170 E9.57958
G1 X129.030 Y60.830 E9.59650
G1 X129.060 Y61.050 E9.60205
G1 X129.080 Y61.500 E9.61331
G1 X129.080 Y138.500 E11.53831
G1 X129.060 Y138.950 E11.54957
G1 X128.940 Y139.610 E11.56634
G1 X128.810 Y140.040 E11.57757
G1 X128.540 Y140.660 E11.59448
G1 X128.180 Y141.230 E11.61133
G1 X127.740 Y141.740 E11.62817
G1 X127.230 Y142.180 E11.64501
G1 X127.040 Y142.310 E11.65077
G1 X126.460 Y142.640 E11.66745
G1 X125.830 Y142.880 E11.68430
G1 X125.170 Y143.030 E11.70122
G1 X124.950 Y143.060 E11.70677
G1 X124.500 Y143.080 E11.71804
G1 X75.500 Y143.080 E12.94304
G1 X75.050 Y143.060 E12.95430
G1 X74.390 Y142.940 E12.97107
G1 X73.960 Y142.810 E12.98230
G1 X73.340 Y142.540 E12.99920
G1 X72.770 Y142.180 E13.01606
G1 X72.260 Y141.740 E13.03290
G1 X71.820 Y141.230 E13.04974
G1 X71.690 Y141.040 E13.05549
G1 X71.360 Y140.460 E13.07217
G1 X71.120 Y139.830 E13.08903
G1 X70.970 Y139.170 E13.10595
G1 X70.940 Y138.950 E13.11150
G1 X70.920 Y138.500 E13.12276
G1 X70.920 Y61.500 E15.04776
G1 X70.940 Y61.050 E15.05902
G1 X70.970 Y60.830 E15.06457
G1 X71.060 Y60.390 E15.07580
G1 X71.190 Y59.960 E15.08703
G1 X71.460 Y59.340 E15.10394
G1 X71.690 Y58.960 E15.11504
G1 X71.905 Y58.667 E15.12413
G1 F1800.000 E14.12413
G92 E0
G1 X117.967 Y112.389 F6000.000
G1 F1800.000 E1.00000
G1 X118.694 Y112.019 F900.000 E1.02041
G1 X119.500 Y111.891 E1.04081
G1 X120.306 Y112.019 E1.06122
G1 X121.033 Y112.389 E1.08162
G1 X121.611 Y112.967 E1.10203
G1 X121.981 Y113.694 E1.12243
G1 X122.098 Y114.432 E1.14111
G1 X122.098 Y115.568 E1.16953
G1 X121.981 Y116.306 E1.18820
G1 X121.611 Y117.033 E1.20861
G1 X121.033 Y117.611 E1.22901
G1 X120.306 Y117.981 E1.24942
G1 X119.500 Y118.109 E1.26983
G1 X118.694 Y117.981 E1.29023
G1 X117.967 Y117.611 E1.31064
G1 X117.389 Y117.033 E1.33104
G1 X117.019 Y116.306 E1.35145
G1 X116.902 Y115.568 E1.37012
G1 X116.902 Y114.432 E1.39854
G1 X117.019 Y113.694 E1.41722
G1 X117.389 Y112.967 E1.43762
G1 X117.905 Y112.451 E1.45586
G1 X118.310 Y112.862 F6000.000
G1 X118.875 Y112.575 F900.000 E1.47170
G1 X119.500 Y112.476 E1.48753
G1 X120.125 Y112.575 E1.50336
G1 X120.690 Y112.862 E1.51920
G1 X121.138 Y113.310 E1.53502
G1 X121.425 Y113.875 E1.55086
G1 X121.521 Y114.477 E1.56611
G1 X121.521 Y115.523 E1.59225
G1 X121.425 Y116.125 E1.60751
G1 X121.138 Y116.690 E1.62334
G1 X120.690 Y117.138 E1.63917
G1 X120.125 Y117.425 E1.65501
G1 X119.500 Y117.524 E1.67084
G1 X118.875 Y117.425 E1.68667
G1 X118.310 Y117.138 E1.70250
G1 X117.862 Y116.690 E1.71833
G1 X117.575 Y116.125 E1.73417
G1 X117.479 Y115.523 E1.74942
G1 X117.479 Y114.477 E1.77556
G1 X117.575 Y113.875 E1.79082
G1 X117.862 Y113.310 E1.80665
G1 X118.249 Y112.924 E1.82032
G1 X118.280 Y112.286 F6000.000
G1 X119.500 Y88.109
G1 X118.694 Y87.981 F900.000 E1.84072
G1 X117.967 Y87.611 E1.86113
G1 X117.389 Y87.033 E1.88153
G1 X117.019 Y86.306 E1.90194
G1 X116.902 Y85.568 E1.92061
G1 X116.902 Y84.432 E1.94903
G1 X117.019 Y83.694 E1.96771
G1 X117.389 Y82.967 E1.98812
G1 X117.967 Y82.389 E2.00852
G1 X118.694 Y82.019 E2.02892
G1 X119.500 Y81.891 E2.04933
G1 X120.306 Y82.019 E2.06974
G1 X121.033 Y82.389 E2.09014
G1 X121.611 Y82.967 E2.11055
G1 X121.981 Y83.694 E2.13095
G1 X122.098 Y84.432 E2.14963
G1 X122.098 Y85.568 E2.17805
G1 X121.981 Y86.306 E2.19672
G1 X121.611 Y87.033 E2.21713
G1 X121.033 Y87.611 E2.23753
G1 X120.306 Y87.981 E2.25794
G1 X119.586 Y88.096 E2.27618
G1 X119.500 Y87.524 F6000.000
G1 X118.875 Y87.425 F900.000 E2.29201
G1 X118.310 Y87.138 E2.30785
G1 X117.862 Y86.690 E2.32367
G1 X117.575 Y86.125 E2.33951
G1 X117.479 Y85.523 E2.35476
G1 X117.479 Y84.477 E2.38090
G1 X117.575 Y83.875 E2.39616
G1 X117.862 Y83.310 E2.41199
G1 X118.310 Y82.862 E2.42782
G1 X118.875 Y82.575 E2.44366
G1 X119.500 Y82.476 E2.45949
G1 X120.125 Y82.575 E2.47532
G1 X120.690 Y82.862 E2.49115
G1 X121.138 Y83.310 E2.50698
G1 X121.425 Y83.875 E2.52282
G1 X121.521 Y84.477 E2.53807
G1 X121.521 Y85.523 E2.56421
G1 X121.425 Y86.125 E2.57947
G1 X121.138 Y86.690 E2.59530
G1 X120.690 Y87.138 E2.61113
G1 X120.125 Y87.425 E2.62697
G1 X119.586 Y87.511 E2.64063
G1 X119.185 Y88.009 F6000.000
G1 X87.866 Y90.616
G1 X81.134 Y90.616 F900.000 E2.80894
G1 X81.134 Y78.384 E3.11476
G1 X87.866 Y78.384 E3.28307
G1 X87.866 Y90.530 E3.58672
G1 X87.289 Y90.039 F6000.000
G1 X81.711 Y90.039 F900.000 E3.72615
G1 X81.711 Y78.961 E4.00309
G1 X87.289 Y78.961 E4.14253
G1 X87.289 Y89.952 E4.41730
G1 X87.289 Y90.616 F6000.000
G1 X89.651 Y88.289
G1 X89.651 Y63.211 F1200.000 E5.04424
G1 X100.849 Y63.211 E5.32418
G1 X100.849 Y88.289 E5.95112
G1 X89.738 Y88.289 E6.22889
G1 X89.074 Y88.289 F6000.000
G1 X99.634 Y97.984
G1 X102.484 Y95.134 F900.000 E6.32968
G1 X106.516 Y95.134 E6.43046
G1 X108.516 Y97.134 E6.50117
G1 X110.166 Y97.134 E6.54243
G1 X110.166 Y102.866 E6.68575
G1 X108.516 Y102.866 E6.72701
G1 X106.516 Y104.866 E6.79772
G1 X102.484 Y104.866 E6.89851
G1 X99.634 Y102.016 E6.99929
G1 X99.634 Y98.071 E7.09791
G1 X100.211 Y98.224 F6000.000
G1 X102.724 Y95.711 F900.000 E7.18673
G1 X106.276 Y95.711 E7.27555
G1 X108.276 Y97.711 E7.34626
G1 X109.589 Y97.711 E7.37907
G1 X109.589 Y102.289 E7.49351
G1 X108.276 Y102.289 E7.52632
G1 X106.276 Y104.289 E7.59703
G1 X102.724 Y104.289 E7.68585
G1 X100.211 Y101.776 E7.77467
G1 X100.211 Y98.310 E7.86133
G1 X99.923 Y97.723 F6000.000
G1 X87.866 Y109.384
G1 X87.866 Y121.616 F900.000 E8.16714
G1 X81.134 Y121.616 E8.33545
G1 X81.134 Y109.384 E8.64127
G1 X87.780 Y109.384 E8.80741
G1 X87.289 Y109.961 F6000.000
G1 X87.289 Y121.039 F900.000 E9.08435
G1 X81.711 Y121.039 E9.22379
G1 X81.711 Y109.961 E9.50073
G1 X87.202 Y109.961 E9.63800
G1 X87.866 Y109.961 F6000.000
G1 X89.651 Y111.711
G1 X100.849 Y111.711 F1200.000 E9.91794
G1 X100.849 Y136.789 E10.54488
G1 X89.651 Y136.789 E10.82482
G1 X89.651 Y111.798 E11.44959
G1 X89.651 Y111.134 F6000.000
G1 F1800.000 E10.44959
G92 E0
G1 X101.426 Y62.366 F6000.000
G1 F1800.000 E1.00000
G1 X123.634 Y62.366 F2100.000 E1.55519
G1 X123.634 Y88.490 E2.20828
G1 X121.750 Y90.374 E2.27487
G1 X119.425 Y94.939 E2.40296
G1 X118.623 Y100.000 E2.53106
G1 X119.425 Y105.061 E2.65917
G1 X121.750 Y109.626 E2.78726
G1 X123.634 Y111.510 E2.85385
G1 X123.634 Y137.634 E3.50694
G1 X101.426 Y137.634 E4.06213
G1 X101.426 Y111.134 E4.72463
G1 X89.074 Y111.134 E5.03345
G1 X89.074 Y137.634 E5.69595
G1 X76.366 Y137.634 E6.01363
G1 X76.366 Y62.366 E7.89532
G1 X89.074 Y62.366 E8.21300
G1 X89.074 Y88.866 E8.87550
G1 X101.426 Y88.866 E9.18432
G1 X101.426 Y62.453 E9.84466
G1 X124.211 Y61.789 F6000.000
G1 X124.211 Y88.729 F1200.000 E10.51817
G1 X122.223 Y90.717 E10.58845
G1 X119.981 Y95.120 E10.71197
G1 X119.208 Y100.000 E10.83550
G1 X119.981 Y104.880 E10.95903
G1 X122.223 Y109.283 E11.08255
G1 X124.211 Y111.271 E11.15283
G1 X124.211 Y138.211 E11.82634
G1 X75.789 Y138.211 E13.03691
G1 X75.789 Y61.789 E14.94747
G1 X124.125 Y61.789 E16.15586
G1 X123.923 Y62.289 F6000.000
G1 X123.215 Y62.785
G1 X123.215 Y63.797 F2100.000 E16.18132
G1 X122.506 Y62.785 E16.21240
G1 X121.797 Y62.785 E16.23022
G1 X123.215 Y64.810 E16.29238
G1 X123.215 Y65.822 E16.31783
G1 X121.088 Y62.785 E16.41106
G1 X120.379 Y62.785 E16.42889
G1 X123.215 Y66.835 E16.55319
G1 X123.215 Y67.847 E16.57865
G1 X119.670 Y62.785 E16.73403
G1 X118.961 Y62.785 E16.75185
G1 X123.215 Y68.860 E16.93831
G1 X123.215 Y69.872 E16.96376
G1 X118.252 Y62.785 E17.18129
G1 X117.543 Y62.785 E17.19912
G1 X123.215 Y70.885 E17.44773
G1 X123.215 Y71.898 E17.47318
G1 X116.834 Y62.785 E17.75286
G1 X116.125 Y62.785 E17.77069
G1 X123.215 Y72.910 E18.08144
G1 X123.215 Y73.923 E18.10690
G1 X115.416 Y62.785 E18.44873
G1 X114.707 Y62.785 E18.46656
G1 X123.215 Y74.935 E18.83947
G1 X123.215 Y75.948 E18.86492
G1 X113.999 Y62.785 E19.26891
G1 X113.290 Y62.785 E19.28673
G1 X123.215 Y76.960 E19.72179
G1 X123.215 Y77.973 E19.74725
G1 X112.581 Y62.785 E20.21338
G1 X111.872 Y62.785 E20.23120
G1 X123.215 Y78.985 E20.72842
G1 X123.215 Y79.998 E20.75387
G1 X111.163 Y62.785 E21.28216
G1 X110.454 Y62.785 E21.29998
G1 X123.215 Y81.010 E21.85934
G1 X123.215 Y82.023 E21.88480
G1 X109.745 Y62.785 E22.47524
G1 X109.036 Y62.785 E22.49306
G1 X123.215 Y83.035 E23.11457
G1 X123.215 Y84.048 E23.14003
G1 X108.327 Y62.785 E23.79262
G1 X107.618 Y62.785 E23.81044
G1 X121.007 Y81.906 E24.39730
G1 X120.052 Y81.555 E24.42288
G1 X106.909 Y62.785 E24.99895
G1 X106.200 Y62.785 E25.01678
G1 X119.303 Y81.498 E25.59112
G1 X118.665 Y81.600 E25.60736
G1 X105.491 Y62.785 E26.18482
G1 X104.782 Y62.785 E26.20264
G1 X118.124 Y81.839 E26.78745
G1 X117.625 Y82.139 E26.80209
G1 X104.073 Y62.785 E27.39610
G1 X103.364 Y62.785 E27.41393
G1 X117.208 Y82.556 E28.02073
G1 X116.864 Y83.077 E28.03643
G1 X102.655 Y62.785 E28.65922
G1 X101.946 Y62.785 E28.67704
G1 X116.594 Y83.704 E29.31907
G1 X116.483 Y84.559 E29.34074
G1 X101.845 Y63.653 E29.98236
G1 X101.845 Y64.665 F6000.000
G1 X116.483 Y85.571 F2100.000 E30.62399
G1 X118.392 Y88.297 F6000.000
G1 X120.676 Y91.560 F2100.000 E30.72413
G1 X120.378 Y92.146 E30.74066
G1 X101.845 Y65.678 E31.55300
G1 X101.845 Y66.690 E31.57846
G1 X120.079 Y92.732 E32.37771
G1 X119.781 Y93.318 E32.39424
G1 X101.845 Y67.703 E33.18041
G1 X101.845 Y68.715 E33.20586
G1 X119.482 Y93.904 E33.97894
G1 X119.184 Y94.490 E33.99548
G1 X101.845 Y69.728 E34.75547
G1 X101.845 Y70.740 E34.78093
G1 X118.962 Y95.186 E35.53120
G1 X118.831 Y96.012 E35.55222
G1 X101.845 Y71.753 E36.29675
G1 X101.845 Y72.766 E36.32221
G1 X118.700 Y96.837 E37.06101
G1 X118.569 Y97.663 E37.08203
G1 X101.845 Y73.778 E37.81510
G1 X101.845 Y74.791 E37.84055
G1 X118.439 Y98.489 E38.56789
G1 X118.308 Y99.315 E38.58890
G1 X101.845 Y75.803 E39.31050
G1 X101.845 Y76.816 E39.33596
G1 X118.234 Y100.222 E40.05434
G1 X118.442 Y101.531 E40.08765
G1 X101.845 Y77.828 E40.81512
G1 X101.845 Y78.841 E40.84058
G1 X118.649 Y102.839 E41.57714
G1 X118.856 Y104.148 E41.61045
G1 X101.845 Y79.853 E42.35610
G1 X101.845 Y80.866 E42.38155
G1 X119.405 Y105.944 E43.15124
G1 X121.297 Y109.659 F6000.000
G1 X101.845 Y81.878 F2100.000 E44.00387
G1 X101.845 Y82.891 E44.02933
G1 X123.215 Y113.411 E44.96603
G1 X123.215 Y112.398 E44.99148
G1 X121.545 Y110.013 E45.06467
G1 X120.598 Y111.698 F6000.000
G1 X110.585 Y97.398 F2100.000 E45.50357
G1 X110.107 Y96.715 F6000.000
G1 X101.845 Y84.916 F2100.000 E45.86571
G1 X101.845 Y83.903 E45.89117
G1 X123.215 Y114.423 E46.82787
G1 X123.191 Y115.401 F6000.000
G1 X123.215 Y115.436 F2100.000 E46.82892
G1 X122.731 Y115.756 E46.84353
G1 X123.215 Y116.448 E46.86476
G1 X122.432 Y116.342 E46.88462
G1 X123.215 Y117.461 E46.91894
G1 X123.215 Y118.473 E46.94440
G1 X122.134 Y116.929 E46.99180
G1 X121.788 Y117.448 E47.00748
G1 X123.215 Y119.486 E47.07002
G1 X123.215 Y120.498 E47.09548
G1 X121.371 Y117.865 E47.17630
G1 X120.871 Y118.163 E47.19094
G1 X123.215 Y121.511 E47.29369
G1 X123.215 Y122.523 E47.31914
G1 X120.329 Y118.401 E47.44565
G1 X119.691 Y118.503 E47.46190
G1 X123.215 Y123.536 E47.61637
G1 X123.215 Y124.548 E47.64183
G1 X118.941 Y118.444 E47.82917
G1 X117.983 Y118.089 E47.85485
G1 X123.215 Y125.561 E48.08418
G1 X123.215 Y126.573 E48.10963
G1 X107.642 Y104.332 E48.79225
G1 X108.059 Y103.915 E48.80707
G1 X116.554 Y116.048 E49.17944
G1 X116.483 Y114.934 E49.20750
G1 X108.476 Y103.498 E49.55848
G1 X109.035 Y103.285 E49.57354
G1 X116.545 Y114.010 E49.90270
G1 X116.753 Y113.294 E49.92143
G1 X109.744 Y103.285 E50.22863
G1 X110.453 Y103.285 E50.24646
G1 X117.053 Y112.711 E50.53575
G1 X117.470 Y112.294 E50.55057
G1 X110.585 Y102.460 E50.85238
G1 X110.585 Y101.448 E50.87783
G1 X117.930 Y111.938 E51.19980
G1 X118.453 Y111.672 E51.21455
G1 X110.585 Y100.435 E51.55942
G1 X110.585 Y99.423 E51.58488
G1 X119.067 Y111.536 E51.95665
G1 X119.756 Y111.508 E51.97399
G1 X110.585 Y98.410 E52.37598
G1 X109.398 Y96.715 F6000.000
G1 X101.845 Y85.928 F2100.000 E52.70704
G1 X101.845 Y86.941 E52.73250
G1 X108.689 Y96.715 E53.03249
G1 X106.580 Y94.715 E53.10557
G1 X101.845 Y87.953 E53.31310
G1 X101.845 Y88.966 E53.33856
G1 X105.871 Y94.715 E53.51502
G1 X105.162 Y94.715 E53.53284
G1 X101.359 Y89.285 E53.69951
G1 X100.650 Y89.285 E53.71733
G1 X104.453 Y94.715 E53.88400
G1 X103.744 Y94.715 E53.90182
G1 X99.941 Y89.285 E54.06849
G1 X99.232 Y89.285 E54.08631
G1 X103.035 Y94.715 E54.25298
G1 X102.326 Y94.715 E54.27080
G1 X98.523 Y89.285 E54.43747
G1 X97.814 Y89.285 E54.45529
G1 X101.903 Y95.123 E54.63449
G1 X101.486 Y95.540 E54.64931
G1 X97.106 Y89.285 E54.84131
G1 X96.397 Y89.285 E54.85913
G1 X101.069 Y95.957 E55.06392
G1 X100.652 Y96.374 E55.07875
G1 X95.688 Y89.285 E55.29634
G1 X94.979 Y89.285 E55.31416
G1 X100.235 Y96.791 E55.54455
G1 X99.818 Y97.208 E55.55937
G1 X94.270 Y89.285 E55.80256
G1 X93.561 Y89.285 E55.82038
G1 X99.401 Y97.625 E56.07637
G1 X99.215 Y98.373 E56.09573
G1 X92.852 Y89.285 E56.37465
G1 X92.143 Y89.285 E56.39248
G1 X99.215 Y99.385 E56.70248
G1 X99.215 Y100.398 E56.72793
G1 X91.434 Y89.285 E57.06901
G1 X90.725 Y89.285 E57.08683
G1 X99.215 Y101.410 E57.45898
