; generated by Slic3r 0.9.9 on 2013-06-10 at 12:18:59

; layer_height = 0.34
; perimeters = 2
; top_solid_layers = 2
; bottom_solid_layers = 2
; fill_density = 0.4
; perimeter_speed = 70
; infill_speed = 70
; travel_speed = 100
; nozzle_diameter = 0.5
; filament_diameter = 3
; extrusion_multiplier = 0.9
; perimeters extrusion width = 0.60mm
; infill extrusion width = 0.37mm
; solid infill extrusion width = 0.60mm
; top infill extrusion width = 0.60mm

G21 ; set units to millimeters
M107
M104 S220 ; set temperature
G28 ; home all axes
M92 X64.8592 ; calibrate X
M92 Y64.8592  ; calibrate Y
M92 Z2560   ; calibrate Z
M92 E569  ; calibrate E
M551 ; prime extruder 1
M109 S220 ; wait for temperature to be reached
G90 ; use absolute coordinates
G92 E0
M82 ; use absolute distances for extrusion
G1 F1800.000 E-1.00000
G92 E0
G1 Z0.340 F6000.000
G1 X84.500 Y85.865
G1 F1800.000 E1.00000
G1 X84.970 Y85.485 F2100.000 E1.01511
G1 X85.210 Y85.315 E1.02246
G1 X85.730 Y85.015 E1.03747
G1 X89.000 Y83.345 E1.12926
G1 X89.550 Y83.105 E1.14427
G1 X90.130 Y82.915 E1.15953
G1 X90.420 Y82.845 E1.16698
G1 X94.350 Y82.225 E1.26645
G1 X94.650 Y82.185 E1.27402
G1 X95.240 Y82.155 E1.28878
G1 X95.830 Y82.185 E1.30355
G1 X99.770 Y82.795 E1.40323
G1 X100.360 Y82.915 E1.41828
G1 X100.650 Y83.005 E1.42587
G1 X101.210 Y83.215 E1.44082
G1 X101.490 Y83.345 E1.44854
G1 X124.320 Y95.005 E2.08942
G1 X124.970 Y95.395 E2.10837
G1 X125.560 Y95.865 E2.12723
G1 X125.920 Y96.215 E2.13978
G1 X126.240 Y96.605 E2.15239
G1 X126.530 Y97.015 E2.16495
G1 X126.790 Y97.455 E2.17772
G1 X127.000 Y97.905 E2.19014
G1 X127.170 Y98.375 E2.20263
G1 X127.300 Y98.865 E2.21531
G1 X127.390 Y99.365 E2.22801
G1 X127.440 Y99.865 E2.24057
G1 X127.440 Y104.365 E2.35307
G1 X127.390 Y104.875 E2.36588
G1 X127.240 Y105.615 E2.38476
G1 X127.090 Y106.095 E2.39733
G1 X126.890 Y106.565 E2.41010
G1 X126.530 Y107.225 E2.42890
G1 X126.230 Y107.635 E2.44160
G1 X125.910 Y108.025 E2.45421
G1 X125.350 Y108.545 E2.47331
G1 X124.740 Y108.985 E2.49212
G1 X124.300 Y109.235 E2.50477
G1 X123.600 Y109.525 E2.52371
G1 X123.120 Y109.675 E2.53628
G1 X83.940 Y117.775 E3.53650
G1 X83.240 Y117.845 E3.55408
G1 X78.030 Y117.845 E3.68433
G1 X77.280 Y117.765 E3.70319
G1 X77.040 Y117.715 E3.70932
G1 X76.320 Y117.505 E3.72807
G1 X75.860 Y117.315 E3.74051
G1 X75.410 Y117.075 E3.75326
G1 X74.990 Y116.815 E3.76561
G1 X74.410 Y116.345 E3.78427
G1 X74.050 Y115.985 E3.79700
G1 X73.580 Y115.405 E3.81566
G1 X73.320 Y114.985 E3.82801
G1 X73.080 Y114.535 E3.84076
G1 X72.810 Y113.835 E3.85952
G1 X72.630 Y113.115 E3.87807
G1 X72.550 Y112.365 E3.89693
G1 X72.550 Y107.835 E4.01018
G1 X72.610 Y107.265 E4.02451
G1 X72.720 Y106.715 E4.03853
G1 X72.890 Y106.165 E4.05292
G1 X73.110 Y105.645 E4.06704
G1 X78.960 Y93.385 E4.40664
G1 X80.630 Y90.115 E4.49844
G1 X80.930 Y89.595 E4.51345
G1 X81.100 Y89.355 E4.52080
G1 X81.480 Y88.885 E4.53591
G1 X84.439 Y85.926 E4.64052
G1 X84.690 Y86.475 F6000.000
G1 X85.090 Y86.115 F2100.000 E4.65397
G1 X85.760 Y85.665 E4.67415
G1 X89.270 Y83.865 E4.77276
G1 X89.510 Y83.745 E4.77947
G1 X90.020 Y83.555 E4.79308
G1 X90.280 Y83.475 E4.79988
G1 X90.810 Y83.365 E4.81341
G1 X94.710 Y82.755 E4.91210
G1 X94.970 Y82.735 E4.91861
G1 X95.510 Y82.735 E4.93211
G1 X96.040 Y82.795 E4.94545
G1 X99.680 Y83.365 E5.03756
G1 X100.210 Y83.475 E5.05109
G1 X100.980 Y83.745 E5.07149
G1 X124.050 Y95.525 E5.71908
G1 X124.480 Y95.765 E5.73139
G1 X124.690 Y95.905 E5.73770
G1 X125.070 Y96.205 E5.74980
G1 X125.600 Y96.725 E5.76837
G1 X125.900 Y97.115 E5.78067
G1 X126.170 Y97.525 E5.79294
G1 X126.400 Y97.965 E5.80535
G1 X126.580 Y98.425 E5.81770
G1 X126.720 Y98.895 E5.82996
G1 X126.810 Y99.375 E5.84217
G1 X126.860 Y99.865 E5.85448
G1 X126.860 Y104.345 E5.96648
G1 X126.820 Y104.815 E5.97828
G1 X126.730 Y105.275 E5.98999
G1 X126.530 Y105.955 E6.00771
G1 X126.440 Y106.175 E6.01366
G1 X126.230 Y106.595 E6.02540
G1 X125.990 Y106.995 E6.03706
G1 X125.710 Y107.375 E6.04886
G1 X125.390 Y107.725 E6.06071
G1 X125.050 Y108.045 E6.07239
G1 X124.680 Y108.325 E6.08399
G1 X124.080 Y108.695 E6.10161
G1 X123.650 Y108.895 E6.11347
G1 X123.430 Y108.975 E6.11932
G1 X122.980 Y109.115 E6.13110
G1 X122.750 Y109.165 E6.13698
G1 X83.850 Y117.205 E7.13004
G1 X83.220 Y117.265 E7.14586
G1 X78.040 Y117.265 E7.27536
G1 X77.570 Y117.225 E7.28715
G1 X77.100 Y117.135 E7.29912
G1 X76.640 Y117.005 E7.31107
G1 X76.200 Y116.835 E7.32286
G1 X75.770 Y116.615 E7.33493
G1 X75.170 Y116.225 E7.35282
G1 X74.630 Y115.765 E7.37056
G1 X74.310 Y115.405 E7.38260
G1 X74.030 Y115.025 E7.39440
G1 X73.780 Y114.625 E7.40619
G1 X73.560 Y114.195 E7.41827
G1 X73.320 Y113.525 E7.43606
G1 X73.170 Y112.825 E7.45396
G1 X73.130 Y112.355 E7.46575
G1 X73.130 Y107.855 E7.57825
G1 X73.180 Y107.355 E7.59081
G1 X73.280 Y106.855 E7.60356
G1 X73.520 Y106.125 E7.62277
G1 X79.420 Y93.775 E7.96494
G1 X81.280 Y90.145 E8.06691
G1 X81.730 Y89.475 E8.08709
G1 X82.090 Y89.075 E8.10055
G1 X84.629 Y86.536 E8.19030
G1 X85.100 Y86.885 F6000.000
G1 X85.530 Y86.505 F2100.000 E8.20465
G1 X86.010 Y86.185 E8.21907
G1 X89.530 Y84.375 E8.31802
G1 X90.060 Y84.145 E8.33247
G1 X90.330 Y84.055 E8.33958
G1 X90.900 Y83.935 E8.35415
G1 X94.810 Y83.325 E8.45308
G1 X95.380 Y83.305 E8.46734
G1 X95.950 Y83.365 E8.48167
G1 X99.870 Y83.985 E8.58088
G1 X100.430 Y84.145 E8.59544
G1 X100.960 Y84.375 E8.60989
G1 X123.790 Y96.035 E9.25077
G1 X124.190 Y96.265 E9.26230
G1 X124.730 Y96.675 E9.27925
G1 X125.060 Y96.995 E9.29075
G1 X125.360 Y97.345 E9.30227
G1 X125.730 Y97.925 E9.31947
G1 X125.930 Y98.335 E9.33087
G1 X126.010 Y98.545 E9.33649
G1 X126.150 Y98.985 E9.34804
G1 X126.240 Y99.435 E9.35951
G1 X126.290 Y100.115 E9.37655
G1 X126.290 Y104.115 E9.47655
G1 X126.270 Y104.565 E9.48782
G1 X126.150 Y105.225 E9.50459
G1 X126.020 Y105.645 E9.51558
G1 X125.850 Y106.065 E9.52690
G1 X125.640 Y106.455 E9.53798
G1 X125.400 Y106.825 E9.54900
G1 X125.110 Y107.175 E9.56037
G1 X124.800 Y107.495 E9.57151
G1 X124.460 Y107.775 E9.58252
G1 X124.270 Y107.905 E9.58827
G1 X123.690 Y108.245 E9.60508
G1 X123.280 Y108.415 E9.61618
G1 X122.850 Y108.545 E9.62741
G1 X83.750 Y116.635 E10.62561
G1 X83.010 Y116.695 E10.64417
G1 X78.280 Y116.695 E10.76242
G1 X77.830 Y116.675 E10.77368
G1 X77.390 Y116.605 E10.78482
G1 X76.950 Y116.495 E10.79616
G1 X76.320 Y116.255 E10.81301
G1 X75.930 Y116.045 E10.82409
G1 X75.550 Y115.795 E10.83546
G1 X75.040 Y115.355 E10.85230
G1 X74.600 Y114.845 E10.86914
G1 X74.350 Y114.465 E10.88051
G1 X74.140 Y114.075 E10.89158
G1 X73.970 Y113.655 E10.90291
G1 X73.840 Y113.225 E10.91414
G1 X73.720 Y112.565 E10.93091
G1 X73.700 Y112.115 E10.94217
G1 X73.700 Y108.115 E11.04217
G1 X73.730 Y107.605 E11.05494
G1 X73.880 Y106.855 E11.07407
G1 X74.150 Y106.145 E11.09306
G1 X79.990 Y93.915 E11.43188
G1 X81.800 Y90.395 E11.53083
G1 X82.120 Y89.915 E11.54525
G1 X82.500 Y89.485 E11.55960
G1 X85.039 Y86.946 E11.64935
G1 F1800.000 E10.64935
G92 E0
G1 X79.155 Y111.249 F6000.000
G1 F1800.000 E1.00000
G1 X79.155 Y108.981 F2100.000 E1.05669
G1 X84.366 Y108.981 E1.18697
G1 X84.366 Y99.703 E1.41892
G1 X84.909 Y96.275 E1.50569
G1 X86.454 Y93.245 E1.59073
G1 X88.860 Y90.839 E1.67579
G1 X91.890 Y89.294 E1.76083
G1 X95.250 Y88.762 E1.84587
G1 X98.610 Y89.294 E1.93092
G1 X101.640 Y90.839 E2.01595
G1 X104.046 Y93.245 E2.10102
G1 X105.591 Y96.275 E2.18605
G1 X106.134 Y99.703 E2.27282
G1 X106.134 Y100.981 E2.30477
G1 X120.845 Y100.981 E2.67256
G1 X120.845 Y103.249 E2.72925
G1 X103.866 Y103.249 E3.15372
G1 X103.866 Y99.567 E3.24576
G1 X103.455 Y96.969 E3.31152
G1 X102.229 Y94.564 E3.37899
G1 X100.321 Y92.656 E3.44648
G1 X97.916 Y91.430 E3.51395
G1 X95.250 Y91.008 E3.58143
G1 X92.584 Y91.430 E3.64892
G1 X90.179 Y92.656 E3.71639
G1 X88.271 Y94.564 E3.78388
G1 X87.045 Y96.969 E3.85135
G1 X86.634 Y99.567 E3.91711
G1 X86.634 Y107.276 E4.10984
G1 X82.661 Y111.249 E4.25029
G1 X79.242 Y111.249 E4.33578
G1 X78.577 Y111.826 F6000.000
G1 X78.577 Y108.404 F1200.000 E4.42134
G1 X83.789 Y108.404 E4.55163
G1 X83.789 Y99.658 E4.77028
G1 X84.353 Y96.094 E4.86047
G1 X85.981 Y92.901 E4.95008
G1 X88.516 Y90.366 E5.03972
G1 X91.709 Y88.738 E5.12933
G1 X95.250 Y88.177 E5.21895
G1 X98.791 Y88.738 E5.30856
G1 X101.984 Y90.366 E5.39817
G1 X104.519 Y92.901 E5.48781
G1 X106.147 Y96.094 E5.57742
G1 X106.711 Y99.658 E5.66761
G1 X106.711 Y100.404 E5.68626
G1 X121.423 Y100.404 E6.05405
G1 X121.423 Y103.826 E6.13961
G1 X103.289 Y103.826 E6.59295
G1 X103.289 Y99.612 E6.69830
G1 X102.899 Y97.150 E6.76064
G1 X101.756 Y94.908 E6.82353
G1 X99.977 Y93.129 E6.88645
G1 X97.735 Y91.986 E6.94935
G1 X95.250 Y91.593 E7.01226
G1 X92.765 Y91.986 E7.07516
G1 X90.523 Y93.129 E7.13806
G1 X88.743 Y94.908 E7.20098
G1 X87.601 Y97.150 E7.26388
G1 X87.211 Y99.612 E7.32621
G1 X87.211 Y107.515 E7.52379
G1 X82.900 Y111.826 E7.67620
G1 X78.664 Y111.826 E7.78211
G1 X78.866 Y111.326 F6000.000
G1 X79.574 Y110.830
G1 X80.337 Y110.830 F2100.000 E7.80279
G1 X79.573 Y109.739 E7.83886
G1 X80.099 Y109.400 E7.85581
G1 X81.101 Y110.830 E7.90310
G1 X81.865 Y110.830 E7.92378
G1 X80.863 Y109.400 E7.97107
G1 X81.627 Y109.400 E7.99175
G1 X82.570 Y110.748 E8.03630
G1 X83.020 Y110.298 E8.05351
G1 X82.391 Y109.400 E8.08321
G1 X83.154 Y109.400 E8.10389
G1 X83.469 Y109.849 E8.11875
G1 X83.918 Y109.400 E8.13595
G1 X84.785 Y108.533 F6000.000
G1 X85.204 Y108.114 F2100.000 E8.15094
G1 X84.785 Y107.515 E8.16943
G1 X85.624 Y107.694 E8.19112
G1 X84.785 Y106.496 E8.22809
G1 X84.785 Y105.478 E8.25383
G1 X86.043 Y107.275 E8.30928
G1 X86.215 Y106.503 E8.32928
G1 X84.785 Y104.460 E8.39232
G1 X84.785 Y103.442 E8.41806
G1 X86.215 Y105.485 E8.48111
G1 X86.215 Y104.467 E8.50685
G1 X84.785 Y102.424 E8.56989
G1 X84.785 Y101.406 E8.59563
G1 X86.215 Y103.449 E8.65868
G1 X86.215 Y102.430 E8.68442
G1 X84.785 Y100.388 E8.74746
G1 X84.832 Y99.437 E8.77152
G1 X86.215 Y101.412 E8.83248
G1 X86.215 Y100.394 E8.85822
G1 X84.964 Y98.607 E8.91338
G1 X85.095 Y97.776 E8.93463
G1 X86.236 Y99.405 E8.98490
G1 X86.367 Y98.575 E9.00616
G1 X85.227 Y96.946 E9.05642
G1 X85.417 Y96.200 E9.07588
G1 X86.498 Y97.744 E9.12354
G1 X86.630 Y96.914 E9.14480
G1 X85.717 Y95.611 E9.18501
G1 X86.018 Y95.021 E9.20173
G1 X86.915 Y96.302 E9.24127
G1 X87.215 Y95.713 E9.25799
G1 X86.318 Y94.432 E9.29752
G1 X86.618 Y93.843 E9.31424
G1 X87.515 Y95.124 E9.35378
G1 X87.816 Y94.535 E9.37050
G1 X86.967 Y93.323 E9.40791
G1 X87.386 Y92.904 E9.42290
G1 X88.191 Y94.052 E9.45835
G1 X88.610 Y93.633 E9.47334
G1 X87.806 Y92.484 E9.50879
G1 X88.225 Y92.065 E9.52378
G1 X89.029 Y93.214 E9.55923
G1 X89.449 Y92.794 E9.57422
G1 X88.644 Y91.646 E9.60968
G1 X89.064 Y91.226 E9.62467
G1 X89.868 Y92.375 E9.66012
G1 X90.378 Y92.085 E9.67495
G1 X89.578 Y90.942 E9.71020
G1 X90.103 Y90.675 E9.72511
G1 X90.903 Y91.817 E9.76037
G1 X91.428 Y91.549 E9.77527
G1 X90.629 Y90.407 E9.81053
G1 X91.154 Y90.139 E9.82544
G1 X91.954 Y91.281 E9.86069
G1 X92.485 Y91.022 E9.87563
G1 X91.679 Y89.871 E9.91114
G1 X92.246 Y89.662 E9.92640
G1 X93.127 Y90.920 E9.96525
G1 X93.769 Y90.819 E9.98167
G1 X92.887 Y89.560 E10.02052
G1 X93.529 Y89.458 E10.03694
G1 X94.410 Y90.717 E10.07579
G1 X95.052 Y90.615 E10.09222
G1 X94.171 Y89.357 E10.13107
G1 X94.813 Y89.255 E10.14749
G1 X95.805 Y90.672 E10.19122
G1 X96.606 Y90.799 E10.21174
G1 X95.505 Y89.226 E10.26028
G1 X96.307 Y89.353 E10.28080
G1 X97.408 Y90.926 E10.32933
G1 X98.272 Y91.142 E10.35185
G1 X97.109 Y89.480 E10.40313
G1 X97.911 Y89.607 E10.42365
G1 X99.381 Y91.707 E10.48845
G1 X100.490 Y92.272 E10.51990
G1 X98.802 Y89.862 E10.59428
G1 X99.910 Y90.427 E10.62573
G1 X105.507 Y98.419 E10.87239
G1 X105.715 Y99.734 E10.90606
G1 X103.908 Y97.154 E10.98570
G1 X104.116 Y98.470 E11.01937
G1 X105.715 Y100.753 E11.08983
G1 X106.168 Y101.400 F6000.000
G1 X107.170 Y102.830 F2100.000 E11.13398
G1 X107.883 Y102.830 E11.15200
G1 X106.881 Y101.400 E11.19614
G1 X107.594 Y101.400 E11.21417
G1 X108.595 Y102.830 E11.25831
G1 X109.308 Y102.830 E11.27634
G1 X108.307 Y101.400 E11.32048
G1 X109.020 Y101.400 E11.33850
G1 X110.021 Y102.830 E11.38265
G1 X110.734 Y102.830 E11.40067
G1 X109.733 Y101.400 E11.44481
G1 X110.446 Y101.400 E11.46284
G1 X111.447 Y102.830 E11.50698
G1 X112.160 Y102.830 E11.52501
G1 X111.159 Y101.400 E11.56915
G1 X111.871 Y101.400 E11.58717
G1 X112.873 Y102.830 E11.63132
G1 X113.586 Y102.830 E11.64934
G1 X112.584 Y101.400 E11.69348
G1 X113.297 Y101.400 E11.71151
G1 X114.299 Y102.830 E11.75565
G1 X115.012 Y102.830 E11.77367
G1 X114.010 Y101.400 E11.81782
G1 X114.723 Y101.400 E11.83584
G1 X115.725 Y102.830 E11.87999
G1 X116.438 Y102.830 E11.89801
G1 X115.436 Y101.400 E11.94215
G1 X116.149 Y101.400 E11.96018
G1 X117.150 Y102.830 E12.00432
G1 X117.863 Y102.830 E12.02234
G1 X116.862 Y101.400 E12.06649
G1 X117.575 Y101.400 E12.08451
G1 X118.576 Y102.830 E12.12866
G1 X119.289 Y102.830 E12.14668
G1 X118.288 Y101.400 E12.19082
G1 X119.001 Y101.400 E12.20885
G1 X120.002 Y102.830 E12.25299
G1 X120.427 Y102.418 E12.26795
G1 X119.713 Y101.400 E12.29937
G1 X120.427 Y101.400 E12.31740
G1 X106.457 Y102.830 F6000.000
G1 X104.285 Y99.728 F2100.000 E12.41313
G1 X104.285 Y100.746 E12.43887
G1 X105.744 Y102.830 E12.50318
G1 X105.031 Y102.830 E12.52120
G1 X104.285 Y101.765 E12.55408
G1 X104.285 Y102.783 E12.57982
G1 X104.318 Y102.830 E12.58129
G1 X105.298 Y97.103 F6000.000
G1 X101.019 Y90.992 F2100.000 E12.76990
G1 X102.970 Y92.760 E12.83648
G1 X104.291 Y94.647 E12.89471
G1 F1800.000 E11.89471
G92 E0
G1 Z0.680 F6000.000
G1 X78.959 Y111.249
G1 F1800.000 E1.00000
G1 X78.959 Y108.981 F4200.000 E1.05669
G1 X84.366 Y108.981 E1.19188
G1 X84.366 Y99.703 E1.42383
G1 X84.909 Y96.275 E1.51060
G1 X86.454 Y93.245 E1.59564
G1 X88.860 Y90.839 E1.68070
G1 X91.890 Y89.294 E1.76573
G1 X95.250 Y88.762 E1.85078
G1 X98.610 Y89.294 E1.93583
G1 X101.640 Y90.839 E2.02086
G1 X104.046 Y93.245 E2.10593
G1 X105.591 Y96.275 E2.19096
G1 X106.134 Y99.703 E2.27773
G1 X106.134 Y100.981 E2.30968
G1 X121.041 Y100.981 E2.68237
G1 X121.041 Y103.249 E2.73906
G1 X103.866 Y103.249 E3.16844
G1 X103.866 Y99.567 E3.26049
G1 X103.455 Y96.969 E3.32624
G1 X102.229 Y94.564 E3.39371
G1 X100.321 Y92.656 E3.46121
G1 X97.916 Y91.430 E3.52868
G1 X95.250 Y91.008 E3.59616
G1 X92.584 Y91.430 E3.66364
G1 X90.179 Y92.656 E3.73111
G1 X88.271 Y94.564 E3.79860
G1 X87.045 Y96.969 E3.86607
G1 X86.634 Y99.567 E3.93183
G1 X86.634 Y107.276 E4.12456
G1 X82.661 Y111.249 E4.26501
G1 X79.045 Y111.249 E4.35541
G1 X78.381 Y111.826 F6000.000
G1 X78.381 Y108.404 F2400.000 E4.44097
G1 X83.789 Y108.404 E4.57617
G1 X83.789 Y99.658 E4.79482
G1 X84.353 Y96.094 E4.88501
G1 X85.981 Y92.901 E4.97462
G1 X88.516 Y90.366 E5.06426
G1 X91.709 Y88.738 E5.15386
G1 X95.250 Y88.177 E5.24348
G1 X98.791 Y88.738 E5.33310
G1 X101.984 Y90.366 E5.42271
G1 X104.519 Y92.901 E5.51235
G1 X106.147 Y96.094 E5.60195
G1 X106.711 Y99.658 E5.69215
G1 X106.711 Y100.404 E5.71080
G1 X121.619 Y100.404 E6.08349
G1 X121.619 Y103.826 E6.16905
G1 X103.289 Y103.826 E6.62731
G1 X103.289 Y99.612 E6.73266
G1 X102.899 Y97.150 E6.79499
G1 X101.756 Y94.908 E6.85789
G1 X99.977 Y93.129 E6.92081
G1 X97.735 Y91.986 E6.98370
G1 X95.250 Y91.593 E7.04661
G1 X92.765 Y91.986 E7.10952
G1 X90.523 Y93.129 E7.17241
G1 X88.743 Y94.908 E7.23533
G1 X87.601 Y97.150 E7.29823
G1 X87.211 Y99.612 E7.36056
G1 X87.211 Y107.515 E7.55814
G1 X82.900 Y111.826 E7.71055
G1 X78.468 Y111.826 E7.82137
G1 X78.670 Y111.326 F6000.000
G1 X79.377 Y109.400
G1 X79.377 Y110.122 F4200.000 E7.83984
G1 X80.408 Y109.400 E7.87204
G1 X81.439 Y109.400 E7.89842
G1 X79.396 Y110.830 E7.96223
G1 X80.426 Y110.830 E7.98861
G1 X82.469 Y109.400 E8.05242
G1 X83.500 Y109.400 E8.07880
G1 X81.457 Y110.830 E8.14261
G1 X82.488 Y110.830 E8.16900
G1 X84.785 Y107.839 F6000.000
G1 X86.215 Y106.837 F4200.000 E8.21342
G1 X86.215 Y106.120 E8.23167
G1 X84.785 Y107.121 E8.27608
G1 X84.785 Y106.404 E8.29433
G1 X86.215 Y105.402 E8.33875
G1 X86.215 Y104.685 E8.35700
G1 X84.785 Y105.686 E8.40142
G1 X84.785 Y104.969 E8.41966
G1 X86.215 Y103.968 E8.46408
G1 X86.215 Y103.250 E8.48233
G1 X84.785 Y104.252 E8.52675
G1 X84.785 Y103.534 E8.54500
G1 X86.215 Y102.533 E8.58941
G1 X86.215 Y101.816 E8.60766
G1 X84.785 Y102.817 E8.65208
G1 X84.785 Y102.100 E8.67033
G1 X86.215 Y101.098 E8.71475
G1 X86.215 Y100.381 E8.73299
