; generated by Slic3r 0.9.9 on 2013-06-08 at 22:52:02

; layer_height = 0.34
; perimeters = 2
; top_solid_layers = 2
; bottom_solid_layers = 2
; fill_density = 0.4
; perimeter_speed = 70
; infill_speed = 70
; travel_speed = 100
; nozzle_diameter = 0.5
; filament_diameter = 3
; extrusion_multiplier = 0.9
; perimeters extrusion width = 0.60mm
; infill extrusion width = 0.37mm
; solid infill extrusion width = 0.60mm
; top infill extrusion width = 0.60mm

G21 ; set units to millimeters
M107
M104 S220 ; set temperature
G28 ; home all axes
M92 X64.8592 ; calibrate X
M92 Y64.8592  ; calibrate Y
M92 Z2560   ; calibrate Z
M92 E569  ; calibrate E
M551 ; prime extruder 1
M109 S220 ; wait for temperature to be reached
G90 ; use absolute coordinates
G92 E0
M82 ; use absolute distances for extrusion
G1 F1800.000 E-1.00000
G92 E0
G1 Z0.340 F6000.000
G1 X76.210 Y70.510
G1 F1800.000 E1.00000
G1 X76.720 Y70.020 F2100.000 E1.01768
G1 X77.300 Y69.610 E1.03544
G1 X77.710 Y69.380 E1.04719
G1 X78.370 Y69.110 E1.06502
G1 X78.830 Y68.980 E1.07697
G1 X79.290 Y68.890 E1.08869
G1 X79.760 Y68.850 E1.10048
G1 X126.240 Y68.850 E2.26248
G1 X126.710 Y68.890 E2.27427
G1 X127.180 Y68.980 E2.28624
G1 X127.640 Y69.110 E2.29819
G1 X128.080 Y69.280 E2.30998
G1 X128.510 Y69.500 E2.32205
G1 X128.910 Y69.750 E2.33385
G1 X129.290 Y70.030 E2.34565
G1 X129.650 Y70.350 E2.35769
G1 X129.970 Y70.710 E2.36973
G1 X130.250 Y71.090 E2.38153
G1 X130.500 Y71.490 E2.39332
G1 X130.720 Y71.920 E2.40540
G1 X130.890 Y72.360 E2.41719
G1 X131.020 Y72.820 E2.42914
G1 X131.110 Y73.290 E2.44110
G1 X131.150 Y73.760 E2.45290
G1 X131.150 Y126.240 E3.76490
G1 X131.110 Y126.710 E3.77669
G1 X131.020 Y127.180 E3.78865
G1 X130.890 Y127.640 E3.80060
G1 X130.720 Y128.080 E3.81240
G1 X130.500 Y128.510 E3.82447
G1 X130.250 Y128.910 E3.83626
G1 X129.970 Y129.290 E3.84806
G1 X129.650 Y129.650 E3.86011
G1 X129.290 Y129.970 E3.87215
G1 X128.910 Y130.250 E3.88395
G1 X128.510 Y130.500 E3.89574
G1 X128.080 Y130.720 E3.90781
G1 X127.640 Y130.890 E3.91961
G1 X127.180 Y131.020 E3.93156
G1 X126.710 Y131.110 E3.94352
G1 X126.240 Y131.150 E3.95531
G1 X79.760 Y131.150 E5.11731
G1 X79.290 Y131.110 E5.12911
G1 X78.830 Y131.020 E5.14082
G1 X78.370 Y130.890 E5.15277
G1 X77.710 Y130.620 E5.17060
G1 X77.300 Y130.390 E5.18235
G1 X76.720 Y129.980 E5.20011
G1 X76.210 Y129.490 E5.21779
G1 X75.760 Y128.940 E5.23556
G1 X75.510 Y128.530 E5.24756
G1 X75.300 Y128.110 E5.25930
G1 X75.120 Y127.670 E5.27119
G1 X74.990 Y127.220 E5.28290
G1 X69.220 Y103.450 E5.89441
G1 X69.100 Y102.760 E5.91191
G1 X68.850 Y100.310 E5.97348
G1 X68.850 Y99.670 E5.98948
G1 X68.870 Y99.460 E5.99476
G1 X69.100 Y97.230 E6.05080
G1 X69.220 Y96.540 E6.06831
G1 X74.990 Y72.780 E6.67958
G1 X75.120 Y72.330 E6.69129
G1 X75.400 Y71.670 E6.70921
G1 X75.760 Y71.060 E6.72692
G1 X76.152 Y70.575 E6.74252
G1 X76.590 Y70.940 F6000.000
G1 X77.080 Y70.470 F2100.000 E6.75949
G1 X77.440 Y70.200 E6.77074
G1 X77.830 Y69.970 E6.78206
G1 X78.240 Y69.770 E6.79347
G1 X78.660 Y69.620 E6.80462
G1 X79.100 Y69.510 E6.81595
G1 X79.550 Y69.440 E6.82734
G1 X80.000 Y69.420 E6.83860
G1 X126.000 Y69.420 E7.98860
G1 X126.450 Y69.440 E7.99986
G1 X126.890 Y69.510 E8.01100
G1 X127.330 Y69.620 E8.02234
G1 X127.750 Y69.770 E8.03349
G1 X128.160 Y69.960 E8.04479
G1 X128.540 Y70.190 E8.05589
G1 X128.730 Y70.320 E8.06165
G1 X129.240 Y70.760 E8.07849
G1 X129.680 Y71.270 E8.09532
G1 X129.810 Y71.460 E8.10108
G1 X130.040 Y71.840 E8.11218
G1 X130.230 Y72.250 E8.12348
G1 X130.380 Y72.670 E8.13463
G1 X130.490 Y73.110 E8.14597
G1 X130.560 Y73.550 E8.15711
G1 X130.580 Y74.000 E8.16837
G1 X130.580 Y126.000 E9.46837
G1 X130.560 Y126.450 E9.47963
G1 X130.490 Y126.890 E9.49077
G1 X130.380 Y127.330 E9.50211
G1 X130.230 Y127.750 E9.51326
G1 X130.040 Y128.160 E9.52455
G1 X129.810 Y128.540 E9.53566
G1 X129.680 Y128.730 E9.54141
G1 X129.240 Y129.240 E9.55825
G1 X128.730 Y129.680 E9.57509
G1 X128.540 Y129.810 E9.58085
G1 X128.160 Y130.040 E9.59195
G1 X127.750 Y130.230 E9.60325
G1 X127.330 Y130.380 E9.61440
G1 X126.890 Y130.490 E9.62574
G1 X126.450 Y130.560 E9.63688
G1 X126.000 Y130.580 E9.64814
G1 X80.000 Y130.580 E10.79814
G1 X79.550 Y130.560 E10.80940
G1 X79.100 Y130.490 E10.82078
G1 X78.660 Y130.380 E10.83212
G1 X78.240 Y130.230 E10.84327
G1 X77.830 Y130.030 E10.85468
G1 X77.440 Y129.800 E10.86600
G1 X77.080 Y129.530 E10.87725
G1 X76.590 Y129.060 E10.89422
G1 X76.310 Y128.710 E10.90543
G1 X75.950 Y128.130 E10.92249
G1 X75.760 Y127.720 E10.93379
G1 X75.550 Y127.080 E10.95063
G1 X69.780 Y103.310 E11.56214
G1 X69.680 Y102.700 E11.57759
G1 X69.420 Y100.080 E11.64341
G1 X69.430 Y99.710 E11.65266
G1 X69.680 Y97.290 E11.71349
G1 X69.780 Y96.680 E11.72894
G1 X75.550 Y72.920 E12.34020
G1 X75.680 Y72.490 E12.35143
G1 X75.950 Y71.870 E12.36834
G1 X76.180 Y71.480 E12.37966
G1 X76.535 Y71.007 E12.39445
G1 F1800.000 E11.39445
G92 E0
G1 X92.438 Y76.492 F6000.000
G1 F1800.000 E1.00000
G1 X92.671 Y76.035 F900.000 E1.01285
G1 X93.035 Y75.671 E1.02569
G1 X93.492 Y75.438 E1.03854
G1 X94.000 Y75.358 E1.05138
G1 X94.507 Y75.438 E1.06423
G1 X94.965 Y75.671 E1.07707
G1 X95.329 Y76.035 E1.08992
G1 X95.562 Y76.492 E1.10277
G1 X95.642 Y77.000 E1.11561
G1 X95.562 Y77.508 E1.12846
G1 X95.329 Y77.965 E1.14131
G1 X94.965 Y78.329 E1.15415
G1 X94.507 Y78.562 E1.16700
G1 X94.000 Y78.642 E1.17984
G1 X93.492 Y78.562 E1.19269
G1 X93.035 Y78.329 E1.20553
G1 X92.671 Y77.965 E1.21838
G1 X92.438 Y77.508 E1.23123
G1 X92.358 Y77.000 E1.24407
G1 X92.424 Y76.578 E1.25475
G1 X92.115 Y76.093 F6000.000
G1 X87.260 Y92.276
G1 X88.811 Y92.967 F2100.000 E1.29720
G1 X90.184 Y93.965 E1.33964
G1 X91.320 Y95.227 E1.38209
G1 X92.169 Y96.697 E1.42453
G1 X92.473 Y97.634 E1.44916
G1 X109.187 Y97.634 E1.86701
G1 X111.536 Y93.566 E1.98442
G1 X118.964 Y93.566 E2.17014
G1 X122.679 Y100.000 E2.35586
G1 X118.964 Y106.434 E2.54158
G1 X111.536 Y106.434 E2.72730
G1 X109.187 Y102.366 E2.84472
G1 X92.473 Y102.366 E3.26257
G1 X92.169 Y103.303 E3.28719
G1 X91.320 Y104.773 E3.32964
G1 X90.184 Y106.035 E3.37208
G1 X88.811 Y107.033 E3.41453
G1 X87.260 Y107.724 E3.45697
G1 X85.599 Y108.077 E3.49941
G1 X83.901 Y108.077 E3.54186
G1 X82.240 Y107.724 E3.58430
G1 X80.689 Y107.033 E3.62674
G1 X79.316 Y106.035 E3.66919
G1 X78.180 Y104.773 E3.71163
G1 X77.331 Y103.303 E3.75408
G1 X76.806 Y101.688 E3.79652
G1 X76.629 Y100.000 E3.83896
G1 X76.806 Y98.312 E3.88141
G1 X77.331 Y96.697 E3.92385
G1 X78.180 Y95.227 E3.96630
G1 X79.316 Y93.965 E4.00874
G1 X80.689 Y92.967 E4.05118
G1 X82.240 Y92.276 E4.09363
G1 X83.901 Y91.923 E4.13607
G1 X85.599 Y91.923 E4.17851
G1 X87.175 Y92.258 E4.21879
G1 X87.080 Y92.829 F6000.000
G1 X88.520 Y93.470 F1200.000 E4.25820
G1 X89.795 Y94.396 E4.29761
G1 X90.850 Y95.568 E4.33702
G1 X91.638 Y96.933 E4.37643
G1 X92.054 Y98.211 E4.41003
G1 X109.521 Y98.211 E4.84670
G1 X111.869 Y94.144 E4.96412
G1 X118.631 Y94.144 E5.13317
G1 X122.012 Y100.000 E5.30222
G1 X118.631 Y105.856 E5.47127
G1 X111.869 Y105.856 E5.64032
G1 X109.521 Y101.789 E5.75773
G1 X92.054 Y101.789 E6.19441
G1 X91.638 Y103.067 E6.22800
G1 X90.850 Y104.432 E6.26741
G1 X89.795 Y105.604 E6.30682
G1 X88.520 Y106.530 E6.34623
G1 X87.080 Y107.171 E6.38564
G1 X85.538 Y107.499 E6.42505
G1 X83.962 Y107.499 E6.46446
G1 X82.420 Y107.171 E6.50387
G1 X80.980 Y106.530 E6.54328
G1 X79.705 Y105.604 E6.58269
G1 X78.650 Y104.432 E6.62210
G1 X77.862 Y103.067 E6.66150
G1 X77.374 Y101.568 E6.70091
G1 X77.210 Y100.000 E6.74032
G1 X77.374 Y98.432 E6.77973
G1 X77.862 Y96.933 E6.81914
G1 X78.650 Y95.568 E6.85855
G1 X79.705 Y94.396 E6.89796
G1 X80.980 Y93.470 E6.93737
G1 X82.420 Y92.829 E6.97678
G1 X83.962 Y92.501 E7.01619
G1 X85.538 Y92.501 E7.05559
G1 X86.995 Y92.811 E7.09284
G1 X87.523 Y92.458 F6000.000
G1 X80.866 Y74.866
G1 X93.023 Y74.866 F2100.000 E7.39676
G1 X92.198 Y75.691 E7.42591
G1 X91.882 Y76.312 E7.44333
G1 X91.773 Y77.000 E7.46075
G1 X91.882 Y77.688 E7.47817
G1 X92.198 Y78.309 E7.49559
G1 X92.691 Y78.802 E7.51301
G1 X93.312 Y79.118 E7.53043
G1 X94.000 Y79.227 E7.54785
G1 X94.688 Y79.118 E7.56527
G1 X95.309 Y78.802 E7.58268
G1 X95.802 Y78.309 E7.60011
G1 X96.118 Y77.688 E7.61752
G1 X96.227 Y77.000 E7.63494
G1 X96.118 Y76.312 E7.65236
G1 X95.802 Y75.691 E7.66978
G1 X94.977 Y74.866 E7.69894
G1 X125.134 Y74.866 E8.45286
G1 X125.134 Y125.134 E9.70954
G1 X80.866 Y125.134 E10.81623
G1 X80.866 Y109.025 E11.21894
G1 X79.811 Y108.555 E11.24783
G1 X78.140 Y107.342 E11.29946
G1 X76.758 Y105.807 E11.35109
G1 X75.725 Y104.018 E11.40272
G1 X75.087 Y102.054 E11.45436
G1 X74.871 Y100.000 E11.50599
G1 X75.087 Y97.946 E11.55762
G1 X75.725 Y95.982 E11.60925
G1 X76.758 Y94.193 E11.66088
G1 X78.140 Y92.658 E11.71251
G1 X79.811 Y91.445 E11.76415
G1 X80.866 Y90.975 E11.79304
G1 X80.866 Y74.953 E12.19358
G1 X80.289 Y74.289 F6000.000
G1 X125.711 Y74.289 F1200.000 E13.32914
G1 X125.711 Y125.711 E14.61470
G1 X80.289 Y125.711 E15.75027
G1 X80.289 Y109.401 E16.15804
G1 X79.520 Y109.058 E16.17907
G1 X77.751 Y107.773 E16.23374
G1 X76.288 Y106.148 E16.28840
G1 X75.195 Y104.254 E16.34307
G1 X74.519 Y102.175 E16.39773
G1 X74.290 Y100.000 E16.45240
G1 X74.519 Y97.825 E16.50707
G1 X75.195 Y95.746 E16.56173
G1 X76.288 Y93.852 E16.61640
G1 X77.751 Y92.227 E16.67107
G1 X79.520 Y90.942 E16.72573
G1 X80.289 Y90.599 E16.74677
G1 X80.289 Y74.375 E17.15237
G1 X80.789 Y74.577 F6000.000
G1 X91.697 Y75.752
G1 X91.370 Y75.285 F2100.000 E17.16672
G1 X90.661 Y75.285 E17.18457
G1 X91.444 Y76.403 E17.21892
G1 X91.407 Y77.364 E17.24311
G1 X89.951 Y75.285 E17.30696
G1 X89.242 Y75.285 E17.32481
G1 X104.597 Y97.215 E17.99835
G1 X103.888 Y97.215 E18.01620
G1 X88.532 Y75.285 E18.68975
G1 X87.823 Y75.285 E18.70760
G1 X103.179 Y97.215 E19.38115
G1 X102.469 Y97.215 E19.39900
G1 X87.113 Y75.285 E20.07255
G1 X86.404 Y75.285 E20.09040
G1 X101.760 Y97.215 E20.76394
G1 X101.050 Y97.215 E20.78179
G1 X85.694 Y75.285 E21.45534
G1 X84.985 Y75.285 E21.47319
G1 X100.341 Y97.215 E22.14674
G1 X99.631 Y97.215 E22.16459
G1 X84.275 Y75.285 E22.83814
G1 X83.566 Y75.285 E22.85599
G1 X98.922 Y97.215 E23.52953
G1 X98.212 Y97.215 E23.54738
G1 X82.856 Y75.285 E24.22093
G1 X82.147 Y75.285 E24.23878
G1 X97.503 Y97.215 E24.91233
G1 X96.793 Y97.215 E24.93018
G1 X81.437 Y75.285 E25.60373
G1 X81.285 Y76.080 E25.62410
G1 X96.084 Y97.215 E26.27322
G1 X95.374 Y97.215 E26.29107
G1 X81.285 Y77.093 E26.90908
G1 X81.285 Y78.106 E26.93457
G1 X94.665 Y97.215 E27.52145
G1 X93.955 Y97.215 E27.53930
G1 X81.285 Y79.120 E28.09507
G1 X81.285 Y80.133 E28.12056
G1 X93.246 Y97.215 E28.64521
G1 X89.602 Y93.025 F6000.000
G1 X81.285 Y81.146 F2100.000 E29.01004
G1 X81.285 Y82.159 E29.03554
G1 X88.405 Y92.328 E29.34786
G1 X87.377 Y91.874 E29.37613
G1 X81.285 Y83.173 E29.64337
G1 X81.285 Y84.186 E29.66886
G1 X86.544 Y91.696 E29.89953
G1 X85.710 Y91.519 E29.92097
G1 X81.285 Y85.199 E30.11508
G1 X81.285 Y86.212 E30.14057
G1 X84.991 Y91.505 E30.30312
G1 X84.281 Y91.505 E30.32097
G1 X81.285 Y87.226 E30.45240
G1 X81.285 Y88.239 E30.47790
G1 X83.609 Y91.558 E30.57983
G1 X82.991 Y91.689 E30.59571
G1 X81.285 Y89.252 E30.67056
G1 X81.285 Y90.265 E30.69605
G1 X82.374 Y91.820 E30.74381
G1 X81.800 Y92.014 E30.75905
G1 X81.268 Y91.254 E30.78240
G1 X80.727 Y91.495 E30.79729
G1 X81.259 Y92.255 E30.82065
G1 X80.718 Y92.496 E30.83554
G1 X80.186 Y91.736 E30.85890
G1 X79.694 Y92.046 E30.87353
G1 X80.217 Y92.793 E30.89646
G1 X79.747 Y93.135 E30.91109
G1 X79.224 Y92.388 E30.93401
G1 X78.754 Y92.730 E30.94864
G1 X79.276 Y93.476 E30.97157
G1 X78.841 Y93.867 E30.98629
G1 X78.304 Y93.101 E31.00982
G1 X77.905 Y93.544 E31.02483
G1 X78.442 Y94.310 E31.04836
G1 X78.042 Y94.754 E31.06336
G1 X77.506 Y93.988 E31.08689
G1 X77.107 Y94.431 E31.10189
G1 X77.682 Y95.252 E31.12711
G1 X77.361 Y95.807 E31.14325
G1 X76.785 Y94.984 E31.16854
G1 X76.464 Y95.539 E31.18467
G1 X77.041 Y96.363 E31.20997
G1 X76.788 Y97.015 E31.22756
G1 X76.143 Y96.094 E31.25582
G1 X75.908 Y96.772 E31.27386
G1 X76.563 Y97.707 E31.30257
G1 X76.371 Y98.446 E31.32179
G1 X75.684 Y97.464 E31.35196
G1 X75.482 Y98.190 E31.37091
G1 X76.279 Y99.327 E31.40585
G1 X76.238 Y100.282 E31.42989
G1 X75.390 Y99.071 E31.46709
G1 X75.297 Y99.952 E31.48938
G1 X76.363 Y101.474 E31.53614
G1 X75.410 Y101.127 F6000.000
G1 X76.854 Y103.188 F2100.000 E31.59945
G1 X75.680 Y102.526 F6000.000
G1 X79.260 Y107.638 F2100.000 E31.75647
G1 X79.099 Y106.395 E31.78802
G1 X80.509 Y108.408 E31.84985
G1 X80.525 Y107.418 F6000.000
G1 X92.636 Y124.715 F2100.000 E32.38111
G1 X93.346 Y124.715 E32.39895
G1 X81.556 Y107.877 E32.91611
G1 X82.495 Y108.206 E32.94116
G1 X94.055 Y124.715 E33.44822
G1 X94.765 Y124.715 E33.46607
G1 X83.329 Y108.383 E33.96768
G1 X84.117 Y108.495 E33.98771
G1 X95.474 Y124.715 E34.48588
G1 X96.184 Y124.715 E34.50373
G1 X84.826 Y108.495 E35.00190
G1 X85.536 Y108.495 E35.01975
G1 X96.893 Y124.715 E35.51792
G1 X97.603 Y124.715 E35.53576
G1 X86.167 Y108.384 E36.03736
G1 X86.785 Y108.252 E36.05324
G1 X98.312 Y124.715 E36.55886
G1 X99.022 Y124.715 E36.57671
G1 X87.401 Y108.119 E37.08644
G1 X87.942 Y107.878 E37.10133
G1 X99.731 Y124.715 E37.61845
G1 X100.441 Y124.715 E37.63630
G1 X88.483 Y107.637 E38.16082
G1 X89.023 Y107.396 E38.17571
G1 X101.150 Y124.715 E38.70764
G1 X101.860 Y124.715 E38.72549
G1 X89.493 Y107.054 E39.26791
G1 X89.964 Y106.713 E39.28253
G1 X102.569 Y124.715 E39.83544
G1 X103.279 Y124.715 E39.85329
G1 X90.434 Y106.371 E40.41670
G1 X90.838 Y105.935 E40.43166
G1 X103.988 Y124.715 E41.00846
G1 X104.697 Y124.715 E41.02631
G1 X91.237 Y105.491 E41.61673
G1 X91.636 Y105.048 E41.63174
G1 X105.407 Y124.715 E42.23578
G1 X106.116 Y124.715 E42.25363
G1 X91.961 Y104.500 E42.87450
G1 X92.282 Y103.944 E42.89064
G1 X106.826 Y124.715 E43.52857
G1 X107.535 Y124.715 E43.54642
G1 X92.588 Y103.368 E44.20206
G1 X92.889 Y102.785 E44.21857
G1 X108.245 Y124.715 E44.89212
G1 X108.954 Y124.715 E44.90997
G1 X93.598 Y102.785 E45.58351
G1 X94.308 Y102.785 E45.60136
G1 X109.664 Y124.715 E46.27491
G1 X110.373 Y124.715 E46.29276
G1 X95.017 Y102.785 E46.96631
G1 X95.727 Y102.785 E46.98416
G1 X111.083 Y124.715 E47.65771
G1 X111.792 Y124.715 E47.67556
G1 X96.436 Y102.785 E48.34910
G1 X97.146 Y102.785 E48.36695
G1 X112.502 Y124.715 E49.04050
G1 X113.211 Y124.715 E49.05835
G1 X97.855 Y102.785 E49.73190
G1 X98.565 Y102.785 E49.74975
G1 X113.921 Y124.715 E50.42330
G1 X114.630 Y124.715 E50.44115
G1 X99.274 Y102.785 E51.11469
G1 X99.984 Y102.785 E51.13254
G1 X115.340 Y124.715 E51.80609
G1 X116.049 Y124.715 E51.82394
G1 X100.693 Y102.785 E52.49749
G1 X101.403 Y102.785 E52.51534
G1 X116.758 Y124.715 E53.18889
G1 X117.468 Y124.715 E53.20674
G1 X102.112 Y102.785 E53.88028
G1 X102.822 Y102.785 E53.89813
G1 X118.177 Y124.715 E54.57168
G1 X118.887 Y124.715 E54.58953
G1 X103.531 Y102.785 E55.26308
G1 X104.241 Y102.785 E55.28093
G1 X119.596 Y124.715 E55.95448
G1 X120.306 Y124.715 E55.97233
G1 X104.950 Y102.785 E56.64587
G1 X105.659 Y102.785 E56.66372
G1 X121.015 Y124.715 E57.33727
G1 X121.725 Y124.715 E57.35512
G1 X106.369 Y102.785 E58.02867
G1 X107.078 Y102.785 E58.04652
G1 X122.434 Y124.715 E58.72007
G1 X123.144 Y124.715 E58.73792
G1 X107.788 Y102.785 E59.41146
G1 X108.497 Y102.785 E59.42931
G1 X111.052 Y106.434 E59.54138
G1 X111.345 Y106.852 F6000.000
G1 X123.853 Y124.715 F2100.000 E60.09001
G1 X124.563 Y124.715 E60.10786
G1 X112.055 Y106.852 E60.65649
G1 X112.764 Y106.852 E60.67434
G1 X124.715 Y123.920 E61.19854
G1 X124.715 Y122.907 E61.22403
G1 X113.474 Y106.852 E61.71712
G1 X114.183 Y106.852 E61.73496
G1 X124.715 Y121.893 E62.19693
G1 X124.715 Y120.880 E62.22242
G1 X114.893 Y106.852 E62.65326
G1 X115.602 Y106.852 E62.67111
G1 X124.715 Y119.867 E63.07084
G1 X124.715 Y118.854 E63.09633
G1 X116.312 Y106.852 E63.46493
G1 X117.021 Y106.852 E63.48278
G1 X124.715 Y117.840 E63.82027
G1 X124.715 Y116.827 E63.84576
G1 X117.731 Y106.852 E64.15213
G1 X118.440 Y106.852 E64.16998
G1 X124.715 Y115.814 E64.44522
G1 X124.715 Y114.801 E64.47071
G1 X119.149 Y106.852 E64.71484
G1 X119.501 Y106.341 E64.73045
G1 X124.715 Y113.788 E64.95915
G1 X124.715 Y112.774 E64.98464
G1 X119.822 Y105.786 E65.19928
G1 X120.142 Y105.230 E65.21542
G1 X124.715 Y111.761 E65.41599
G1 X124.715 Y110.748 E65.44148
G1 X120.463 Y104.675 E65.62800
